LUTs/Damaging/LUT_RED/orange_midtones.cube
#Generated by lutCreator.js
#Coded by SirSerch
#https://github.com/SirSerch/LutCreatorJs
TITLE lutCreatorJs_25
LUT_3D_SIZE 5
0.000000 0.000000 0.000000
0.396078 0.000000 0.000000
0.686275 0.000000 0.000000
0.866667 0.000000 0.000000
1.000000 0.000000 0.000000
0.000000 0.250980 0.000000
0.396078 0.250980 0.000000
0.686275 0.250980 0.000000
0.866667 0.250980 0.000000
1.000000 0.250980 0.000000
0.000000 0.501961 0.000000
0.396078 0.501961 0.000000
0.686275 0.501961 0.000000
0.866667 0.501961 0.000000
1.000000 0.501961 0.000000
0.000000 0.749020 0.000000
0.396078 0.749020 0.000000
0.686275 0.749020 0.000000
0.866667 0.749020 0.000000
1.000000 0.749020 0.000000
0.000000 1.000000 0.000000
0.396078 1.000000 0.000000
0.686275 1.000000 0.000000
0.866667 1.000000 0.000000
1.000000 1.000000 0.000000
0.000000 0.000000 0.145098
0.396078 0.000000 0.145098
0.686275 0.000000 0.145098
0.866667 0.000000 0.145098
1.000000 0.000000 0.145098
0.000000 0.250980 0.145098
0.396078 0.250980 0.145098
0.686275 0.250980 0.145098
0.866667 0.250980 0.145098
1.000000 0.250980 0.145098
0.000000 0.501961 0.145098
0.396078 0.501961 0.145098
0.686275 0.501961 0.145098
0.866667 0.501961 0.145098
1.000000 0.501961 0.145098
0.000000 0.749020 0.145098
0.396078 0.749020 0.145098
0.686275 0.749020 0.145098
0.866667 0.749020 0.145098
1.000000 0.749020 0.145098
0.000000 1.000000 0.145098
0.396078 1.000000 0.145098
0.686275 1.000000 0.145098
0.866667 1.000000 0.145098
1.000000 1.000000 0.145098
0.000000 0.000000 0.321569
0.396078 0.000000 0.321569
0.686275 0.000000 0.321569
0.866667 0.000000 0.321569
1.000000 0.000000 0.321569
0.000000 0.250980 0.321569
0.396078 0.250980 0.321569
0.686275 0.250980 0.321569
0.866667 0.250980 0.321569
1.000000 0.250980 0.321569
0.000000 0.501961 0.321569
0.396078 0.501961 0.321569
0.686275 0.501961 0.321569
0.866667 0.501961 0.321569
1.000000 0.501961 0.321569
0.000000 0.749020 0.321569
0.396078 0.749020 0.321569
0.686275 0.749020 0.321569
0.866667 0.749020 0.321569
1.000000 0.749020 0.321569
0.000000 1.000000 0.321569
0.396078 1.000000 0.321569
0.686275 1.000000 0.321569
0.866667 1.000000 0.321569
1.000000 1.000000 0.321569
0.000000 0.000000 0.580392
0.396078 0.000000 0.580392
0.686275 0.000000 0.580392
0.866667 0.000000 0.580392
1.000000 0.000000 0.580392
0.000000 0.250980 0.580392
0.396078 0.250980 0.580392
0.686275 0.250980 0.580392
0.866667 0.250980 0.580392
1.000000 0.250980 0.580392
0.000000 0.501961 0.580392
0.396078 0.501961 0.580392
0.686275 0.501961 0.580392
0.866667 0.501961 0.580392
1.000000 0.501961 0.580392
0.000000 0.749020 0.580392
0.396078 0.749020 0.580392
0.686275 0.749020 0.580392
0.866667 0.749020 0.580392
1.000000 0.749020 0.580392
0.000000 1.000000 0.580392
0.396078 1.000000 0.580392
0.686275 1.000000 0.580392
0.866667 1.000000 0.580392
1.000000 1.000000 0.580392
0.000000 0.000000 1.000000
0.396078 0.000000 1.000000
0.686275 0.000000 1.000000
0.866667 0.000000 1.000000
1.000000 0.000000 1.000000
0.000000 0.250980 1.000000
0.396078 0.250980 1.000000
0.686275 0.250980 1.000000
0.866667 0.250980 1.000000
1.000000 0.250980 1.000000
0.000000 0.501961 1.000000
0.396078 0.501961 1.000000
0.686275 0.501961 1.000000
0.866667 0.501961 1.000000
1.000000 0.501961 1.000000
0.000000 0.749020 1.000000
0.396078 0.749020 1.000000
0.686275 0.749020 1.000000
0.866667 0.749020 1.000000
1.000000 0.749020 1.000000
0.000000 1.000000 1.000000
0.396078 1.000000 1.000000
0.686275 1.000000 1.000000
0.866667 1.000000 1.000000
1.000000 1.000000 1.000000
