LUTs/Damaging/LUT_RED/orange_midtones.cube
#Generated by lutCreator.js
#Coded by SirSerch
#https://github.com/SirSerch/LutCreatorJs
TITLE lutCreatorJs_25
LUT_3D_SIZE 25
0.000000 0.000000 0.000000
0.070588 0.000000 0.000000
0.137255 0.000000 0.000000
0.203922 0.000000 0.000000
0.274510 0.000000 0.000000
0.333333 0.000000 0.000000
0.396078 0.000000 0.000000
0.450980 0.000000 0.000000
0.509804 0.000000 0.000000
0.560784 0.000000 0.000000
0.607843 0.000000 0.000000
0.647059 0.000000 0.000000
0.686275 0.000000 0.000000
0.721569 0.000000 0.000000
0.756863 0.000000 0.000000
0.784314 0.000000 0.000000
0.815686 0.000000 0.000000
0.843137 0.000000 0.000000
0.866667 0.000000 0.000000
0.894118 0.000000 0.000000
0.917647 0.000000 0.000000
0.937255 0.000000 0.000000
0.956863 0.000000 0.000000
0.976471 0.000000 0.000000
1.000000 0.000000 0.000000
0.000000 0.043137 0.000000
0.070588 0.043137 0.000000
0.137255 0.043137 0.000000
0.203922 0.043137 0.000000
0.274510 0.043137 0.000000
0.333333 0.043137 0.000000
0.396078 0.043137 0.000000
0.450980 0.043137 0.000000
0.509804 0.043137 0.000000
0.560784 0.043137 0.000000
0.607843 0.043137 0.000000
0.647059 0.043137 0.000000
0.686275 0.043137 0.000000
0.721569 0.043137 0.000000
0.756863 0.043137 0.000000
0.784314 0.043137 0.000000
0.815686 0.043137 0.000000
0.843137 0.043137 0.000000
0.866667 0.043137 0.000000
0.894118 0.043137 0.000000
0.917647 0.043137 0.000000
0.937255 0.043137 0.000000
0.956863 0.043137 0.000000
0.976471 0.043137 0.000000
1.000000 0.043137 0.000000
0.000000 0.082353 0.000000
0.070588 0.082353 0.000000
0.137255 0.082353 0.000000
0.203922 0.082353 0.000000
0.274510 0.082353 0.000000
0.333333 0.082353 0.000000
0.396078 0.082353 0.000000
0.450980 0.082353 0.000000
0.509804 0.082353 0.000000
0.560784 0.082353 0.000000
0.607843 0.082353 0.000000
0.647059 0.082353 0.000000
0.686275 0.082353 0.000000
0.721569 0.082353 0.000000
0.756863 0.082353 0.000000
0.784314 0.082353 0.000000
0.815686 0.082353 0.000000
0.843137 0.082353 0.000000
0.866667 0.082353 0.000000
0.894118 0.082353 0.000000
0.917647 0.082353 0.000000
0.937255 0.082353 0.000000
0.956863 0.082353 0.000000
0.976471 0.082353 0.000000
1.000000 0.082353 0.000000
0.000000 0.125490 0.000000
0.070588 0.125490 0.000000
0.137255 0.125490 0.000000
0.203922 0.125490 0.000000
0.274510 0.125490 0.000000
0.333333 0.125490 0.000000
0.396078 0.125490 0.000000
0.450980 0.125490 0.000000
0.509804 0.125490 0.000000
0.560784 0.125490 0.000000
0.607843 0.125490 0.000000
0.647059 0.125490 0.000000
0.686275 0.125490 0.000000
0.721569 0.125490 0.000000
0.756863 0.125490 0.000000
0.784314 0.125490 0.000000
0.815686 0.125490 0.000000
0.843137 0.125490 0.000000
0.866667 0.125490 0.000000
0.894118 0.125490 0.000000
0.917647 0.125490 0.000000
0.937255 0.125490 0.000000
0.956863 0.125490 0.000000
0.976471 0.125490 0.000000
1.000000 0.125490 0.000000
0.000000 0.168627 0.000000
0.070588 0.168627 0.000000
0.137255 0.168627 0.000000
0.203922 0.168627 0.000000
0.274510 0.168627 0.000000
0.333333 0.168627 0.000000
0.396078 0.168627 0.000000
0.450980 0.168627 0.000000
0.509804 0.168627 0.000000
0.560784 0.168627 0.000000
0.607843 0.168627 0.000000
0.647059 0.168627 0.000000
0.686275 0.168627 0.000000
0.721569 0.168627 0.000000
0.756863 0.168627 0.000000
0.784314 0.168627 0.000000
0.815686 0.168627 0.000000
0.843137 0.168627 0.000000
0.866667 0.168627 0.000000
0.894118 0.168627 0.000000
0.917647 0.168627 0.000000
0.937255 0.168627 0.000000
0.956863 0.168627 0.000000
0.976471 0.168627 0.000000
1.000000 0.168627 0.000000
0.000000 0.207843 0.000000
0.070588 0.207843 0.000000
0.137255 0.207843 0.000000
0.203922 0.207843 0.000000
0.274510 0.207843 0.000000
0.333333 0.207843 0.000000
0.396078 0.207843 0.000000
0.450980 0.207843 0.000000
0.509804 0.207843 0.000000
0.560784 0.207843 0.000000
0.607843 0.207843 0.000000
0.647059 0.207843 0.000000
0.686275 0.207843 0.000000
0.721569 0.207843 0.000000
0.756863 0.207843 0.000000
0.784314 0.207843 0.000000
0.815686 0.207843 0.000000
0.843137 0.207843 0.000000
0.866667 0.207843 0.000000
0.894118 0.207843 0.000000
0.917647 0.207843 0.000000
0.937255 0.207843 0.000000
0.956863 0.207843 0.000000
0.976471 0.207843 0.000000
1.000000 0.207843 0.000000
0.000000 0.250980 0.000000
0.070588 0.250980 0.000000
0.137255 0.250980 0.000000
0.203922 0.250980 0.000000
0.274510 0.250980 0.000000
0.333333 0.250980 0.000000
0.396078 0.250980 0.000000
0.450980 0.250980 0.000000
0.509804 0.250980 0.000000
0.560784 0.250980 0.000000
0.607843 0.250980 0.000000
0.647059 0.250980 0.000000
0.686275 0.250980 0.000000
0.721569 0.250980 0.000000
0.756863 0.250980 0.000000
0.784314 0.250980 0.000000
0.815686 0.250980 0.000000
0.843137 0.250980 0.000000
0.866667 0.250980 0.000000
0.894118 0.250980 0.000000
0.917647 0.250980 0.000000
0.937255 0.250980 0.000000
0.956863 0.250980 0.000000
0.976471 0.250980 0.000000
1.000000 0.250980 0.000000
0.000000 0.290196 0.000000
0.070588 0.290196 0.000000
0.137255 0.290196 0.000000
0.203922 0.290196 0.000000
0.274510 0.290196 0.000000
0.333333 0.290196 0.000000
0.396078 0.290196 0.000000
0.450980 0.290196 0.000000
0.509804 0.290196 0.000000
0.560784 0.290196 0.000000
0.607843 0.290196 0.000000
0.647059 0.290196 0.000000
0.686275 0.290196 0.000000
0.721569 0.290196 0.000000
0.756863 0.290196 0.000000
0.784314 0.290196 0.000000
0.815686 0.290196 0.000000
0.843137 0.290196 0.000000
0.866667 0.290196 0.000000
0.894118 0.290196 0.000000
0.917647 0.290196 0.000000
0.937255 0.290196 0.000000
0.956863 0.290196 0.000000
0.976471 0.290196 0.000000
1.000000 0.290196 0.000000
0.000000 0.333333 0.000000
0.070588 0.333333 0.000000
0.137255 0.333333 0.000000
0.203922 0.333333 0.000000
0.274510 0.333333 0.000000
0.333333 0.333333 0.000000
0.396078 0.333333 0.000000
0.450980 0.333333 0.000000
0.509804 0.333333 0.000000
0.560784 0.333333 0.000000
0.607843 0.333333 0.000000
0.647059 0.333333 0.000000
0.686275 0.333333 0.000000
0.721569 0.333333 0.000000
0.756863 0.333333 0.000000
0.784314 0.333333 0.000000
0.815686 0.333333 0.000000
0.843137 0.333333 0.000000
0.866667 0.333333 0.000000
0.894118 0.333333 0.000000
0.917647 0.333333 0.000000
0.937255 0.333333 0.000000
0.956863 0.333333 0.000000
0.976471 0.333333 0.000000
1.000000 0.333333 0.000000
0.000000 0.376471 0.000000
0.070588 0.376471 0.000000
0.137255 0.376471 0.000000
0.203922 0.376471 0.000000
0.274510 0.376471 0.000000
0.333333 0.376471 0.000000
0.396078 0.376471 0.000000
0.450980 0.376471 0.000000
0.509804 0.376471 0.000000
0.560784 0.376471 0.000000
0.607843 0.376471 0.000000
0.647059 0.376471 0.000000
0.686275 0.376471 0.000000
0.721569 0.376471 0.000000
0.756863 0.376471 0.000000
0.784314 0.376471 0.000000
0.815686 0.376471 0.000000
0.843137 0.376471 0.000000
0.866667 0.376471 0.000000
0.894118 0.376471 0.000000
0.917647 0.376471 0.000000
0.937255 0.376471 0.000000
0.956863 0.376471 0.000000
0.976471 0.376471 0.000000
1.000000 0.376471 0.000000
0.000000 0.415686 0.000000
0.070588 0.415686 0.000000
0.137255 0.415686 0.000000
0.203922 0.415686 0.000000
0.274510 0.415686 0.000000
0.333333 0.415686 0.000000
0.396078 0.415686 0.000000
0.450980 0.415686 0.000000
0.509804 0.415686 0.000000
0.560784 0.415686 0.000000
0.607843 0.415686 0.000000
0.647059 0.415686 0.000000
0.686275 0.415686 0.000000
0.721569 0.415686 0.000000
0.756863 0.415686 0.000000
0.784314 0.415686 0.000000
0.815686 0.415686 0.000000
0.843137 0.415686 0.000000
0.866667 0.415686 0.000000
0.894118 0.415686 0.000000
0.917647 0.415686 0.000000
0.937255 0.415686 0.000000
0.956863 0.415686 0.000000
0.976471 0.415686 0.000000
1.000000 0.415686 0.000000
0.000000 0.458824 0.000000
0.070588 0.458824 0.000000
0.137255 0.458824 0.000000
0.203922 0.458824 0.000000
0.274510 0.458824 0.000000
0.333333 0.458824 0.000000
0.396078 0.458824 0.000000
0.450980 0.458824 0.000000
0.509804 0.458824 0.000000
0.560784 0.458824 0.000000
0.607843 0.458824 0.000000
0.647059 0.458824 0.000000
0.686275 0.458824 0.000000
0.721569 0.458824 0.000000
0.756863 0.458824 0.000000
0.784314 0.458824 0.000000
0.815686 0.458824 0.000000
0.843137 0.458824 0.000000
0.866667 0.458824 0.000000
0.894118 0.458824 0.000000
0.917647 0.458824 0.000000
0.937255 0.458824 0.000000
0.956863 0.458824 0.000000
0.976471 0.458824 0.000000
1.000000 0.458824 0.000000
0.000000 0.501961 0.000000
0.070588 0.501961 0.000000
0.137255 0.501961 0.000000
0.203922 0.501961 0.000000
0.274510 0.501961 0.000000
0.333333 0.501961 0.000000
0.396078 0.501961 0.000000
0.450980 0.501961 0.000000
0.509804 0.501961 0.000000
0.560784 0.501961 0.000000
0.607843 0.501961 0.000000
0.647059 0.501961 0.000000
0.686275 0.501961 0.000000
0.721569 0.501961 0.000000
0.756863 0.501961 0.000000
0.784314 0.501961 0.000000
0.815686 0.501961 0.000000
0.843137 0.501961 0.000000
0.866667 0.501961 0.000000
0.894118 0.501961 0.000000
0.917647 0.501961 0.000000
0.937255 0.501961 0.000000
0.956863 0.501961 0.000000
0.976471 0.501961 0.000000
1.000000 0.501961 0.000000
0.000000 0.541176 0.000000
0.070588 0.541176 0.000000
0.137255 0.541176 0.000000
0.203922 0.541176 0.000000
0.274510 0.541176 0.000000
0.333333 0.541176 0.000000
0.396078 0.541176 0.000000
0.450980 0.541176 0.000000
0.509804 0.541176 0.000000
0.560784 0.541176 0.000000
0.607843 0.541176 0.000000
0.647059 0.541176 0.000000
0.686275 0.541176 0.000000
0.721569 0.541176 0.000000
0.756863 0.541176 0.000000
0.784314 0.541176 0.000000
0.815686 0.541176 0.000000
0.843137 0.541176 0.000000
0.866667 0.541176 0.000000
0.894118 0.541176 0.000000
0.917647 0.541176 0.000000
0.937255 0.541176 0.000000
0.956863 0.541176 0.000000
0.976471 0.541176 0.000000
1.000000 0.541176 0.000000
0.000000 0.584314 0.000000
0.070588 0.584314 0.000000
0.137255 0.584314 0.000000
0.203922 0.584314 0.000000
0.274510 0.584314 0.000000
0.333333 0.584314 0.000000
0.396078 0.584314 0.000000
0.450980 0.584314 0.000000
0.509804 0.584314 0.000000
0.560784 0.584314 0.000000
0.607843 0.584314 0.000000
0.647059 0.584314 0.000000
0.686275 0.584314 0.000000
0.721569 0.584314 0.000000
0.756863 0.584314 0.000000
0.784314 0.584314 0.000000
0.815686 0.584314 0.000000
0.843137 0.584314 0.000000
0.866667 0.584314 0.000000
0.894118 0.584314 0.000000
0.917647 0.584314 0.000000
0.937255 0.584314 0.000000
0.956863 0.584314 0.000000
0.976471 0.584314 0.000000
1.000000 0.584314 0.000000
0.000000 0.623529 0.000000
0.070588 0.623529 0.000000
0.137255 0.623529 0.000000
0.203922 0.623529 0.000000
0.274510 0.623529 0.000000
0.333333 0.623529 0.000000
0.396078 0.623529 0.000000
0.450980 0.623529 0.000000
0.509804 0.623529 0.000000
0.560784 0.623529 0.000000
0.607843 0.623529 0.000000
0.647059 0.623529 0.000000
0.686275 0.623529 0.000000
0.721569 0.623529 0.000000
0.756863 0.623529 0.000000
0.784314 0.623529 0.000000
0.815686 0.623529 0.000000
0.843137 0.623529 0.000000
0.866667 0.623529 0.000000
0.894118 0.623529 0.000000
0.917647 0.623529 0.000000
0.937255 0.623529 0.000000
0.956863 0.623529 0.000000
0.976471 0.623529 0.000000
1.000000 0.623529 0.000000
0.000000 0.666667 0.000000
0.070588 0.666667 0.000000
0.137255 0.666667 0.000000
0.203922 0.666667 0.000000
0.274510 0.666667 0.000000
0.333333 0.666667 0.000000
0.396078 0.666667 0.000000
0.450980 0.666667 0.000000
0.509804 0.666667 0.000000
0.560784 0.666667 0.000000
0.607843 0.666667 0.000000
0.647059 0.666667 0.000000
0.686275 0.666667 0.000000
0.721569 0.666667 0.000000
0.756863 0.666667 0.000000
0.784314 0.666667 0.000000
0.815686 0.666667 0.000000
0.843137 0.666667 0.000000
0.866667 0.666667 0.000000
0.894118 0.666667 0.000000
0.917647 0.666667 0.000000
0.937255 0.666667 0.000000
0.956863 0.666667 0.000000
0.976471 0.666667 0.000000
1.000000 0.666667 0.000000
0.000000 0.709804 0.000000
0.070588 0.709804 0.000000
0.137255 0.709804 0.000000
0.203922 0.709804 0.000000
0.274510 0.709804 0.000000
0.333333 0.709804 0.000000
0.396078 0.709804 0.000000
0.450980 0.709804 0.000000
0.509804 0.709804 0.000000
0.560784 0.709804 0.000000
0.607843 0.709804 0.000000
0.647059 0.709804 0.000000
0.686275 0.709804 0.000000
0.721569 0.709804 0.000000
0.756863 0.709804 0.000000
0.784314 0.709804 0.000000
0.815686 0.709804 0.000000
0.843137 0.709804 0.000000
0.866667 0.709804 0.000000
0.894118 0.709804 0.000000
0.917647 0.709804 0.000000
0.937255 0.709804 0.000000
0.956863 0.709804 0.000000
0.976471 0.709804 0.000000
1.000000 0.709804 0.000000
0.000000 0.749020 0.000000
0.070588 0.749020 0.000000
0.137255 0.749020 0.000000
0.203922 0.749020 0.000000
0.274510 0.749020 0.000000
0.333333 0.749020 0.000000
0.396078 0.749020 0.000000
0.450980 0.749020 0.000000
0.509804 0.749020 0.000000
0.560784 0.749020 0.000000
0.607843 0.749020 0.000000
0.647059 0.749020 0.000000
0.686275 0.749020 0.000000
0.721569 0.749020 0.000000
0.756863 0.749020 0.000000
0.784314 0.749020 0.000000
0.815686 0.749020 0.000000
0.843137 0.749020 0.000000
0.866667 0.749020 0.000000
0.894118 0.749020 0.000000
0.917647 0.749020 0.000000
0.937255 0.749020 0.000000
0.956863 0.749020 0.000000
0.976471 0.749020 0.000000
1.000000 0.749020 0.000000
0.000000 0.792157 0.000000
0.070588 0.792157 0.000000
0.137255 0.792157 0.000000
0.203922 0.792157 0.000000
0.274510 0.792157 0.000000
0.333333 0.792157 0.000000
0.396078 0.792157 0.000000
0.450980 0.792157 0.000000
0.509804 0.792157 0.000000
0.560784 0.792157 0.000000
0.607843 0.792157 0.000000
0.647059 0.792157 0.000000
0.686275 0.792157 0.000000
0.721569 0.792157 0.000000
0.756863 0.792157 0.000000
0.784314 0.792157 0.000000
0.815686 0.792157 0.000000
0.843137 0.792157 0.000000
0.866667 0.792157 0.000000
0.894118 0.792157 0.000000
0.917647 0.792157 0.000000
0.937255 0.792157 0.000000
0.956863 0.792157 0.000000
0.976471 0.792157 0.000000
1.000000 0.792157 0.000000
0.000000 0.835294 0.000000
0.070588 0.835294 0.000000
0.137255 0.835294 0.000000
0.203922 0.835294 0.000000
0.274510 0.835294 0.000000
0.333333 0.835294 0.000000
0.396078 0.835294 0.000000
0.450980 0.835294 0.000000
0.509804 0.835294 0.000000
0.560784 0.835294 0.000000
0.607843 0.835294 0.000000
0.647059 0.835294 0.000000
0.686275 0.835294 0.000000
0.721569 0.835294 0.000000
0.756863 0.835294 0.000000
0.784314 0.835294 0.000000
0.815686 0.835294 0.000000
0.843137 0.835294 0.000000
0.866667 0.835294 0.000000
0.894118 0.835294 0.000000
0.917647 0.835294 0.000000
0.937255 0.835294 0.000000
0.956863 0.835294 0.000000
0.976471 0.835294 0.000000
1.000000 0.835294 0.000000
0.000000 0.874510 0.000000
0.070588 0.874510 0.000000
0.137255 0.874510 0.000000
0.203922 0.874510 0.000000
0.274510 0.874510 0.000000
0.333333 0.874510 0.000000
0.396078 0.874510 0.000000
0.450980 0.874510 0.000000
0.509804 0.874510 0.000000
0.560784 0.874510 0.000000
0.607843 0.874510 0.000000
0.647059 0.874510 0.000000
0.686275 0.874510 0.000000
0.721569 0.874510 0.000000
0.756863 0.874510 0.000000
0.784314 0.874510 0.000000
0.815686 0.874510 0.000000
0.843137 0.874510 0.000000
0.866667 0.874510 0.000000
0.894118 0.874510 0.000000
0.917647 0.874510 0.000000
0.937255 0.874510 0.000000
0.956863 0.874510 0.000000
0.976471 0.874510 0.000000
1.000000 0.874510 0.000000
0.000000 0.917647 0.000000
0.070588 0.917647 0.000000
0.137255 0.917647 0.000000
0.203922 0.917647 0.000000
0.274510 0.917647 0.000000
0.333333 0.917647 0.000000
0.396078 0.917647 0.000000
0.450980 0.917647 0.000000
0.509804 0.917647 0.000000
0.560784 0.917647 0.000000
0.607843 0.917647 0.000000
0.647059 0.917647 0.000000
0.686275 0.917647 0.000000
0.721569 0.917647 0.000000
0.756863 0.917647 0.000000
0.784314 0.917647 0.000000
0.815686 0.917647 0.000000
0.843137 0.917647 0.000000
0.866667 0.917647 0.000000
0.894118 0.917647 0.000000
0.917647 0.917647 0.000000
0.937255 0.917647 0.000000
0.956863 0.917647 0.000000
0.976471 0.917647 0.000000
1.000000 0.917647 0.000000
0.000000 0.956863 0.000000
0.070588 0.956863 0.000000
0.137255 0.956863 0.000000
0.203922 0.956863 0.000000
0.274510 0.956863 0.000000
0.333333 0.956863 0.000000
0.396078 0.956863 0.000000
0.450980 0.956863 0.000000
0.509804 0.956863 0.000000
0.560784 0.956863 0.000000
0.607843 0.956863 0.000000
0.647059 0.956863 0.000000
0.686275 0.956863 0.000000
0.721569 0.956863 0.000000
0.756863 0.956863 0.000000
0.784314 0.956863 0.000000
0.815686 0.956863 0.000000
0.843137 0.956863 0.000000
0.866667 0.956863 0.000000
0.894118 0.956863 0.000000
0.917647 0.956863 0.000000
0.937255 0.956863 0.000000
0.956863 0.956863 0.000000
0.976471 0.956863 0.000000
1.000000 0.956863 0.000000
0.000000 1.000000 0.000000
0.070588 1.000000 0.000000
0.137255 1.000000 0.000000
0.203922 1.000000 0.000000
0.274510 1.000000 0.000000
0.333333 1.000000 0.000000
0.396078 1.000000 0.000000
0.450980 1.000000 0.000000
0.509804 1.000000 0.000000
0.560784 1.000000 0.000000
0.607843 1.000000 0.000000
0.647059 1.000000 0.000000
0.686275 1.000000 0.000000
0.721569 1.000000 0.000000
0.756863 1.000000 0.000000
0.784314 1.000000 0.000000
0.815686 1.000000 0.000000
0.843137 1.000000 0.000000
0.866667 1.000000 0.000000
0.894118 1.000000 0.000000
0.917647 1.000000 0.000000
0.937255 1.000000 0.000000
0.956863 1.000000 0.000000
0.976471 1.000000 0.000000
1.000000 1.000000 0.000000
0.000000 0.000000 0.023529
0.070588 0.000000 0.023529
0.137255 0.000000 0.023529
0.203922 0.000000 0.023529
0.274510 0.000000 0.023529
0.333333 0.000000 0.023529
0.396078 0.000000 0.023529
0.450980 0.000000 0.023529
0.509804 0.000000 0.023529
0.560784 0.000000 0.023529
0.607843 0.000000 0.023529
0.647059 0.000000 0.023529
0.686275 0.000000 0.023529
0.721569 0.000000 0.023529
0.756863 0.000000 0.023529
0.784314 0.000000 0.023529
0.815686 0.000000 0.023529
0.843137 0.000000 0.023529
0.866667 0.000000 0.023529
0.894118 0.000000 0.023529
0.917647 0.000000 0.023529
0.937255 0.000000 0.023529
0.956863 0.000000 0.023529
0.976471 0.000000 0.023529
1.000000 0.000000 0.023529
0.000000 0.043137 0.023529
0.070588 0.043137 0.023529
0.137255 0.043137 0.023529
0.203922 0.043137 0.023529
0.274510 0.043137 0.023529
0.333333 0.043137 0.023529
0.396078 0.043137 0.023529
0.450980 0.043137 0.023529
0.509804 0.043137 0.023529
0.560784 0.043137 0.023529
0.607843 0.043137 0.023529
0.647059 0.043137 0.023529
0.686275 0.043137 0.023529
0.721569 0.043137 0.023529
0.756863 0.043137 0.023529
0.784314 0.043137 0.023529
0.815686 0.043137 0.023529
0.843137 0.043137 0.023529
0.866667 0.043137 0.023529
0.894118 0.043137 0.023529
0.917647 0.043137 0.023529
0.937255 0.043137 0.023529
0.956863 0.043137 0.023529
0.976471 0.043137 0.023529
1.000000 0.043137 0.023529
0.000000 0.082353 0.023529
0.070588 0.082353 0.023529
0.137255 0.082353 0.023529
0.203922 0.082353 0.023529
0.274510 0.082353 0.023529
0.333333 0.082353 0.023529
0.396078 0.082353 0.023529
0.450980 0.082353 0.023529
0.509804 0.082353 0.023529
0.560784 0.082353 0.023529
0.607843 0.082353 0.023529
0.647059 0.082353 0.023529
0.686275 0.082353 0.023529
0.721569 0.082353 0.023529
0.756863 0.082353 0.023529
0.784314 0.082353 0.023529
0.815686 0.082353 0.023529
0.843137 0.082353 0.023529
0.866667 0.082353 0.023529
0.894118 0.082353 0.023529
0.917647 0.082353 0.023529
0.937255 0.082353 0.023529
0.956863 0.082353 0.023529
0.976471 0.082353 0.023529
1.000000 0.082353 0.023529
0.000000 0.125490 0.023529
0.070588 0.125490 0.023529
0.137255 0.125490 0.023529
0.203922 0.125490 0.023529
0.274510 0.125490 0.023529
0.333333 0.125490 0.023529
0.396078 0.125490 0.023529
0.450980 0.125490 0.023529
0.509804 0.125490 0.023529
0.560784 0.125490 0.023529
0.607843 0.125490 0.023529
0.647059 0.125490 0.023529
0.686275 0.125490 0.023529
0.721569 0.125490 0.023529
0.756863 0.125490 0.023529
0.784314 0.125490 0.023529
0.815686 0.125490 0.023529
0.843137 0.125490 0.023529
0.866667 0.125490 0.023529
0.894118 0.125490 0.023529
0.917647 0.125490 0.023529
0.937255 0.125490 0.023529
0.956863 0.125490 0.023529
0.976471 0.125490 0.023529
1.000000 0.125490 0.023529
0.000000 0.168627 0.023529
0.070588 0.168627 0.023529
0.137255 0.168627 0.023529
0.203922 0.168627 0.023529
0.274510 0.168627 0.023529
0.333333 0.168627 0.023529
0.396078 0.168627 0.023529
0.450980 0.168627 0.023529
0.509804 0.168627 0.023529
0.560784 0.168627 0.023529
0.607843 0.168627 0.023529
0.647059 0.168627 0.023529
0.686275 0.168627 0.023529
0.721569 0.168627 0.023529
0.756863 0.168627 0.023529
0.784314 0.168627 0.023529
0.815686 0.168627 0.023529
0.843137 0.168627 0.023529
0.866667 0.168627 0.023529
0.894118 0.168627 0.023529
0.917647 0.168627 0.023529
0.937255 0.168627 0.023529
0.956863 0.168627 0.023529
0.976471 0.168627 0.023529
1.000000 0.168627 0.023529
0.000000 0.207843 0.023529
0.070588 0.207843 0.023529
0.137255 0.207843 0.023529
0.203922 0.207843 0.023529
0.274510 0.207843 0.023529
0.333333 0.207843 0.023529
0.396078 0.207843 0.023529
0.450980 0.207843 0.023529
0.509804 0.207843 0.023529
0.560784 0.207843 0.023529
0.607843 0.207843 0.023529
0.647059 0.207843 0.023529
0.686275 0.207843 0.023529
0.721569 0.207843 0.023529
0.756863 0.207843 0.023529
0.784314 0.207843 0.023529
0.815686 0.207843 0.023529
0.843137 0.207843 0.023529
0.866667 0.207843 0.023529
0.894118 0.207843 0.023529
0.917647 0.207843 0.023529
0.937255 0.207843 0.023529
0.956863 0.207843 0.023529
0.976471 0.207843 0.023529
1.000000 0.207843 0.023529
0.000000 0.250980 0.023529
0.070588 0.250980 0.023529
0.137255 0.250980 0.023529
0.203922 0.250980 0.023529
0.274510 0.250980 0.023529
0.333333 0.250980 0.023529
0.396078 0.250980 0.023529
0.450980 0.250980 0.023529
0.509804 0.250980 0.023529
0.560784 0.250980 0.023529
0.607843 0.250980 0.023529
0.647059 0.250980 0.023529
0.686275 0.250980 0.023529
0.721569 0.250980 0.023529
0.756863 0.250980 0.023529
0.784314 0.250980 0.023529
0.815686 0.250980 0.023529
0.843137 0.250980 0.023529
0.866667 0.250980 0.023529
0.894118 0.250980 0.023529
0.917647 0.250980 0.023529
0.937255 0.250980 0.023529
0.956863 0.250980 0.023529
0.976471 0.250980 0.023529
1.000000 0.250980 0.023529
0.000000 0.290196 0.023529
0.070588 0.290196 0.023529
0.137255 0.290196 0.023529
0.203922 0.290196 0.023529
0.274510 0.290196 0.023529
0.333333 0.290196 0.023529
0.396078 0.290196 0.023529
0.450980 0.290196 0.023529
0.509804 0.290196 0.023529
0.560784 0.290196 0.023529
0.607843 0.290196 0.023529
0.647059 0.290196 0.023529
0.686275 0.290196 0.023529
0.721569 0.290196 0.023529
0.756863 0.290196 0.023529
0.784314 0.290196 0.023529
0.815686 0.290196 0.023529
0.843137 0.290196 0.023529
0.866667 0.290196 0.023529
0.894118 0.290196 0.023529
0.917647 0.290196 0.023529
0.937255 0.290196 0.023529
0.956863 0.290196 0.023529
0.976471 0.290196 0.023529
1.000000 0.290196 0.023529
0.000000 0.333333 0.023529
0.070588 0.333333 0.023529
0.137255 0.333333 0.023529
0.203922 0.333333 0.023529
0.274510 0.333333 0.023529
0.333333 0.333333 0.023529
0.396078 0.333333 0.023529
0.450980 0.333333 0.023529
0.509804 0.333333 0.023529
0.560784 0.333333 0.023529
0.607843 0.333333 0.023529
0.647059 0.333333 0.023529
0.686275 0.333333 0.023529
0.721569 0.333333 0.023529
0.756863 0.333333 0.023529
0.784314 0.333333 0.023529
0.815686 0.333333 0.023529
0.843137 0.333333 0.023529
0.866667 0.333333 0.023529
0.894118 0.333333 0.023529
0.917647 0.333333 0.023529
0.937255 0.333333 0.023529
0.956863 0.333333 0.023529
0.976471 0.333333 0.023529
1.000000 0.333333 0.023529
0.000000 0.376471 0.023529
0.070588 0.376471 0.023529
0.137255 0.376471 0.023529
0.203922 0.376471 0.023529
0.274510 0.376471 0.023529
0.333333 0.376471 0.023529
0.396078 0.376471 0.023529
0.450980 0.376471 0.023529
0.509804 0.376471 0.023529
0.560784 0.376471 0.023529
0.607843 0.376471 0.023529
0.647059 0.376471 0.023529
0.686275 0.376471 0.023529
0.721569 0.376471 0.023529
0.756863 0.376471 0.023529
0.784314 0.376471 0.023529
0.815686 0.376471 0.023529
0.843137 0.376471 0.023529
0.866667 0.376471 0.023529
0.894118 0.376471 0.023529
0.917647 0.376471 0.023529
0.937255 0.376471 0.023529
0.956863 0.376471 0.023529
0.976471 0.376471 0.023529
1.000000 0.376471 0.023529
0.000000 0.415686 0.023529
0.070588 0.415686 0.023529
0.137255 0.415686 0.023529
0.203922 0.415686 0.023529
0.274510 0.415686 0.023529
0.333333 0.415686 0.023529
0.396078 0.415686 0.023529
0.450980 0.415686 0.023529
0.509804 0.415686 0.023529
