LUTs/Damaging/LUT_RED/orange_midtones.cube
#Generated by lutCreator.js
#Coded by SirSerch
#https://github.com/SirSerch/LutCreatorJs
TITLE lutCreatorJs_25
LUT_3D_SIZE 9
0.000000 0.000000 0.000000
0.203922 0.000000 0.000000
0.396078 0.000000 0.000000
0.560784 0.000000 0.000000
0.686275 0.000000 0.000000
0.784314 0.000000 0.000000
0.866667 0.000000 0.000000
0.937255 0.000000 0.000000
1.000000 0.000000 0.000000
0.000000 0.125490 0.000000
0.203922 0.125490 0.000000
0.396078 0.125490 0.000000
0.560784 0.125490 0.000000
0.686275 0.125490 0.000000
0.784314 0.125490 0.000000
0.866667 0.125490 0.000000
0.937255 0.125490 0.000000
1.000000 0.125490 0.000000
0.000000 0.250980 0.000000
0.203922 0.250980 0.000000
0.396078 0.250980 0.000000
0.560784 0.250980 0.000000
0.686275 0.250980 0.000000
0.784314 0.250980 0.000000
0.866667 0.250980 0.000000
0.937255 0.250980 0.000000
1.000000 0.250980 0.000000
0.000000 0.376471 0.000000
0.203922 0.376471 0.000000
0.396078 0.376471 0.000000
0.560784 0.376471 0.000000
0.686275 0.376471 0.000000
0.784314 0.376471 0.000000
0.866667 0.376471 0.000000
0.937255 0.376471 0.000000
1.000000 0.376471 0.000000
0.000000 0.501961 0.000000
0.203922 0.501961 0.000000
0.396078 0.501961 0.000000
0.560784 0.501961 0.000000
0.686275 0.501961 0.000000
0.784314 0.501961 0.000000
0.866667 0.501961 0.000000
0.937255 0.501961 0.000000
1.000000 0.501961 0.000000
0.000000 0.623529 0.000000
0.203922 0.623529 0.000000
0.396078 0.623529 0.000000
0.560784 0.623529 0.000000
0.686275 0.623529 0.000000
0.784314 0.623529 0.000000
0.866667 0.623529 0.000000
0.937255 0.623529 0.000000
1.000000 0.623529 0.000000
0.000000 0.749020 0.000000
0.203922 0.749020 0.000000
0.396078 0.749020 0.000000
0.560784 0.749020 0.000000
0.686275 0.749020 0.000000
0.784314 0.749020 0.000000
0.866667 0.749020 0.000000
0.937255 0.749020 0.000000
1.000000 0.749020 0.000000
0.000000 0.874510 0.000000
0.203922 0.874510 0.000000
0.396078 0.874510 0.000000
0.560784 0.874510 0.000000
0.686275 0.874510 0.000000
0.784314 0.874510 0.000000
0.866667 0.874510 0.000000
0.937255 0.874510 0.000000
1.000000 0.874510 0.000000
0.000000 1.000000 0.000000
0.203922 1.000000 0.000000
0.396078 1.000000 0.000000
0.560784 1.000000 0.000000
0.686275 1.000000 0.000000
0.784314 1.000000 0.000000
0.866667 1.000000 0.000000
0.937255 1.000000 0.000000
1.000000 1.000000 0.000000
0.000000 0.000000 0.070588
0.203922 0.000000 0.070588
0.396078 0.000000 0.070588
0.560784 0.000000 0.070588
0.686275 0.000000 0.070588
0.784314 0.000000 0.070588
0.866667 0.000000 0.070588
0.937255 0.000000 0.070588
1.000000 0.000000 0.070588
0.000000 0.125490 0.070588
0.203922 0.125490 0.070588
0.396078 0.125490 0.070588
0.560784 0.125490 0.070588
0.686275 0.125490 0.070588
0.784314 0.125490 0.070588
0.866667 0.125490 0.070588
0.937255 0.125490 0.070588
1.000000 0.125490 0.070588
0.000000 0.250980 0.070588
0.203922 0.250980 0.070588
0.396078 0.250980 0.070588
0.560784 0.250980 0.070588
0.686275 0.250980 0.070588
0.784314 0.250980 0.070588
0.866667 0.250980 0.070588
0.937255 0.250980 0.070588
1.000000 0.250980 0.070588
0.000000 0.376471 0.070588
0.203922 0.376471 0.070588
0.396078 0.376471 0.070588
0.560784 0.376471 0.070588
0.686275 0.376471 0.070588
0.784314 0.376471 0.070588
0.866667 0.376471 0.070588
0.937255 0.376471 0.070588
1.000000 0.376471 0.070588
0.000000 0.501961 0.070588
0.203922 0.501961 0.070588
0.396078 0.501961 0.070588
0.560784 0.501961 0.070588
0.686275 0.501961 0.070588
0.784314 0.501961 0.070588
0.866667 0.501961 0.070588
0.937255 0.501961 0.070588
1.000000 0.501961 0.070588
0.000000 0.623529 0.070588
0.203922 0.623529 0.070588
0.396078 0.623529 0.070588
0.560784 0.623529 0.070588
0.686275 0.623529 0.070588
0.784314 0.623529 0.070588
0.866667 0.623529 0.070588
0.937255 0.623529 0.070588
1.000000 0.623529 0.070588
0.000000 0.749020 0.070588
0.203922 0.749020 0.070588
0.396078 0.749020 0.070588
0.560784 0.749020 0.070588
0.686275 0.749020 0.070588
0.784314 0.749020 0.070588
0.866667 0.749020 0.070588
0.937255 0.749020 0.070588
1.000000 0.749020 0.070588
0.000000 0.874510 0.070588
0.203922 0.874510 0.070588
0.396078 0.874510 0.070588
0.560784 0.874510 0.070588
0.686275 0.874510 0.070588
0.784314 0.874510 0.070588
0.866667 0.874510 0.070588
0.937255 0.874510 0.070588
1.000000 0.874510 0.070588
0.000000 1.000000 0.070588
0.203922 1.000000 0.070588
0.396078 1.000000 0.070588
0.560784 1.000000 0.070588
0.686275 1.000000 0.070588
0.784314 1.000000 0.070588
0.866667 1.000000 0.070588
0.937255 1.000000 0.070588
1.000000 1.000000 0.070588
0.000000 0.000000 0.145098
0.203922 0.000000 0.145098
0.396078 0.000000 0.145098
0.560784 0.000000 0.145098
0.686275 0.000000 0.145098
0.784314 0.000000 0.145098
0.866667 0.000000 0.145098
0.937255 0.000000 0.145098
1.000000 0.000000 0.145098
0.000000 0.125490 0.145098
0.203922 0.125490 0.145098
0.396078 0.125490 0.145098
0.560784 0.125490 0.145098
0.686275 0.125490 0.145098
0.784314 0.125490 0.145098
0.866667 0.125490 0.145098
0.937255 0.125490 0.145098
1.000000 0.125490 0.145098
0.000000 0.250980 0.145098
0.203922 0.250980 0.145098
0.396078 0.250980 0.145098
0.560784 0.250980 0.145098
0.686275 0.250980 0.145098
0.784314 0.250980 0.145098
0.866667 0.250980 0.145098
0.937255 0.250980 0.145098
1.000000 0.250980 0.145098
0.000000 0.376471 0.145098
0.203922 0.376471 0.145098
0.396078 0.376471 0.145098
0.560784 0.376471 0.145098
0.686275 0.376471 0.145098
0.784314 0.376471 0.145098
0.866667 0.376471 0.145098
0.937255 0.376471 0.145098
1.000000 0.376471 0.145098
0.000000 0.501961 0.145098
0.203922 0.501961 0.145098
0.396078 0.501961 0.145098
0.560784 0.501961 0.145098
0.686275 0.501961 0.145098
0.784314 0.501961 0.145098
0.866667 0.501961 0.145098
0.937255 0.501961 0.145098
1.000000 0.501961 0.145098
0.000000 0.623529 0.145098
0.203922 0.623529 0.145098
0.396078 0.623529 0.145098
0.560784 0.623529 0.145098
0.686275 0.623529 0.145098
0.784314 0.623529 0.145098
0.866667 0.623529 0.145098
0.937255 0.623529 0.145098
1.000000 0.623529 0.145098
0.000000 0.749020 0.145098
0.203922 0.749020 0.145098
0.396078 0.749020 0.145098
0.560784 0.749020 0.145098
0.686275 0.749020 0.145098
0.784314 0.749020 0.145098
0.866667 0.749020 0.145098
0.937255 0.749020 0.145098
1.000000 0.749020 0.145098
0.000000 0.874510 0.145098
0.203922 0.874510 0.145098
0.396078 0.874510 0.145098
0.560784 0.874510 0.145098
0.686275 0.874510 0.145098
0.784314 0.874510 0.145098
0.866667 0.874510 0.145098
0.937255 0.874510 0.145098
1.000000 0.874510 0.145098
0.000000 1.000000 0.145098
0.203922 1.000000 0.145098
0.396078 1.000000 0.145098
0.560784 1.000000 0.145098
0.686275 1.000000 0.145098
0.784314 1.000000 0.145098
0.866667 1.000000 0.145098
0.937255 1.000000 0.145098
1.000000 1.000000 0.145098
0.000000 0.000000 0.227451
0.203922 0.000000 0.227451
0.396078 0.000000 0.227451
0.560784 0.000000 0.227451
0.686275 0.000000 0.227451
0.784314 0.000000 0.227451
0.866667 0.000000 0.227451
0.937255 0.000000 0.227451
1.000000 0.000000 0.227451
0.000000 0.125490 0.227451
0.203922 0.125490 0.227451
0.396078 0.125490 0.227451
0.560784 0.125490 0.227451
0.686275 0.125490 0.227451
0.784314 0.125490 0.227451
0.866667 0.125490 0.227451
0.937255 0.125490 0.227451
1.000000 0.125490 0.227451
0.000000 0.250980 0.227451
0.203922 0.250980 0.227451
0.396078 0.250980 0.227451
0.560784 0.250980 0.227451
0.686275 0.250980 0.227451
0.784314 0.250980 0.227451
0.866667 0.250980 0.227451
0.937255 0.250980 0.227451
1.000000 0.250980 0.227451
0.000000 0.376471 0.227451
0.203922 0.376471 0.227451
0.396078 0.376471 0.227451
0.560784 0.376471 0.227451
0.686275 0.376471 0.227451
0.784314 0.376471 0.227451
0.866667 0.376471 0.227451
0.937255 0.376471 0.227451
1.000000 0.376471 0.227451
0.000000 0.501961 0.227451
0.203922 0.501961 0.227451
0.396078 0.501961 0.227451
0.560784 0.501961 0.227451
0.686275 0.501961 0.227451
0.784314 0.501961 0.227451
0.866667 0.501961 0.227451
0.937255 0.501961 0.227451
1.000000 0.501961 0.227451
0.000000 0.623529 0.227451
0.203922 0.623529 0.227451
0.396078 0.623529 0.227451
0.560784 0.623529 0.227451
0.686275 0.623529 0.227451
0.784314 0.623529 0.227451
0.866667 0.623529 0.227451
0.937255 0.623529 0.227451
1.000000 0.623529 0.227451
0.000000 0.749020 0.227451
0.203922 0.749020 0.227451
0.396078 0.749020 0.227451
0.560784 0.749020 0.227451
0.686275 0.749020 0.227451
0.784314 0.749020 0.227451
0.866667 0.749020 0.227451
0.937255 0.749020 0.227451
1.000000 0.749020 0.227451
0.000000 0.874510 0.227451
0.203922 0.874510 0.227451
0.396078 0.874510 0.227451
0.560784 0.874510 0.227451
0.686275 0.874510 0.227451
0.784314 0.874510 0.227451
0.866667 0.874510 0.227451
0.937255 0.874510 0.227451
1.000000 0.874510 0.227451
0.000000 1.000000 0.227451
0.203922 1.000000 0.227451
0.396078 1.000000 0.227451
0.560784 1.000000 0.227451
0.686275 1.000000 0.227451
0.784314 1.000000 0.227451
0.866667 1.000000 0.227451
0.937255 1.000000 0.227451
1.000000 1.000000 0.227451
0.000000 0.000000 0.321569
0.203922 0.000000 0.321569
0.396078 0.000000 0.321569
0.560784 0.000000 0.321569
0.686275 0.000000 0.321569
0.784314 0.000000 0.321569
0.866667 0.000000 0.321569
0.937255 0.000000 0.321569
1.000000 0.000000 0.321569
0.000000 0.125490 0.321569
0.203922 0.125490 0.321569
0.396078 0.125490 0.321569
0.560784 0.125490 0.321569
0.686275 0.125490 0.321569
0.784314 0.125490 0.321569
0.866667 0.125490 0.321569
0.937255 0.125490 0.321569
1.000000 0.125490 0.321569
0.000000 0.250980 0.321569
0.203922 0.250980 0.321569
0.396078 0.250980 0.321569
0.560784 0.250980 0.321569
0.686275 0.250980 0.321569
0.784314 0.250980 0.321569
0.866667 0.250980 0.321569
0.937255 0.250980 0.321569
1.000000 0.250980 0.321569
0.000000 0.376471 0.321569
0.203922 0.376471 0.321569
0.396078 0.376471 0.321569
0.560784 0.376471 0.321569
0.686275 0.376471 0.321569
0.784314 0.376471 0.321569
0.866667 0.376471 0.321569
0.937255 0.376471 0.321569
1.000000 0.376471 0.321569
0.000000 0.501961 0.321569
0.203922 0.501961 0.321569
0.396078 0.501961 0.321569
0.560784 0.501961 0.321569
0.686275 0.501961 0.321569
0.784314 0.501961 0.321569
0.866667 0.501961 0.321569
0.937255 0.501961 0.321569
1.000000 0.501961 0.321569
0.000000 0.623529 0.321569
0.203922 0.623529 0.321569
0.396078 0.623529 0.321569
0.560784 0.623529 0.321569
0.686275 0.623529 0.321569
0.784314 0.623529 0.321569
0.866667 0.623529 0.321569
0.937255 0.623529 0.321569
1.000000 0.623529 0.321569
0.000000 0.749020 0.321569
0.203922 0.749020 0.321569
0.396078 0.749020 0.321569
0.560784 0.749020 0.321569
0.686275 0.749020 0.321569
0.784314 0.749020 0.321569
0.866667 0.749020 0.321569
0.937255 0.749020 0.321569
1.000000 0.749020 0.321569
0.000000 0.874510 0.321569
0.203922 0.874510 0.321569
0.396078 0.874510 0.321569
0.560784 0.874510 0.321569
0.686275 0.874510 0.321569
0.784314 0.874510 0.321569
0.866667 0.874510 0.321569
0.937255 0.874510 0.321569
1.000000 0.874510 0.321569
0.000000 1.000000 0.321569
0.203922 1.000000 0.321569
0.396078 1.000000 0.321569
0.560784 1.000000 0.321569
0.686275 1.000000 0.321569
0.784314 1.000000 0.321569
0.866667 1.000000 0.321569
0.937255 1.000000 0.321569
1.000000 1.000000 0.321569
0.000000 0.000000 0.431373
0.203922 0.000000 0.431373
0.396078 0.000000 0.431373
0.560784 0.000000 0.431373
0.686275 0.000000 0.431373
0.784314 0.000000 0.431373
0.866667 0.000000 0.431373
0.937255 0.000000 0.431373
1.000000 0.000000 0.431373
0.000000 0.125490 0.431373
0.203922 0.125490 0.431373
0.396078 0.125490 0.431373
0.560784 0.125490 0.431373
0.686275 0.125490 0.431373
0.784314 0.125490 0.431373
0.866667 0.125490 0.431373
0.937255 0.125490 0.431373
1.000000 0.125490 0.431373
0.000000 0.250980 0.431373
0.203922 0.250980 0.431373
0.396078 0.250980 0.431373
0.560784 0.250980 0.431373
0.686275 0.250980 0.431373
0.784314 0.250980 0.431373
0.866667 0.250980 0.431373
0.937255 0.250980 0.431373
1.000000 0.250980 0.431373
0.000000 0.376471 0.431373
0.203922 0.376471 0.431373
0.396078 0.376471 0.431373
0.560784 0.376471 0.431373
0.686275 0.376471 0.431373
0.784314 0.376471 0.431373
0.866667 0.376471 0.431373
0.937255 0.376471 0.431373
1.000000 0.376471 0.431373
0.000000 0.501961 0.431373
0.203922 0.501961 0.431373
0.396078 0.501961 0.431373
0.560784 0.501961 0.431373
0.686275 0.501961 0.431373
0.784314 0.501961 0.431373
0.866667 0.501961 0.431373
0.937255 0.501961 0.431373
1.000000 0.501961 0.431373
0.000000 0.623529 0.431373
0.203922 0.623529 0.431373
0.396078 0.623529 0.431373
0.560784 0.623529 0.431373
0.686275 0.623529 0.431373
0.784314 0.623529 0.431373
0.866667 0.623529 0.431373
0.937255 0.623529 0.431373
1.000000 0.623529 0.431373
0.000000 0.749020 0.431373
0.203922 0.749020 0.431373
0.396078 0.749020 0.431373
0.560784 0.749020 0.431373
0.686275 0.749020 0.431373
0.784314 0.749020 0.431373
0.866667 0.749020 0.431373
0.937255 0.749020 0.431373
1.000000 0.749020 0.431373
0.000000 0.874510 0.431373
0.203922 0.874510 0.431373
0.396078 0.874510 0.431373
0.560784 0.874510 0.431373
0.686275 0.874510 0.431373
0.784314 0.874510 0.431373
0.866667 0.874510 0.431373
0.937255 0.874510 0.431373
1.000000 0.874510 0.431373
0.000000 1.000000 0.431373
0.203922 1.000000 0.431373
0.396078 1.000000 0.431373
0.560784 1.000000 0.431373
0.686275 1.000000 0.431373
0.784314 1.000000 0.431373
0.866667 1.000000 0.431373
0.937255 1.000000 0.431373
1.000000 1.000000 0.431373
0.000000 0.000000 0.580392
0.203922 0.000000 0.580392
0.396078 0.000000 0.580392
0.560784 0.000000 0.580392
0.686275 0.000000 0.580392
0.784314 0.000000 0.580392
0.866667 0.000000 0.580392
0.937255 0.000000 0.580392
1.000000 0.000000 0.580392
0.000000 0.125490 0.580392
0.203922 0.125490 0.580392
0.396078 0.125490 0.580392
0.560784 0.125490 0.580392
0.686275 0.125490 0.580392
0.784314 0.125490 0.580392
0.866667 0.125490 0.580392
0.937255 0.125490 0.580392
1.000000 0.125490 0.580392
0.000000 0.250980 0.580392
0.203922 0.250980 0.580392
0.396078 0.250980 0.580392
0.560784 0.250980 0.580392
0.686275 0.250980 0.580392
0.784314 0.250980 0.580392
0.866667 0.250980 0.580392
0.937255 0.250980 0.580392
1.000000 0.250980 0.580392
0.000000 0.376471 0.580392
0.203922 0.376471 0.580392
0.396078 0.376471 0.580392
0.560784 0.376471 0.580392
0.686275 0.376471 0.580392
0.784314 0.376471 0.580392
0.866667 0.376471 0.580392
0.937255 0.376471 0.580392
1.000000 0.376471 0.580392
0.000000 0.501961 0.580392
0.203922 0.501961 0.580392
0.396078 0.501961 0.580392
0.560784 0.501961 0.580392
0.686275 0.501961 0.580392
0.784314 0.501961 0.580392
0.866667 0.501961 0.580392
0.937255 0.501961 0.580392
1.000000 0.501961 0.580392
0.000000 0.623529 0.580392
0.203922 0.623529 0.580392
0.396078 0.623529 0.580392
0.560784 0.623529 0.580392
0.686275 0.623529 0.580392
0.784314 0.623529 0.580392
0.866667 0.623529 0.580392
0.937255 0.623529 0.580392
1.000000 0.623529 0.580392
0.000000 0.749020 0.580392
0.203922 0.749020 0.580392
0.396078 0.749020 0.580392
0.560784 0.749020 0.580392
0.686275 0.749020 0.580392
0.784314 0.749020 0.580392
0.866667 0.749020 0.580392
0.937255 0.749020 0.580392
1.000000 0.749020 0.580392
0.000000 0.874510 0.580392
0.203922 0.874510 0.580392
0.396078 0.874510 0.580392
0.560784 0.874510 0.580392
0.686275 0.874510 0.580392
0.784314 0.874510 0.580392
0.866667 0.874510 0.580392
0.937255 0.874510 0.580392
1.000000 0.874510 0.580392
0.000000 1.000000 0.580392
0.203922 1.000000 0.580392
0.396078 1.000000 0.580392
0.560784 1.000000 0.580392
0.686275 1.000000 0.580392
0.784314 1.000000 0.580392
0.866667 1.000000 0.580392
0.937255 1.000000 0.580392
1.000000 1.000000 0.580392
0.000000 0.000000 0.776471
0.203922 0.000000 0.776471
0.396078 0.000000 0.776471
0.560784 0.000000 0.776471
0.686275 0.000000 0.776471
0.784314 0.000000 0.776471
0.866667 0.000000 0.776471
0.937255 0.000000 0.776471
1.000000 0.000000 0.776471
0.000000 0.125490 0.776471
0.203922 0.125490 0.776471
0.396078 0.125490 0.776471
0.560784 0.125490 0.776471
0.686275 0.125490 0.776471
0.784314 0.125490 0.776471
0.866667 0.125490 0.776471
0.937255 0.125490 0.776471
1.000000 0.125490 0.776471
0.000000 0.250980 0.776471
0.203922 0.250980 0.776471
0.396078 0.250980 0.776471
0.560784 0.250980 0.776471
0.686275 0.250980 0.776471
0.784314 0.250980 0.776471
0.866667 0.250980 0.776471
0.937255 0.250980 0.776471
1.000000 0.250980 0.776471
0.000000 0.376471 0.776471
0.203922 0.376471 0.776471
0.396078 0.376471 0.776471
0.560784 0.376471 0.776471
0.686275 0.376471 0.776471
0.784314 0.376471 0.776471
0.866667 0.376471 0.776471
0.937255 0.376471 0.776471
1.000000 0.376471 0.776471
0.000000 0.501961 0.776471
0.203922 0.501961 0.776471
0.396078 0.501961 0.776471
0.560784 0.501961 0.776471
0.686275 0.501961 0.776471
0.784314 0.501961 0.776471
0.866667 0.501961 0.776471
0.937255 0.501961 0.776471
1.000000 0.501961 0.776471
0.000000 0.623529 0.776471
0.203922 0.623529 0.776471
0.396078 0.623529 0.776471
0.560784 0.623529 0.776471
0.686275 0.623529 0.776471
0.784314 0.623529 0.776471
0.866667 0.623529 0.776471
0.937255 0.623529 0.776471
1.000000 0.623529 0.776471
0.000000 0.749020 0.776471
0.203922 0.749020 0.776471
0.396078 0.749020 0.776471
0.560784 0.749020 0.776471
0.686275 0.749020 0.776471
0.784314 0.749020 0.776471
0.866667 0.749020 0.776471
0.937255 0.749020 0.776471
1.000000 0.749020 0.776471
0.000000 0.874510 0.776471
0.203922 0.874510 0.776471
0.396078 0.874510 0.776471
0.560784 0.874510 0.776471
0.686275 0.874510 0.776471
0.784314 0.874510 0.776471
0.866667 0.874510 0.776471
0.937255 0.874510 0.776471
1.000000 0.874510 0.776471
0.000000 1.000000 0.776471
0.203922 1.000000 0.776471
0.396078 1.000000 0.776471
0.560784 1.000000 0.776471
0.686275 1.000000 0.776471
0.784314 1.000000 0.776471
0.866667 1.000000 0.776471
0.937255 1.000000 0.776471
1.000000 1.000000 0.776471
0.000000 0.000000 1.000000
0.203922 0.000000 1.000000
0.396078 0.000000 1.000000
0.560784 0.000000 1.000000
0.686275 0.000000 1.000000
0.784314 0.000000 1.000000
0.866667 0.000000 1.000000
0.937255 0.000000 1.000000
1.000000 0.000000 1.000000
0.000000 0.125490 1.000000
0.203922 0.125490 1.000000
0.396078 0.125490 1.000000
0.560784 0.125490 1.000000
0.686275 0.125490 1.000000
0.784314 0.125490 1.000000
0.866667 0.125490 1.000000
0.937255 0.125490 1.000000
1.000000 0.125490 1.000000
0.000000 0.250980 1.000000
0.203922 0.250980 1.000000
0.396078 0.250980 1.000000
0.560784 0.250980 1.000000
0.686275 0.250980 1.000000
0.784314 0.250980 1.000000
0.866667 0.250980 1.000000
0.937255 0.250980 1.000000
1.000000 0.250980 1.000000
0.000000 0.376471 1.000000
0.203922 0.376471 1.000000
0.396078 0.376471 1.000000
0.560784 0.376471 1.000000
0.686275 0.376471 1.000000
0.784314 0.376471 1.000000
0.866667 0.376471 1.000000
0.937255 0.376471 1.000000
1.000000 0.376471 1.000000
0.000000 0.501961 1.000000
0.203922 0.501961 1.000000
0.396078 0.501961 1.000000
0.560784 0.501961 1.000000
0.686275 0.501961 1.000000
0.784314 0.501961 1.000000
0.866667 0.501961 1.000000
0.937255 0.501961 1.000000
1.000000 0.501961 1.000000
0.000000 0.623529 1.000000
0.203922 0.623529 1.000000
0.396078 0.623529 1.000000
0.560784 0.623529 1.000000
0.686275 0.623529 1.000000
0.784314 0.623529 1.000000
0.866667 0.623529 1.000000
0.937255 0.623529 1.000000
1.000000 0.623529 1.000000
0.000000 0.749020 1.000000
0.203922 0.749020 1.000000
0.396078 0.749020 1.000000
0.560784 0.749020 1.000000
0.686275 0.749020 1.000000
0.784314 0.749020 1.000000
0.866667 0.749020 1.000000
0.937255 0.749020 1.000000
1.000000 0.749020 1.000000
0.000000 0.874510 1.000000
0.203922 0.874510 1.000000
0.396078 0.874510 1.000000
0.560784 0.874510 1.000000
0.686275 0.874510 1.000000
0.784314 0.874510 1.000000
0.866667 0.874510 1.000000
0.937255 0.874510 1.000000
1.000000 0.874510 1.000000
0.000000 1.000000 1.000000
0.203922 1.000000 1.000000
0.396078 1.000000 1.000000
0.560784 1.000000 1.000000
0.686275 1.000000 1.000000
0.784314 1.000000 1.000000
0.866667 1.000000 1.000000
0.937255 1.000000 1.000000
1.000000 1.000000 1.000000
