LUTs/Damaging/LUT_RED/red_extreme.cube
#Generated by lutCreator.js
#Coded by SirSerch
#https://github.com/SirSerch/LutCreatorJs
TITLE lutCreatorJs_25
LUT_3D_SIZE 9
0.000000 0.000000 0.000000
0.364706 0.000000 0.000000
0.658824 0.000000 0.000000
0.819608 0.000000 0.000000
0.909804 0.000000 0.000000
0.960784 0.000000 0.000000
0.988235 0.000000 0.000000
1.000000 0.000000 0.000000
1.000000 0.000000 0.000000
0.000000 0.125490 0.000000
0.364706 0.125490 0.000000
0.658824 0.125490 0.000000
0.819608 0.125490 0.000000
0.909804 0.125490 0.000000
0.960784 0.125490 0.000000
0.988235 0.125490 0.000000
1.000000 0.125490 0.000000
1.000000 0.125490 0.000000
0.000000 0.250980 0.000000
0.364706 0.250980 0.000000
0.658824 0.250980 0.000000
0.819608 0.250980 0.000000
0.909804 0.250980 0.000000
0.960784 0.250980 0.000000
0.988235 0.250980 0.000000
1.000000 0.250980 0.000000
1.000000 0.250980 0.000000
0.000000 0.376471 0.000000
0.364706 0.376471 0.000000
0.658824 0.376471 0.000000
0.819608 0.376471 0.000000
0.909804 0.376471 0.000000
0.960784 0.376471 0.000000
0.988235 0.376471 0.000000
1.000000 0.376471 0.000000
1.000000 0.376471 0.000000
0.000000 0.501961 0.000000
0.364706 0.501961 0.000000
0.658824 0.501961 0.000000
0.819608 0.501961 0.000000
0.909804 0.501961 0.000000
0.960784 0.501961 0.000000
0.988235 0.501961 0.000000
1.000000 0.501961 0.000000
1.000000 0.501961 0.000000
0.000000 0.623529 0.000000
0.364706 0.623529 0.000000
0.658824 0.623529 0.000000
0.819608 0.623529 0.000000
0.909804 0.623529 0.000000
0.960784 0.623529 0.000000
0.988235 0.623529 0.000000
1.000000 0.623529 0.000000
1.000000 0.623529 0.000000
0.000000 0.749020 0.000000
0.364706 0.749020 0.000000
0.658824 0.749020 0.000000
0.819608 0.749020 0.000000
0.909804 0.749020 0.000000
0.960784 0.749020 0.000000
0.988235 0.749020 0.000000
1.000000 0.749020 0.000000
1.000000 0.749020 0.000000
0.000000 0.874510 0.000000
0.364706 0.874510 0.000000
0.658824 0.874510 0.000000
0.819608 0.874510 0.000000
0.909804 0.874510 0.000000
0.960784 0.874510 0.000000
0.988235 0.874510 0.000000
1.000000 0.874510 0.000000
1.000000 0.874510 0.000000
0.000000 1.000000 0.000000
0.364706 1.000000 0.000000
0.658824 1.000000 0.000000
0.819608 1.000000 0.000000
0.909804 1.000000 0.000000
0.960784 1.000000 0.000000
0.988235 1.000000 0.000000
1.000000 1.000000 0.000000
1.000000 1.000000 0.000000
0.000000 0.000000 0.125490
0.364706 0.000000 0.125490
0.658824 0.000000 0.125490
0.819608 0.000000 0.125490
0.909804 0.000000 0.125490
0.960784 0.000000 0.125490
0.988235 0.000000 0.125490
1.000000 0.000000 0.125490
1.000000 0.000000 0.125490
0.000000 0.125490 0.125490
0.364706 0.125490 0.125490
0.658824 0.125490 0.125490
0.819608 0.125490 0.125490
0.909804 0.125490 0.125490
0.960784 0.125490 0.125490
0.988235 0.125490 0.125490
1.000000 0.125490 0.125490
1.000000 0.125490 0.125490
0.000000 0.250980 0.125490
0.364706 0.250980 0.125490
0.658824 0.250980 0.125490
0.819608 0.250980 0.125490
0.909804 0.250980 0.125490
0.960784 0.250980 0.125490
0.988235 0.250980 0.125490
1.000000 0.250980 0.125490
1.000000 0.250980 0.125490
0.000000 0.376471 0.125490
0.364706 0.376471 0.125490
0.658824 0.376471 0.125490
0.819608 0.376471 0.125490
0.909804 0.376471 0.125490
0.960784 0.376471 0.125490
0.988235 0.376471 0.125490
1.000000 0.376471 0.125490
1.000000 0.376471 0.125490
0.000000 0.501961 0.125490
0.364706 0.501961 0.125490
0.658824 0.501961 0.125490
0.819608 0.501961 0.125490
0.909804 0.501961 0.125490
0.960784 0.501961 0.125490
0.988235 0.501961 0.125490
1.000000 0.501961 0.125490
1.000000 0.501961 0.125490
0.000000 0.623529 0.125490
0.364706 0.623529 0.125490
0.658824 0.623529 0.125490
0.819608 0.623529 0.125490
0.909804 0.623529 0.125490
0.960784 0.623529 0.125490
0.988235 0.623529 0.125490
1.000000 0.623529 0.125490
1.000000 0.623529 0.125490
0.000000 0.749020 0.125490
0.364706 0.749020 0.125490
0.658824 0.749020 0.125490
0.819608 0.749020 0.125490
0.909804 0.749020 0.125490
0.960784 0.749020 0.125490
0.988235 0.749020 0.125490
1.000000 0.749020 0.125490
1.000000 0.749020 0.125490
0.000000 0.874510 0.125490
0.364706 0.874510 0.125490
0.658824 0.874510 0.125490
0.819608 0.874510 0.125490
0.909804 0.874510 0.125490
0.960784 0.874510 0.125490
0.988235 0.874510 0.125490
1.000000 0.874510 0.125490
1.000000 0.874510 0.125490
0.000000 1.000000 0.125490
0.364706 1.000000 0.125490
0.658824 1.000000 0.125490
0.819608 1.000000 0.125490
0.909804 1.000000 0.125490
0.960784 1.000000 0.125490
0.988235 1.000000 0.125490
1.000000 1.000000 0.125490
1.000000 1.000000 0.125490
0.000000 0.000000 0.250980
0.364706 0.000000 0.250980
0.658824 0.000000 0.250980
0.819608 0.000000 0.250980
0.909804 0.000000 0.250980
0.960784 0.000000 0.250980
0.988235 0.000000 0.250980
1.000000 0.000000 0.250980
1.000000 0.000000 0.250980
0.000000 0.125490 0.250980
0.364706 0.125490 0.250980
0.658824 0.125490 0.250980
0.819608 0.125490 0.250980
0.909804 0.125490 0.250980
0.960784 0.125490 0.250980
0.988235 0.125490 0.250980
1.000000 0.125490 0.250980
1.000000 0.125490 0.250980
0.000000 0.250980 0.250980
0.364706 0.250980 0.250980
0.658824 0.250980 0.250980
0.819608 0.250980 0.250980
0.909804 0.250980 0.250980
0.960784 0.250980 0.250980
0.988235 0.250980 0.250980
1.000000 0.250980 0.250980
1.000000 0.250980 0.250980
0.000000 0.376471 0.250980
0.364706 0.376471 0.250980
0.658824 0.376471 0.250980
0.819608 0.376471 0.250980
0.909804 0.376471 0.250980
0.960784 0.376471 0.250980
0.988235 0.376471 0.250980
1.000000 0.376471 0.250980
1.000000 0.376471 0.250980
0.000000 0.501961 0.250980
0.364706 0.501961 0.250980
0.658824 0.501961 0.250980
0.819608 0.501961 0.250980
0.909804 0.501961 0.250980
0.960784 0.501961 0.250980
0.988235 0.501961 0.250980
1.000000 0.501961 0.250980
1.000000 0.501961 0.250980
0.000000 0.623529 0.250980
0.364706 0.623529 0.250980
0.658824 0.623529 0.250980
0.819608 0.623529 0.250980
0.909804 0.623529 0.250980
0.960784 0.623529 0.250980
0.988235 0.623529 0.250980
1.000000 0.623529 0.250980
1.000000 0.623529 0.250980
0.000000 0.749020 0.250980
0.364706 0.749020 0.250980
0.658824 0.749020 0.250980
0.819608 0.749020 0.250980
0.909804 0.749020 0.250980
0.960784 0.749020 0.250980
0.988235 0.749020 0.250980
1.000000 0.749020 0.250980
1.000000 0.749020 0.250980
0.000000 0.874510 0.250980
0.364706 0.874510 0.250980
0.658824 0.874510 0.250980
0.819608 0.874510 0.250980
0.909804 0.874510 0.250980
0.960784 0.874510 0.250980
0.988235 0.874510 0.250980
1.000000 0.874510 0.250980
1.000000 0.874510 0.250980
0.000000 1.000000 0.250980
0.364706 1.000000 0.250980
0.658824 1.000000 0.250980
0.819608 1.000000 0.250980
0.909804 1.000000 0.250980
0.960784 1.000000 0.250980
0.988235 1.000000 0.250980
1.000000 1.000000 0.250980
1.000000 1.000000 0.250980
0.000000 0.000000 0.376471
0.364706 0.000000 0.376471
0.658824 0.000000 0.376471
0.819608 0.000000 0.376471
0.909804 0.000000 0.376471
0.960784 0.000000 0.376471
0.988235 0.000000 0.376471
1.000000 0.000000 0.376471
1.000000 0.000000 0.376471
0.000000 0.125490 0.376471
0.364706 0.125490 0.376471
0.658824 0.125490 0.376471
0.819608 0.125490 0.376471
0.909804 0.125490 0.376471
0.960784 0.125490 0.376471
0.988235 0.125490 0.376471
1.000000 0.125490 0.376471
1.000000 0.125490 0.376471
0.000000 0.250980 0.376471
0.364706 0.250980 0.376471
0.658824 0.250980 0.376471
0.819608 0.250980 0.376471
0.909804 0.250980 0.376471
0.960784 0.250980 0.376471
0.988235 0.250980 0.376471
1.000000 0.250980 0.376471
1.000000 0.250980 0.376471
0.000000 0.376471 0.376471
0.364706 0.376471 0.376471
0.658824 0.376471 0.376471
0.819608 0.376471 0.376471
0.909804 0.376471 0.376471
0.960784 0.376471 0.376471
0.988235 0.376471 0.376471
1.000000 0.376471 0.376471
1.000000 0.376471 0.376471
0.000000 0.501961 0.376471
0.364706 0.501961 0.376471
0.658824 0.501961 0.376471
0.819608 0.501961 0.376471
0.909804 0.501961 0.376471
0.960784 0.501961 0.376471
0.988235 0.501961 0.376471
1.000000 0.501961 0.376471
1.000000 0.501961 0.376471
0.000000 0.623529 0.376471
0.364706 0.623529 0.376471
0.658824 0.623529 0.376471
0.819608 0.623529 0.376471
0.909804 0.623529 0.376471
0.960784 0.623529 0.376471
0.988235 0.623529 0.376471
1.000000 0.623529 0.376471
1.000000 0.623529 0.376471
0.000000 0.749020 0.376471
0.364706 0.749020 0.376471
0.658824 0.749020 0.376471
0.819608 0.749020 0.376471
0.909804 0.749020 0.376471
0.960784 0.749020 0.376471
0.988235 0.749020 0.376471
1.000000 0.749020 0.376471
1.000000 0.749020 0.376471
0.000000 0.874510 0.376471
0.364706 0.874510 0.376471
0.658824 0.874510 0.376471
0.819608 0.874510 0.376471
0.909804 0.874510 0.376471
0.960784 0.874510 0.376471
0.988235 0.874510 0.376471
1.000000 0.874510 0.376471
1.000000 0.874510 0.376471
0.000000 1.000000 0.376471
0.364706 1.000000 0.376471
0.658824 1.000000 0.376471
0.819608 1.000000 0.376471
0.909804 1.000000 0.376471
0.960784 1.000000 0.376471
0.988235 1.000000 0.376471
1.000000 1.000000 0.376471
1.000000 1.000000 0.376471
0.000000 0.000000 0.501961
0.364706 0.000000 0.501961
0.658824 0.000000 0.501961
0.819608 0.000000 0.501961
0.909804 0.000000 0.501961
0.960784 0.000000 0.501961
0.988235 0.000000 0.501961
1.000000 0.000000 0.501961
1.000000 0.000000 0.501961
0.000000 0.125490 0.501961
0.364706 0.125490 0.501961
0.658824 0.125490 0.501961
0.819608 0.125490 0.501961
0.909804 0.125490 0.501961
0.960784 0.125490 0.501961
0.988235 0.125490 0.501961
1.000000 0.125490 0.501961
1.000000 0.125490 0.501961
0.000000 0.250980 0.501961
0.364706 0.250980 0.501961
0.658824 0.250980 0.501961
0.819608 0.250980 0.501961
0.909804 0.250980 0.501961
0.960784 0.250980 0.501961
0.988235 0.250980 0.501961
1.000000 0.250980 0.501961
1.000000 0.250980 0.501961
0.000000 0.376471 0.501961
0.364706 0.376471 0.501961
0.658824 0.376471 0.501961
0.819608 0.376471 0.501961
0.909804 0.376471 0.501961
0.960784 0.376471 0.501961
0.988235 0.376471 0.501961
1.000000 0.376471 0.501961
1.000000 0.376471 0.501961
0.000000 0.501961 0.501961
0.364706 0.501961 0.501961
0.658824 0.501961 0.501961
0.819608 0.501961 0.501961
0.909804 0.501961 0.501961
0.960784 0.501961 0.501961
0.988235 0.501961 0.501961
1.000000 0.501961 0.501961
1.000000 0.501961 0.501961
0.000000 0.623529 0.501961
0.364706 0.623529 0.501961
0.658824 0.623529 0.501961
0.819608 0.623529 0.501961
0.909804 0.623529 0.501961
0.960784 0.623529 0.501961
0.988235 0.623529 0.501961
1.000000 0.623529 0.501961
1.000000 0.623529 0.501961
0.000000 0.749020 0.501961
0.364706 0.749020 0.501961
0.658824 0.749020 0.501961
0.819608 0.749020 0.501961
0.909804 0.749020 0.501961
0.960784 0.749020 0.501961
0.988235 0.749020 0.501961
1.000000 0.749020 0.501961
1.000000 0.749020 0.501961
0.000000 0.874510 0.501961
0.364706 0.874510 0.501961
0.658824 0.874510 0.501961
0.819608 0.874510 0.501961
0.909804 0.874510 0.501961
0.960784 0.874510 0.501961
0.988235 0.874510 0.501961
1.000000 0.874510 0.501961
1.000000 0.874510 0.501961
0.000000 1.000000 0.501961
0.364706 1.000000 0.501961
0.658824 1.000000 0.501961
0.819608 1.000000 0.501961
0.909804 1.000000 0.501961
0.960784 1.000000 0.501961
0.988235 1.000000 0.501961
1.000000 1.000000 0.501961
1.000000 1.000000 0.501961
0.000000 0.000000 0.623529
0.364706 0.000000 0.623529
0.658824 0.000000 0.623529
0.819608 0.000000 0.623529
0.909804 0.000000 0.623529
0.960784 0.000000 0.623529
0.988235 0.000000 0.623529
1.000000 0.000000 0.623529
1.000000 0.000000 0.623529
0.000000 0.125490 0.623529
0.364706 0.125490 0.623529
0.658824 0.125490 0.623529
0.819608 0.125490 0.623529
0.909804 0.125490 0.623529
0.960784 0.125490 0.623529
0.988235 0.125490 0.623529
1.000000 0.125490 0.623529
1.000000 0.125490 0.623529
0.000000 0.250980 0.623529
0.364706 0.250980 0.623529
0.658824 0.250980 0.623529
0.819608 0.250980 0.623529
0.909804 0.250980 0.623529
0.960784 0.250980 0.623529
0.988235 0.250980 0.623529
1.000000 0.250980 0.623529
1.000000 0.250980 0.623529
0.000000 0.376471 0.623529
0.364706 0.376471 0.623529
0.658824 0.376471 0.623529
0.819608 0.376471 0.623529
0.909804 0.376471 0.623529
0.960784 0.376471 0.623529
0.988235 0.376471 0.623529
1.000000 0.376471 0.623529
1.000000 0.376471 0.623529
0.000000 0.501961 0.623529
0.364706 0.501961 0.623529
0.658824 0.501961 0.623529
0.819608 0.501961 0.623529
0.909804 0.501961 0.623529
0.960784 0.501961 0.623529
0.988235 0.501961 0.623529
1.000000 0.501961 0.623529
1.000000 0.501961 0.623529
0.000000 0.623529 0.623529
0.364706 0.623529 0.623529
0.658824 0.623529 0.623529
0.819608 0.623529 0.623529
0.909804 0.623529 0.623529
0.960784 0.623529 0.623529
0.988235 0.623529 0.623529
1.000000 0.623529 0.623529
1.000000 0.623529 0.623529
0.000000 0.749020 0.623529
0.364706 0.749020 0.623529
0.658824 0.749020 0.623529
0.819608 0.749020 0.623529
0.909804 0.749020 0.623529
0.960784 0.749020 0.623529
0.988235 0.749020 0.623529
1.000000 0.749020 0.623529
1.000000 0.749020 0.623529
0.000000 0.874510 0.623529
0.364706 0.874510 0.623529
0.658824 0.874510 0.623529
0.819608 0.874510 0.623529
0.909804 0.874510 0.623529
0.960784 0.874510 0.623529
0.988235 0.874510 0.623529
1.000000 0.874510 0.623529
1.000000 0.874510 0.623529
0.000000 1.000000 0.623529
0.364706 1.000000 0.623529
0.658824 1.000000 0.623529
0.819608 1.000000 0.623529
0.909804 1.000000 0.623529
0.960784 1.000000 0.623529
0.988235 1.000000 0.623529
1.000000 1.000000 0.623529
1.000000 1.000000 0.623529
0.000000 0.000000 0.749020
0.364706 0.000000 0.749020
0.658824 0.000000 0.749020
0.819608 0.000000 0.749020
0.909804 0.000000 0.749020
0.960784 0.000000 0.749020
0.988235 0.000000 0.749020
1.000000 0.000000 0.749020
1.000000 0.000000 0.749020
0.000000 0.125490 0.749020
0.364706 0.125490 0.749020
0.658824 0.125490 0.749020
0.819608 0.125490 0.749020
0.909804 0.125490 0.749020
0.960784 0.125490 0.749020
0.988235 0.125490 0.749020
1.000000 0.125490 0.749020
1.000000 0.125490 0.749020
0.000000 0.250980 0.749020
0.364706 0.250980 0.749020
0.658824 0.250980 0.749020
0.819608 0.250980 0.749020
0.909804 0.250980 0.749020
0.960784 0.250980 0.749020
0.988235 0.250980 0.749020
1.000000 0.250980 0.749020
1.000000 0.250980 0.749020
0.000000 0.376471 0.749020
0.364706 0.376471 0.749020
0.658824 0.376471 0.749020
0.819608 0.376471 0.749020
0.909804 0.376471 0.749020
0.960784 0.376471 0.749020
0.988235 0.376471 0.749020
1.000000 0.376471 0.749020
1.000000 0.376471 0.749020
0.000000 0.501961 0.749020
0.364706 0.501961 0.749020
0.658824 0.501961 0.749020
0.819608 0.501961 0.749020
0.909804 0.501961 0.749020
0.960784 0.501961 0.749020
0.988235 0.501961 0.749020
1.000000 0.501961 0.749020
1.000000 0.501961 0.749020
0.000000 0.623529 0.749020
0.364706 0.623529 0.749020
0.658824 0.623529 0.749020
0.819608 0.623529 0.749020
0.909804 0.623529 0.749020
0.960784 0.623529 0.749020
0.988235 0.623529 0.749020
1.000000 0.623529 0.749020
1.000000 0.623529 0.749020
0.000000 0.749020 0.749020
0.364706 0.749020 0.749020
0.658824 0.749020 0.749020
0.819608 0.749020 0.749020
0.909804 0.749020 0.749020
0.960784 0.749020 0.749020
0.988235 0.749020 0.749020
1.000000 0.749020 0.749020
1.000000 0.749020 0.749020
0.000000 0.874510 0.749020
0.364706 0.874510 0.749020
0.658824 0.874510 0.749020
0.819608 0.874510 0.749020
0.909804 0.874510 0.749020
0.960784 0.874510 0.749020
0.988235 0.874510 0.749020
1.000000 0.874510 0.749020
1.000000 0.874510 0.749020
0.000000 1.000000 0.749020
0.364706 1.000000 0.749020
0.658824 1.000000 0.749020
0.819608 1.000000 0.749020
0.909804 1.000000 0.749020
0.960784 1.000000 0.749020
0.988235 1.000000 0.749020
1.000000 1.000000 0.749020
1.000000 1.000000 0.749020
0.000000 0.000000 0.874510
0.364706 0.000000 0.874510
0.658824 0.000000 0.874510
0.819608 0.000000 0.874510
0.909804 0.000000 0.874510
0.960784 0.000000 0.874510
0.988235 0.000000 0.874510
1.000000 0.000000 0.874510
1.000000 0.000000 0.874510
0.000000 0.125490 0.874510
0.364706 0.125490 0.874510
0.658824 0.125490 0.874510
0.819608 0.125490 0.874510
0.909804 0.125490 0.874510
0.960784 0.125490 0.874510
0.988235 0.125490 0.874510
1.000000 0.125490 0.874510
1.000000 0.125490 0.874510
0.000000 0.250980 0.874510
0.364706 0.250980 0.874510
0.658824 0.250980 0.874510
0.819608 0.250980 0.874510
0.909804 0.250980 0.874510
0.960784 0.250980 0.874510
0.988235 0.250980 0.874510
1.000000 0.250980 0.874510
1.000000 0.250980 0.874510
0.000000 0.376471 0.874510
0.364706 0.376471 0.874510
0.658824 0.376471 0.874510
0.819608 0.376471 0.874510
0.909804 0.376471 0.874510
0.960784 0.376471 0.874510
0.988235 0.376471 0.874510
1.000000 0.376471 0.874510
1.000000 0.376471 0.874510
0.000000 0.501961 0.874510
0.364706 0.501961 0.874510
0.658824 0.501961 0.874510
0.819608 0.501961 0.874510
0.909804 0.501961 0.874510
0.960784 0.501961 0.874510
0.988235 0.501961 0.874510
1.000000 0.501961 0.874510
1.000000 0.501961 0.874510
0.000000 0.623529 0.874510
0.364706 0.623529 0.874510
0.658824 0.623529 0.874510
0.819608 0.623529 0.874510
0.909804 0.623529 0.874510
0.960784 0.623529 0.874510
0.988235 0.623529 0.874510
1.000000 0.623529 0.874510
1.000000 0.623529 0.874510
0.000000 0.749020 0.874510
0.364706 0.749020 0.874510
0.658824 0.749020 0.874510
0.819608 0.749020 0.874510
0.909804 0.749020 0.874510
0.960784 0.749020 0.874510
0.988235 0.749020 0.874510
1.000000 0.749020 0.874510
1.000000 0.749020 0.874510
0.000000 0.874510 0.874510
0.364706 0.874510 0.874510
0.658824 0.874510 0.874510
0.819608 0.874510 0.874510
0.909804 0.874510 0.874510
0.960784 0.874510 0.874510
0.988235 0.874510 0.874510
1.000000 0.874510 0.874510
1.000000 0.874510 0.874510
0.000000 1.000000 0.874510
0.364706 1.000000 0.874510
0.658824 1.000000 0.874510
0.819608 1.000000 0.874510
0.909804 1.000000 0.874510
0.960784 1.000000 0.874510
0.988235 1.000000 0.874510
1.000000 1.000000 0.874510
1.000000 1.000000 0.874510
0.000000 0.000000 1.000000
0.364706 0.000000 1.000000
0.658824 0.000000 1.000000
0.819608 0.000000 1.000000
0.909804 0.000000 1.000000
0.960784 0.000000 1.000000
0.988235 0.000000 1.000000
1.000000 0.000000 1.000000
1.000000 0.000000 1.000000
0.000000 0.125490 1.000000
0.364706 0.125490 1.000000
0.658824 0.125490 1.000000
0.819608 0.125490 1.000000
0.909804 0.125490 1.000000
0.960784 0.125490 1.000000
0.988235 0.125490 1.000000
1.000000 0.125490 1.000000
1.000000 0.125490 1.000000
0.000000 0.250980 1.000000
0.364706 0.250980 1.000000
0.658824 0.250980 1.000000
0.819608 0.250980 1.000000
0.909804 0.250980 1.000000
0.960784 0.250980 1.000000
0.988235 0.250980 1.000000
1.000000 0.250980 1.000000
1.000000 0.250980 1.000000
0.000000 0.376471 1.000000
0.364706 0.376471 1.000000
0.658824 0.376471 1.000000
0.819608 0.376471 1.000000
0.909804 0.376471 1.000000
0.960784 0.376471 1.000000
0.988235 0.376471 1.000000
1.000000 0.376471 1.000000
1.000000 0.376471 1.000000
0.000000 0.501961 1.000000
0.364706 0.501961 1.000000
0.658824 0.501961 1.000000
0.819608 0.501961 1.000000
0.909804 0.501961 1.000000
0.960784 0.501961 1.000000
0.988235 0.501961 1.000000
1.000000 0.501961 1.000000
1.000000 0.501961 1.000000
0.000000 0.623529 1.000000
0.364706 0.623529 1.000000
0.658824 0.623529 1.000000
0.819608 0.623529 1.000000
0.909804 0.623529 1.000000
0.960784 0.623529 1.000000
0.988235 0.623529 1.000000
1.000000 0.623529 1.000000
1.000000 0.623529 1.000000
0.000000 0.749020 1.000000
0.364706 0.749020 1.000000
0.658824 0.749020 1.000000
0.819608 0.749020 1.000000
0.909804 0.749020 1.000000
0.960784 0.749020 1.000000
0.988235 0.749020 1.000000
1.000000 0.749020 1.000000
1.000000 0.749020 1.000000
0.000000 0.874510 1.000000
0.364706 0.874510 1.000000
0.658824 0.874510 1.000000
0.819608 0.874510 1.000000
0.909804 0.874510 1.000000
0.960784 0.874510 1.000000
0.988235 0.874510 1.000000
1.000000 0.874510 1.000000
1.000000 0.874510 1.000000
0.000000 1.000000 1.000000
0.364706 1.000000 1.000000
0.658824 1.000000 1.000000
0.819608 1.000000 1.000000
0.909804 1.000000 1.000000
0.960784 1.000000 1.000000
0.988235 1.000000 1.000000
1.000000 1.000000 1.000000
1.000000 1.000000 1.000000
