LUTs/Damaging/LUT_RED/red_extreme.cube
#Generated by lutCreator.js
#Coded by SirSerch
#https://github.com/SirSerch/LutCreatorJs
TITLE lutCreatorJs_25
LUT_3D_SIZE 25
0.000000 0.000000 0.000000
0.129412 0.000000 0.000000
0.243137 0.000000 0.000000
0.364706 0.000000 0.000000
0.474510 0.000000 0.000000
0.568627 0.000000 0.000000
0.658824 0.000000 0.000000
0.725490 0.000000 0.000000
0.780392 0.000000 0.000000
0.819608 0.000000 0.000000
0.850980 0.000000 0.000000
0.882353 0.000000 0.000000
0.909804 0.000000 0.000000
0.929412 0.000000 0.000000
0.949020 0.000000 0.000000
0.960784 0.000000 0.000000
0.972549 0.000000 0.000000
0.984314 0.000000 0.000000
0.988235 0.000000 0.000000
0.996078 0.000000 0.000000
0.996078 0.000000 0.000000
1.000000 0.000000 0.000000
1.000000 0.000000 0.000000
1.000000 0.000000 0.000000
1.000000 0.000000 0.000000
0.000000 0.043137 0.000000
0.129412 0.043137 0.000000
0.243137 0.043137 0.000000
0.364706 0.043137 0.000000
0.474510 0.043137 0.000000
0.568627 0.043137 0.000000
0.658824 0.043137 0.000000
0.725490 0.043137 0.000000
0.780392 0.043137 0.000000
0.819608 0.043137 0.000000
0.850980 0.043137 0.000000
0.882353 0.043137 0.000000
0.909804 0.043137 0.000000
0.929412 0.043137 0.000000
0.949020 0.043137 0.000000
0.960784 0.043137 0.000000
0.972549 0.043137 0.000000
0.984314 0.043137 0.000000
0.988235 0.043137 0.000000
0.996078 0.043137 0.000000
0.996078 0.043137 0.000000
1.000000 0.043137 0.000000
1.000000 0.043137 0.000000
1.000000 0.043137 0.000000
1.000000 0.043137 0.000000
0.000000 0.082353 0.000000
0.129412 0.082353 0.000000
0.243137 0.082353 0.000000
0.364706 0.082353 0.000000
0.474510 0.082353 0.000000
0.568627 0.082353 0.000000
0.658824 0.082353 0.000000
0.725490 0.082353 0.000000
0.780392 0.082353 0.000000
0.819608 0.082353 0.000000
0.850980 0.082353 0.000000
0.882353 0.082353 0.000000
0.909804 0.082353 0.000000
0.929412 0.082353 0.000000
0.949020 0.082353 0.000000
0.960784 0.082353 0.000000
0.972549 0.082353 0.000000
0.984314 0.082353 0.000000
0.988235 0.082353 0.000000
0.996078 0.082353 0.000000
0.996078 0.082353 0.000000
1.000000 0.082353 0.000000
1.000000 0.082353 0.000000
1.000000 0.082353 0.000000
1.000000 0.082353 0.000000
0.000000 0.125490 0.000000
0.129412 0.125490 0.000000
0.243137 0.125490 0.000000
0.364706 0.125490 0.000000
0.474510 0.125490 0.000000
0.568627 0.125490 0.000000
0.658824 0.125490 0.000000
0.725490 0.125490 0.000000
0.780392 0.125490 0.000000
0.819608 0.125490 0.000000
0.850980 0.125490 0.000000
0.882353 0.125490 0.000000
0.909804 0.125490 0.000000
0.929412 0.125490 0.000000
0.949020 0.125490 0.000000
0.960784 0.125490 0.000000
0.972549 0.125490 0.000000
0.984314 0.125490 0.000000
0.988235 0.125490 0.000000
0.996078 0.125490 0.000000
0.996078 0.125490 0.000000
1.000000 0.125490 0.000000
1.000000 0.125490 0.000000
1.000000 0.125490 0.000000
1.000000 0.125490 0.000000
0.000000 0.168627 0.000000
0.129412 0.168627 0.000000
0.243137 0.168627 0.000000
0.364706 0.168627 0.000000
0.474510 0.168627 0.000000
0.568627 0.168627 0.000000
0.658824 0.168627 0.000000
0.725490 0.168627 0.000000
0.780392 0.168627 0.000000
0.819608 0.168627 0.000000
0.850980 0.168627 0.000000
0.882353 0.168627 0.000000
0.909804 0.168627 0.000000
0.929412 0.168627 0.000000
0.949020 0.168627 0.000000
0.960784 0.168627 0.000000
0.972549 0.168627 0.000000
0.984314 0.168627 0.000000
0.988235 0.168627 0.000000
0.996078 0.168627 0.000000
0.996078 0.168627 0.000000
1.000000 0.168627 0.000000
1.000000 0.168627 0.000000
1.000000 0.168627 0.000000
1.000000 0.168627 0.000000
0.000000 0.207843 0.000000
0.129412 0.207843 0.000000
0.243137 0.207843 0.000000
0.364706 0.207843 0.000000
0.474510 0.207843 0.000000
0.568627 0.207843 0.000000
0.658824 0.207843 0.000000
0.725490 0.207843 0.000000
0.780392 0.207843 0.000000
0.819608 0.207843 0.000000
0.850980 0.207843 0.000000
0.882353 0.207843 0.000000
0.909804 0.207843 0.000000
0.929412 0.207843 0.000000
0.949020 0.207843 0.000000
0.960784 0.207843 0.000000
0.972549 0.207843 0.000000
0.984314 0.207843 0.000000
0.988235 0.207843 0.000000
0.996078 0.207843 0.000000
0.996078 0.207843 0.000000
1.000000 0.207843 0.000000
1.000000 0.207843 0.000000
1.000000 0.207843 0.000000
1.000000 0.207843 0.000000
0.000000 0.250980 0.000000
0.129412 0.250980 0.000000
0.243137 0.250980 0.000000
0.364706 0.250980 0.000000
0.474510 0.250980 0.000000
0.568627 0.250980 0.000000
0.658824 0.250980 0.000000
0.725490 0.250980 0.000000
0.780392 0.250980 0.000000
0.819608 0.250980 0.000000
0.850980 0.250980 0.000000
0.882353 0.250980 0.000000
0.909804 0.250980 0.000000
0.929412 0.250980 0.000000
0.949020 0.250980 0.000000
0.960784 0.250980 0.000000
0.972549 0.250980 0.000000
0.984314 0.250980 0.000000
0.988235 0.250980 0.000000
0.996078 0.250980 0.000000
0.996078 0.250980 0.000000
1.000000 0.250980 0.000000
1.000000 0.250980 0.000000
1.000000 0.250980 0.000000
1.000000 0.250980 0.000000
0.000000 0.290196 0.000000
0.129412 0.290196 0.000000
0.243137 0.290196 0.000000
0.364706 0.290196 0.000000
0.474510 0.290196 0.000000
0.568627 0.290196 0.000000
0.658824 0.290196 0.000000
0.725490 0.290196 0.000000
0.780392 0.290196 0.000000
0.819608 0.290196 0.000000
0.850980 0.290196 0.000000
0.882353 0.290196 0.000000
0.909804 0.290196 0.000000
0.929412 0.290196 0.000000
0.949020 0.290196 0.000000
0.960784 0.290196 0.000000
0.972549 0.290196 0.000000
0.984314 0.290196 0.000000
0.988235 0.290196 0.000000
0.996078 0.290196 0.000000
0.996078 0.290196 0.000000
1.000000 0.290196 0.000000
1.000000 0.290196 0.000000
1.000000 0.290196 0.000000
1.000000 0.290196 0.000000
0.000000 0.333333 0.000000
0.129412 0.333333 0.000000
0.243137 0.333333 0.000000
0.364706 0.333333 0.000000
0.474510 0.333333 0.000000
0.568627 0.333333 0.000000
0.658824 0.333333 0.000000
0.725490 0.333333 0.000000
0.780392 0.333333 0.000000
0.819608 0.333333 0.000000
0.850980 0.333333 0.000000
0.882353 0.333333 0.000000
0.909804 0.333333 0.000000
0.929412 0.333333 0.000000
0.949020 0.333333 0.000000
0.960784 0.333333 0.000000
0.972549 0.333333 0.000000
0.984314 0.333333 0.000000
0.988235 0.333333 0.000000
0.996078 0.333333 0.000000
0.996078 0.333333 0.000000
1.000000 0.333333 0.000000
1.000000 0.333333 0.000000
1.000000 0.333333 0.000000
1.000000 0.333333 0.000000
0.000000 0.376471 0.000000
0.129412 0.376471 0.000000
0.243137 0.376471 0.000000
0.364706 0.376471 0.000000
0.474510 0.376471 0.000000
0.568627 0.376471 0.000000
0.658824 0.376471 0.000000
0.725490 0.376471 0.000000
0.780392 0.376471 0.000000
0.819608 0.376471 0.000000
0.850980 0.376471 0.000000
0.882353 0.376471 0.000000
0.909804 0.376471 0.000000
0.929412 0.376471 0.000000
0.949020 0.376471 0.000000
0.960784 0.376471 0.000000
0.972549 0.376471 0.000000
0.984314 0.376471 0.000000
0.988235 0.376471 0.000000
0.996078 0.376471 0.000000
0.996078 0.376471 0.000000
1.000000 0.376471 0.000000
1.000000 0.376471 0.000000
1.000000 0.376471 0.000000
1.000000 0.376471 0.000000
0.000000 0.415686 0.000000
0.129412 0.415686 0.000000
0.243137 0.415686 0.000000
0.364706 0.415686 0.000000
0.474510 0.415686 0.000000
0.568627 0.415686 0.000000
0.658824 0.415686 0.000000
0.725490 0.415686 0.000000
0.780392 0.415686 0.000000
0.819608 0.415686 0.000000
0.850980 0.415686 0.000000
0.882353 0.415686 0.000000
0.909804 0.415686 0.000000
0.929412 0.415686 0.000000
0.949020 0.415686 0.000000
0.960784 0.415686 0.000000
0.972549 0.415686 0.000000
0.984314 0.415686 0.000000
0.988235 0.415686 0.000000
0.996078 0.415686 0.000000
0.996078 0.415686 0.000000
1.000000 0.415686 0.000000
1.000000 0.415686 0.000000
1.000000 0.415686 0.000000
1.000000 0.415686 0.000000
0.000000 0.458824 0.000000
0.129412 0.458824 0.000000
0.243137 0.458824 0.000000
0.364706 0.458824 0.000000
0.474510 0.458824 0.000000
0.568627 0.458824 0.000000
0.658824 0.458824 0.000000
0.725490 0.458824 0.000000
0.780392 0.458824 0.000000
0.819608 0.458824 0.000000
0.850980 0.458824 0.000000
0.882353 0.458824 0.000000
0.909804 0.458824 0.000000
0.929412 0.458824 0.000000
0.949020 0.458824 0.000000
0.960784 0.458824 0.000000
0.972549 0.458824 0.000000
0.984314 0.458824 0.000000
0.988235 0.458824 0.000000
0.996078 0.458824 0.000000
0.996078 0.458824 0.000000
1.000000 0.458824 0.000000
1.000000 0.458824 0.000000
1.000000 0.458824 0.000000
1.000000 0.458824 0.000000
0.000000 0.501961 0.000000
0.129412 0.501961 0.000000
0.243137 0.501961 0.000000
0.364706 0.501961 0.000000
0.474510 0.501961 0.000000
0.568627 0.501961 0.000000
0.658824 0.501961 0.000000
0.725490 0.501961 0.000000
0.780392 0.501961 0.000000
0.819608 0.501961 0.000000
0.850980 0.501961 0.000000
0.882353 0.501961 0.000000
0.909804 0.501961 0.000000
0.929412 0.501961 0.000000
0.949020 0.501961 0.000000
0.960784 0.501961 0.000000
0.972549 0.501961 0.000000
0.984314 0.501961 0.000000
0.988235 0.501961 0.000000
0.996078 0.501961 0.000000
0.996078 0.501961 0.000000
1.000000 0.501961 0.000000
1.000000 0.501961 0.000000
1.000000 0.501961 0.000000
1.000000 0.501961 0.000000
0.000000 0.541176 0.000000
0.129412 0.541176 0.000000
0.243137 0.541176 0.000000
0.364706 0.541176 0.000000
0.474510 0.541176 0.000000
0.568627 0.541176 0.000000
0.658824 0.541176 0.000000
0.725490 0.541176 0.000000
0.780392 0.541176 0.000000
0.819608 0.541176 0.000000
0.850980 0.541176 0.000000
0.882353 0.541176 0.000000
0.909804 0.541176 0.000000
0.929412 0.541176 0.000000
0.949020 0.541176 0.000000
0.960784 0.541176 0.000000
0.972549 0.541176 0.000000
0.984314 0.541176 0.000000
0.988235 0.541176 0.000000
0.996078 0.541176 0.000000
0.996078 0.541176 0.000000
1.000000 0.541176 0.000000
1.000000 0.541176 0.000000
1.000000 0.541176 0.000000
1.000000 0.541176 0.000000
0.000000 0.584314 0.000000
0.129412 0.584314 0.000000
0.243137 0.584314 0.000000
0.364706 0.584314 0.000000
0.474510 0.584314 0.000000
0.568627 0.584314 0.000000
0.658824 0.584314 0.000000
0.725490 0.584314 0.000000
0.780392 0.584314 0.000000
0.819608 0.584314 0.000000
0.850980 0.584314 0.000000
0.882353 0.584314 0.000000
0.909804 0.584314 0.000000
0.929412 0.584314 0.000000
0.949020 0.584314 0.000000
0.960784 0.584314 0.000000
0.972549 0.584314 0.000000
0.984314 0.584314 0.000000
0.988235 0.584314 0.000000
0.996078 0.584314 0.000000
0.996078 0.584314 0.000000
1.000000 0.584314 0.000000
1.000000 0.584314 0.000000
1.000000 0.584314 0.000000
1.000000 0.584314 0.000000
0.000000 0.623529 0.000000
0.129412 0.623529 0.000000
0.243137 0.623529 0.000000
0.364706 0.623529 0.000000
0.474510 0.623529 0.000000
0.568627 0.623529 0.000000
0.658824 0.623529 0.000000
0.725490 0.623529 0.000000
0.780392 0.623529 0.000000
0.819608 0.623529 0.000000
0.850980 0.623529 0.000000
0.882353 0.623529 0.000000
0.909804 0.623529 0.000000
0.929412 0.623529 0.000000
0.949020 0.623529 0.000000
0.960784 0.623529 0.000000
0.972549 0.623529 0.000000
0.984314 0.623529 0.000000
0.988235 0.623529 0.000000
0.996078 0.623529 0.000000
0.996078 0.623529 0.000000
1.000000 0.623529 0.000000
1.000000 0.623529 0.000000
1.000000 0.623529 0.000000
1.000000 0.623529 0.000000
0.000000 0.666667 0.000000
0.129412 0.666667 0.000000
0.243137 0.666667 0.000000
0.364706 0.666667 0.000000
0.474510 0.666667 0.000000
0.568627 0.666667 0.000000
0.658824 0.666667 0.000000
0.725490 0.666667 0.000000
0.780392 0.666667 0.000000
0.819608 0.666667 0.000000
0.850980 0.666667 0.000000
0.882353 0.666667 0.000000
0.909804 0.666667 0.000000
0.929412 0.666667 0.000000
0.949020 0.666667 0.000000
0.960784 0.666667 0.000000
0.972549 0.666667 0.000000
0.984314 0.666667 0.000000
0.988235 0.666667 0.000000
0.996078 0.666667 0.000000
0.996078 0.666667 0.000000
1.000000 0.666667 0.000000
1.000000 0.666667 0.000000
1.000000 0.666667 0.000000
1.000000 0.666667 0.000000
0.000000 0.709804 0.000000
0.129412 0.709804 0.000000
0.243137 0.709804 0.000000
0.364706 0.709804 0.000000
0.474510 0.709804 0.000000
0.568627 0.709804 0.000000
0.658824 0.709804 0.000000
0.725490 0.709804 0.000000
0.780392 0.709804 0.000000
0.819608 0.709804 0.000000
0.850980 0.709804 0.000000
0.882353 0.709804 0.000000
0.909804 0.709804 0.000000
0.929412 0.709804 0.000000
0.949020 0.709804 0.000000
0.960784 0.709804 0.000000
0.972549 0.709804 0.000000
0.984314 0.709804 0.000000
0.988235 0.709804 0.000000
0.996078 0.709804 0.000000
0.996078 0.709804 0.000000
1.000000 0.709804 0.000000
1.000000 0.709804 0.000000
1.000000 0.709804 0.000000
1.000000 0.709804 0.000000
0.000000 0.749020 0.000000
0.129412 0.749020 0.000000
0.243137 0.749020 0.000000
0.364706 0.749020 0.000000
0.474510 0.749020 0.000000
0.568627 0.749020 0.000000
0.658824 0.749020 0.000000
0.725490 0.749020 0.000000
0.780392 0.749020 0.000000
0.819608 0.749020 0.000000
0.850980 0.749020 0.000000
0.882353 0.749020 0.000000
0.909804 0.749020 0.000000
0.929412 0.749020 0.000000
0.949020 0.749020 0.000000
0.960784 0.749020 0.000000
0.972549 0.749020 0.000000
0.984314 0.749020 0.000000
0.988235 0.749020 0.000000
0.996078 0.749020 0.000000
0.996078 0.749020 0.000000
1.000000 0.749020 0.000000
1.000000 0.749020 0.000000
1.000000 0.749020 0.000000
1.000000 0.749020 0.000000
0.000000 0.792157 0.000000
0.129412 0.792157 0.000000
0.243137 0.792157 0.000000
0.364706 0.792157 0.000000
0.474510 0.792157 0.000000
0.568627 0.792157 0.000000
0.658824 0.792157 0.000000
0.725490 0.792157 0.000000
0.780392 0.792157 0.000000
0.819608 0.792157 0.000000
0.850980 0.792157 0.000000
0.882353 0.792157 0.000000
0.909804 0.792157 0.000000
0.929412 0.792157 0.000000
0.949020 0.792157 0.000000
0.960784 0.792157 0.000000
0.972549 0.792157 0.000000
0.984314 0.792157 0.000000
0.988235 0.792157 0.000000
0.996078 0.792157 0.000000
0.996078 0.792157 0.000000
1.000000 0.792157 0.000000
1.000000 0.792157 0.000000
1.000000 0.792157 0.000000
1.000000 0.792157 0.000000
0.000000 0.835294 0.000000
0.129412 0.835294 0.000000
0.243137 0.835294 0.000000
0.364706 0.835294 0.000000
0.474510 0.835294 0.000000
0.568627 0.835294 0.000000
0.658824 0.835294 0.000000
0.725490 0.835294 0.000000
0.780392 0.835294 0.000000
0.819608 0.835294 0.000000
0.850980 0.835294 0.000000
0.882353 0.835294 0.000000
0.909804 0.835294 0.000000
0.929412 0.835294 0.000000
0.949020 0.835294 0.000000
0.960784 0.835294 0.000000
0.972549 0.835294 0.000000
0.984314 0.835294 0.000000
0.988235 0.835294 0.000000
0.996078 0.835294 0.000000
0.996078 0.835294 0.000000
1.000000 0.835294 0.000000
1.000000 0.835294 0.000000
1.000000 0.835294 0.000000
1.000000 0.835294 0.000000
0.000000 0.874510 0.000000
0.129412 0.874510 0.000000
0.243137 0.874510 0.000000
0.364706 0.874510 0.000000
0.474510 0.874510 0.000000
0.568627 0.874510 0.000000
0.658824 0.874510 0.000000
0.725490 0.874510 0.000000
0.780392 0.874510 0.000000
0.819608 0.874510 0.000000
0.850980 0.874510 0.000000
0.882353 0.874510 0.000000
0.909804 0.874510 0.000000
0.929412 0.874510 0.000000
0.949020 0.874510 0.000000
0.960784 0.874510 0.000000
0.972549 0.874510 0.000000
0.984314 0.874510 0.000000
0.988235 0.874510 0.000000
0.996078 0.874510 0.000000
0.996078 0.874510 0.000000
1.000000 0.874510 0.000000
1.000000 0.874510 0.000000
1.000000 0.874510 0.000000
1.000000 0.874510 0.000000
0.000000 0.917647 0.000000
0.129412 0.917647 0.000000
0.243137 0.917647 0.000000
0.364706 0.917647 0.000000
0.474510 0.917647 0.000000
0.568627 0.917647 0.000000
0.658824 0.917647 0.000000
0.725490 0.917647 0.000000
0.780392 0.917647 0.000000
0.819608 0.917647 0.000000
0.850980 0.917647 0.000000
0.882353 0.917647 0.000000
0.909804 0.917647 0.000000
0.929412 0.917647 0.000000
0.949020 0.917647 0.000000
0.960784 0.917647 0.000000
0.972549 0.917647 0.000000
0.984314 0.917647 0.000000
0.988235 0.917647 0.000000
0.996078 0.917647 0.000000
0.996078 0.917647 0.000000
1.000000 0.917647 0.000000
1.000000 0.917647 0.000000
1.000000 0.917647 0.000000
1.000000 0.917647 0.000000
0.000000 0.956863 0.000000
0.129412 0.956863 0.000000
0.243137 0.956863 0.000000
0.364706 0.956863 0.000000
0.474510 0.956863 0.000000
0.568627 0.956863 0.000000
0.658824 0.956863 0.000000
0.725490 0.956863 0.000000
0.780392 0.956863 0.000000
0.819608 0.956863 0.000000
0.850980 0.956863 0.000000
0.882353 0.956863 0.000000
0.909804 0.956863 0.000000
0.929412 0.956863 0.000000
0.949020 0.956863 0.000000
0.960784 0.956863 0.000000
0.972549 0.956863 0.000000
0.984314 0.956863 0.000000
0.988235 0.956863 0.000000
0.996078 0.956863 0.000000
0.996078 0.956863 0.000000
1.000000 0.956863 0.000000
1.000000 0.956863 0.000000
1.000000 0.956863 0.000000
1.000000 0.956863 0.000000
0.000000 1.000000 0.000000
0.129412 1.000000 0.000000
0.243137 1.000000 0.000000
0.364706 1.000000 0.000000
0.474510 1.000000 0.000000
0.568627 1.000000 0.000000
0.658824 1.000000 0.000000
0.725490 1.000000 0.000000
0.780392 1.000000 0.000000
0.819608 1.000000 0.000000
0.850980 1.000000 0.000000
0.882353 1.000000 0.000000
0.909804 1.000000 0.000000
0.929412 1.000000 0.000000
0.949020 1.000000 0.000000
0.960784 1.000000 0.000000
0.972549 1.000000 0.000000
0.984314 1.000000 0.000000
0.988235 1.000000 0.000000
0.996078 1.000000 0.000000
0.996078 1.000000 0.000000
1.000000 1.000000 0.000000
1.000000 1.000000 0.000000
1.000000 1.000000 0.000000
1.000000 1.000000 0.000000
0.000000 0.000000 0.043137
0.129412 0.000000 0.043137
0.243137 0.000000 0.043137
0.364706 0.000000 0.043137
0.474510 0.000000 0.043137
0.568627 0.000000 0.043137
0.658824 0.000000 0.043137
0.725490 0.000000 0.043137
0.780392 0.000000 0.043137
0.819608 0.000000 0.043137
0.850980 0.000000 0.043137
0.882353 0.000000 0.043137
0.909804 0.000000 0.043137
0.929412 0.000000 0.043137
0.949020 0.000000 0.043137
0.960784 0.000000 0.043137
0.972549 0.000000 0.043137
0.984314 0.000000 0.043137
0.988235 0.000000 0.043137
0.996078 0.000000 0.043137
0.996078 0.000000 0.043137
1.000000 0.000000 0.043137
1.000000 0.000000 0.043137
1.000000 0.000000 0.043137
1.000000 0.000000 0.043137
0.000000 0.043137 0.043137
0.129412 0.043137 0.043137
0.243137 0.043137 0.043137
0.364706 0.043137 0.043137
0.474510 0.043137 0.043137
0.568627 0.043137 0.043137
0.658824 0.043137 0.043137
0.725490 0.043137 0.043137
0.780392 0.043137 0.043137
0.819608 0.043137 0.043137
0.850980 0.043137 0.043137
0.882353 0.043137 0.043137
0.909804 0.043137 0.043137
0.929412 0.043137 0.043137
0.949020 0.043137 0.043137
0.960784 0.043137 0.043137
0.972549 0.043137 0.043137
0.984314 0.043137 0.043137
0.988235 0.043137 0.043137
0.996078 0.043137 0.043137
0.996078 0.043137 0.043137
1.000000 0.043137 0.043137
1.000000 0.043137 0.043137
1.000000 0.043137 0.043137
1.000000 0.043137 0.043137
0.000000 0.082353 0.043137
0.129412 0.082353 0.043137
0.243137 0.082353 0.043137
0.364706 0.082353 0.043137
0.474510 0.082353 0.043137
0.568627 0.082353 0.043137
0.658824 0.082353 0.043137
0.725490 0.082353 0.043137
0.780392 0.082353 0.043137
0.819608 0.082353 0.043137
0.850980 0.082353 0.043137
0.882353 0.082353 0.043137
0.909804 0.082353 0.043137
0.929412 0.082353 0.043137
0.949020 0.082353 0.043137
0.960784 0.082353 0.043137
0.972549 0.082353 0.043137
0.984314 0.082353 0.043137
0.988235 0.082353 0.043137
0.996078 0.082353 0.043137
0.996078 0.082353 0.043137
1.000000 0.082353 0.043137
1.000000 0.082353 0.043137
1.000000 0.082353 0.043137
1.000000 0.082353 0.043137
0.000000 0.125490 0.043137
0.129412 0.125490 0.043137
0.243137 0.125490 0.043137
0.364706 0.125490 0.043137
0.474510 0.125490 0.043137
0.568627 0.125490 0.043137
0.658824 0.125490 0.043137
0.725490 0.125490 0.043137
0.780392 0.125490 0.043137
0.819608 0.125490 0.043137
0.850980 0.125490 0.043137
0.882353 0.125490 0.043137
0.909804 0.125490 0.043137
0.929412 0.125490 0.043137
0.949020 0.125490 0.043137
0.960784 0.125490 0.043137
0.972549 0.125490 0.043137
0.984314 0.125490 0.043137
0.988235 0.125490 0.043137
0.996078 0.125490 0.043137
0.996078 0.125490 0.043137
1.000000 0.125490 0.043137
1.000000 0.125490 0.043137
1.000000 0.125490 0.043137
1.000000 0.125490 0.043137
0.000000 0.168627 0.043137
0.129412 0.168627 0.043137
0.243137 0.168627 0.043137
0.364706 0.168627 0.043137
0.474510 0.168627 0.043137
0.568627 0.168627 0.043137
0.658824 0.168627 0.043137
0.725490 0.168627 0.043137
0.780392 0.168627 0.043137
0.819608 0.168627 0.043137
0.850980 0.168627 0.043137
0.882353 0.168627 0.043137
0.909804 0.168627 0.043137
0.929412 0.168627 0.043137
0.949020 0.168627 0.043137
0.960784 0.168627 0.043137
0.972549 0.168627 0.043137
0.984314 0.168627 0.043137
0.988235 0.168627 0.043137
0.996078 0.168627 0.043137
0.996078 0.168627 0.043137
1.000000 0.168627 0.043137
1.000000 0.168627 0.043137
1.000000 0.168627 0.043137
1.000000 0.168627 0.043137
0.000000 0.207843 0.043137
0.129412 0.207843 0.043137
0.243137 0.207843 0.043137
0.364706 0.207843 0.043137
0.474510 0.207843 0.043137
0.568627 0.207843 0.043137
0.658824 0.207843 0.043137
0.725490 0.207843 0.043137
0.780392 0.207843 0.043137
0.819608 0.207843 0.043137
0.850980 0.207843 0.043137
0.882353 0.207843 0.043137
0.909804 0.207843 0.043137
0.929412 0.207843 0.043137
0.949020 0.207843 0.043137
0.960784 0.207843 0.043137
0.972549 0.207843 0.043137
0.984314 0.207843 0.043137
0.988235 0.207843 0.043137
0.996078 0.207843 0.043137
0.996078 0.207843 0.043137
1.000000 0.207843 0.043137
1.000000 0.207843 0.043137
1.000000 0.207843 0.043137
1.000000 0.207843 0.043137
0.000000 0.250980 0.043137
0.129412 0.250980 0.043137
0.243137 0.250980 0.043137
0.364706 0.250980 0.043137
0.474510 0.250980 0.043137
0.568627 0.250980 0.043137
0.658824 0.250980 0.043137
0.725490 0.250980 0.043137
0.780392 0.250980 0.043137
0.819608 0.250980 0.043137
0.850980 0.250980 0.043137
0.882353 0.250980 0.043137
0.909804 0.250980 0.043137
0.929412 0.250980 0.043137
0.949020 0.250980 0.043137
0.960784 0.250980 0.043137
0.972549 0.250980 0.043137
0.984314 0.250980 0.043137
0.988235 0.250980 0.043137
0.996078 0.250980 0.043137
0.996078 0.250980 0.043137
1.000000 0.250980 0.043137
1.000000 0.250980 0.043137
1.000000 0.250980 0.043137
1.000000 0.250980 0.043137
0.000000 0.290196 0.043137
0.129412 0.290196 0.043137
0.243137 0.290196 0.043137
0.364706 0.290196 0.043137
0.474510 0.290196 0.043137
0.568627 0.290196 0.043137
0.658824 0.290196 0.043137
0.725490 0.290196 0.043137
0.780392 0.290196 0.043137
0.819608 0.290196 0.043137
0.850980 0.290196 0.043137
0.882353 0.290196 0.043137
0.909804 0.290196 0.043137
0.929412 0.290196 0.043137
0.949020 0.290196 0.043137
0.960784 0.290196 0.043137
0.972549 0.290196 0.043137
0.984314 0.290196 0.043137
0.988235 0.290196 0.043137
0.996078 0.290196 0.043137
0.996078 0.290196 0.043137
1.000000 0.290196 0.043137
1.000000 0.290196 0.043137
1.000000 0.290196 0.043137
1.000000 0.290196 0.043137
0.000000 0.333333 0.043137
0.129412 0.333333 0.043137
0.243137 0.333333 0.043137
0.364706 0.333333 0.043137
0.474510 0.333333 0.043137
0.568627 0.333333 0.043137
0.658824 0.333333 0.043137
0.725490 0.333333 0.043137
0.780392 0.333333 0.043137
0.819608 0.333333 0.043137
0.850980 0.333333 0.043137
0.882353 0.333333 0.043137
0.909804 0.333333 0.043137
0.929412 0.333333 0.043137
0.949020 0.333333 0.043137
0.960784 0.333333 0.043137
0.972549 0.333333 0.043137
0.984314 0.333333 0.043137
0.988235 0.333333 0.043137
0.996078 0.333333 0.043137
0.996078 0.333333 0.043137
1.000000 0.333333 0.043137
1.000000 0.333333 0.043137
1.000000 0.333333 0.043137
1.000000 0.333333 0.043137
0.000000 0.376471 0.043137
0.129412 0.376471 0.043137
0.243137 0.376471 0.043137
0.364706 0.376471 0.043137
0.474510 0.376471 0.043137
0.568627 0.376471 0.043137
0.658824 0.376471 0.043137
0.725490 0.376471 0.043137
0.780392 0.376471 0.043137
0.819608 0.376471 0.043137
0.850980 0.376471 0.043137
0.882353 0.376471 0.043137
0.909804 0.376471 0.043137
0.929412 0.376471 0.043137
0.949020 0.376471 0.043137
0.960784 0.376471 0.043137
0.972549 0.376471 0.043137
0.984314 0.376471 0.043137
0.988235 0.376471 0.043137
0.996078 0.376471 0.043137
0.996078 0.376471 0.043137
1.000000 0.376471 0.043137
1.000000 0.376471 0.043137
1.000000 0.376471 0.043137
1.000000 0.376471 0.043137
0.000000 0.415686 0.043137
0.129412 0.415686 0.043137
0.243137 0.415686 0.043137
0.364706 0.415686 0.043137
0.474510 0.415686 0.043137
0.568627 0.415686 0.043137
0.658824 0.415686 0.043137
0.725490 0.415686 0.043137
0.780392 0.415686 0.043137
