LUTs/Damaging/LUT_RED/red_midtones.cube
#Generated by lutCreator.js
#Coded by SirSerch
#https://github.com/SirSerch/LutCreatorJs
TITLE lutCreatorJs_25
LUT_3D_SIZE 9
0.000000 0.000000 0.000000
0.231373 0.000000 0.000000
0.447059 0.000000 0.000000
0.635294 0.000000 0.000000
0.780392 0.000000 0.000000
0.874510 0.000000 0.000000
0.937255 0.000000 0.000000
0.976471 0.000000 0.000000
1.000000 0.000000 0.000000
0.000000 0.125490 0.000000
0.231373 0.125490 0.000000
0.447059 0.125490 0.000000
0.635294 0.125490 0.000000
0.780392 0.125490 0.000000
0.874510 0.125490 0.000000
0.937255 0.125490 0.000000
0.976471 0.125490 0.000000
1.000000 0.125490 0.000000
0.000000 0.250980 0.000000
0.231373 0.250980 0.000000
0.447059 0.250980 0.000000
0.635294 0.250980 0.000000
0.780392 0.250980 0.000000
0.874510 0.250980 0.000000
0.937255 0.250980 0.000000
0.976471 0.250980 0.000000
1.000000 0.250980 0.000000
0.000000 0.376471 0.000000
0.231373 0.376471 0.000000
0.447059 0.376471 0.000000
0.635294 0.376471 0.000000
0.780392 0.376471 0.000000
0.874510 0.376471 0.000000
0.937255 0.376471 0.000000
0.976471 0.376471 0.000000
1.000000 0.376471 0.000000
0.000000 0.501961 0.000000
0.231373 0.501961 0.000000
0.447059 0.501961 0.000000
0.635294 0.501961 0.000000
0.780392 0.501961 0.000000
0.874510 0.501961 0.000000
0.937255 0.501961 0.000000
0.976471 0.501961 0.000000
1.000000 0.501961 0.000000
0.000000 0.623529 0.000000
0.231373 0.623529 0.000000
0.447059 0.623529 0.000000
0.635294 0.623529 0.000000
0.780392 0.623529 0.000000
0.874510 0.623529 0.000000
0.937255 0.623529 0.000000
0.976471 0.623529 0.000000
1.000000 0.623529 0.000000
0.000000 0.749020 0.000000
0.231373 0.749020 0.000000
0.447059 0.749020 0.000000
0.635294 0.749020 0.000000
0.780392 0.749020 0.000000
0.874510 0.749020 0.000000
0.937255 0.749020 0.000000
0.976471 0.749020 0.000000
1.000000 0.749020 0.000000
0.000000 0.874510 0.000000
0.231373 0.874510 0.000000
0.447059 0.874510 0.000000
0.635294 0.874510 0.000000
0.780392 0.874510 0.000000
0.874510 0.874510 0.000000
0.937255 0.874510 0.000000
0.976471 0.874510 0.000000
1.000000 0.874510 0.000000
0.000000 1.000000 0.000000
0.231373 1.000000 0.000000
0.447059 1.000000 0.000000
0.635294 1.000000 0.000000
0.780392 1.000000 0.000000
0.874510 1.000000 0.000000
0.937255 1.000000 0.000000
0.976471 1.000000 0.000000
1.000000 1.000000 0.000000
0.000000 0.000000 0.125490
0.231373 0.000000 0.125490
0.447059 0.000000 0.125490
0.635294 0.000000 0.125490
0.780392 0.000000 0.125490
0.874510 0.000000 0.125490
0.937255 0.000000 0.125490
0.976471 0.000000 0.125490
1.000000 0.000000 0.125490
0.000000 0.125490 0.125490
0.231373 0.125490 0.125490
0.447059 0.125490 0.125490
0.635294 0.125490 0.125490
0.780392 0.125490 0.125490
0.874510 0.125490 0.125490
0.937255 0.125490 0.125490
0.976471 0.125490 0.125490
1.000000 0.125490 0.125490
0.000000 0.250980 0.125490
0.231373 0.250980 0.125490
0.447059 0.250980 0.125490
0.635294 0.250980 0.125490
0.780392 0.250980 0.125490
0.874510 0.250980 0.125490
0.937255 0.250980 0.125490
0.976471 0.250980 0.125490
1.000000 0.250980 0.125490
0.000000 0.376471 0.125490
0.231373 0.376471 0.125490
0.447059 0.376471 0.125490
0.635294 0.376471 0.125490
0.780392 0.376471 0.125490
0.874510 0.376471 0.125490
0.937255 0.376471 0.125490
0.976471 0.376471 0.125490
1.000000 0.376471 0.125490
0.000000 0.501961 0.125490
0.231373 0.501961 0.125490
0.447059 0.501961 0.125490
0.635294 0.501961 0.125490
0.780392 0.501961 0.125490
0.874510 0.501961 0.125490
0.937255 0.501961 0.125490
0.976471 0.501961 0.125490
1.000000 0.501961 0.125490
0.000000 0.623529 0.125490
0.231373 0.623529 0.125490
0.447059 0.623529 0.125490
0.635294 0.623529 0.125490
0.780392 0.623529 0.125490
0.874510 0.623529 0.125490
0.937255 0.623529 0.125490
0.976471 0.623529 0.125490
1.000000 0.623529 0.125490
0.000000 0.749020 0.125490
0.231373 0.749020 0.125490
0.447059 0.749020 0.125490
0.635294 0.749020 0.125490
0.780392 0.749020 0.125490
0.874510 0.749020 0.125490
0.937255 0.749020 0.125490
0.976471 0.749020 0.125490
1.000000 0.749020 0.125490
0.000000 0.874510 0.125490
0.231373 0.874510 0.125490
0.447059 0.874510 0.125490
0.635294 0.874510 0.125490
0.780392 0.874510 0.125490
0.874510 0.874510 0.125490
0.937255 0.874510 0.125490
0.976471 0.874510 0.125490
1.000000 0.874510 0.125490
0.000000 1.000000 0.125490
0.231373 1.000000 0.125490
0.447059 1.000000 0.125490
0.635294 1.000000 0.125490
0.780392 1.000000 0.125490
0.874510 1.000000 0.125490
0.937255 1.000000 0.125490
0.976471 1.000000 0.125490
1.000000 1.000000 0.125490
0.000000 0.000000 0.250980
0.231373 0.000000 0.250980
0.447059 0.000000 0.250980
0.635294 0.000000 0.250980
0.780392 0.000000 0.250980
0.874510 0.000000 0.250980
0.937255 0.000000 0.250980
0.976471 0.000000 0.250980
1.000000 0.000000 0.250980
0.000000 0.125490 0.250980
0.231373 0.125490 0.250980
0.447059 0.125490 0.250980
0.635294 0.125490 0.250980
0.780392 0.125490 0.250980
0.874510 0.125490 0.250980
0.937255 0.125490 0.250980
0.976471 0.125490 0.250980
1.000000 0.125490 0.250980
0.000000 0.250980 0.250980
0.231373 0.250980 0.250980
0.447059 0.250980 0.250980
0.635294 0.250980 0.250980
0.780392 0.250980 0.250980
0.874510 0.250980 0.250980
0.937255 0.250980 0.250980
0.976471 0.250980 0.250980
1.000000 0.250980 0.250980
0.000000 0.376471 0.250980
0.231373 0.376471 0.250980
0.447059 0.376471 0.250980
0.635294 0.376471 0.250980
0.780392 0.376471 0.250980
0.874510 0.376471 0.250980
0.937255 0.376471 0.250980
0.976471 0.376471 0.250980
1.000000 0.376471 0.250980
0.000000 0.501961 0.250980
0.231373 0.501961 0.250980
0.447059 0.501961 0.250980
0.635294 0.501961 0.250980
0.780392 0.501961 0.250980
0.874510 0.501961 0.250980
0.937255 0.501961 0.250980
0.976471 0.501961 0.250980
1.000000 0.501961 0.250980
0.000000 0.623529 0.250980
0.231373 0.623529 0.250980
0.447059 0.623529 0.250980
0.635294 0.623529 0.250980
0.780392 0.623529 0.250980
0.874510 0.623529 0.250980
0.937255 0.623529 0.250980
0.976471 0.623529 0.250980
1.000000 0.623529 0.250980
0.000000 0.749020 0.250980
0.231373 0.749020 0.250980
0.447059 0.749020 0.250980
0.635294 0.749020 0.250980
0.780392 0.749020 0.250980
0.874510 0.749020 0.250980
0.937255 0.749020 0.250980
0.976471 0.749020 0.250980
1.000000 0.749020 0.250980
0.000000 0.874510 0.250980
0.231373 0.874510 0.250980
0.447059 0.874510 0.250980
0.635294 0.874510 0.250980
0.780392 0.874510 0.250980
0.874510 0.874510 0.250980
0.937255 0.874510 0.250980
0.976471 0.874510 0.250980
1.000000 0.874510 0.250980
0.000000 1.000000 0.250980
0.231373 1.000000 0.250980
0.447059 1.000000 0.250980
0.635294 1.000000 0.250980
0.780392 1.000000 0.250980
0.874510 1.000000 0.250980
0.937255 1.000000 0.250980
0.976471 1.000000 0.250980
1.000000 1.000000 0.250980
0.000000 0.000000 0.376471
0.231373 0.000000 0.376471
0.447059 0.000000 0.376471
0.635294 0.000000 0.376471
0.780392 0.000000 0.376471
0.874510 0.000000 0.376471
0.937255 0.000000 0.376471
0.976471 0.000000 0.376471
1.000000 0.000000 0.376471
0.000000 0.125490 0.376471
0.231373 0.125490 0.376471
0.447059 0.125490 0.376471
0.635294 0.125490 0.376471
0.780392 0.125490 0.376471
0.874510 0.125490 0.376471
0.937255 0.125490 0.376471
0.976471 0.125490 0.376471
1.000000 0.125490 0.376471
0.000000 0.250980 0.376471
0.231373 0.250980 0.376471
0.447059 0.250980 0.376471
0.635294 0.250980 0.376471
0.780392 0.250980 0.376471
0.874510 0.250980 0.376471
0.937255 0.250980 0.376471
0.976471 0.250980 0.376471
1.000000 0.250980 0.376471
0.000000 0.376471 0.376471
0.231373 0.376471 0.376471
0.447059 0.376471 0.376471
0.635294 0.376471 0.376471
0.780392 0.376471 0.376471
0.874510 0.376471 0.376471
0.937255 0.376471 0.376471
0.976471 0.376471 0.376471
1.000000 0.376471 0.376471
0.000000 0.501961 0.376471
0.231373 0.501961 0.376471
0.447059 0.501961 0.376471
0.635294 0.501961 0.376471
0.780392 0.501961 0.376471
0.874510 0.501961 0.376471
0.937255 0.501961 0.376471
0.976471 0.501961 0.376471
1.000000 0.501961 0.376471
0.000000 0.623529 0.376471
0.231373 0.623529 0.376471
0.447059 0.623529 0.376471
0.635294 0.623529 0.376471
0.780392 0.623529 0.376471
0.874510 0.623529 0.376471
0.937255 0.623529 0.376471
0.976471 0.623529 0.376471
1.000000 0.623529 0.376471
0.000000 0.749020 0.376471
0.231373 0.749020 0.376471
0.447059 0.749020 0.376471
0.635294 0.749020 0.376471
0.780392 0.749020 0.376471
0.874510 0.749020 0.376471
0.937255 0.749020 0.376471
0.976471 0.749020 0.376471
1.000000 0.749020 0.376471
0.000000 0.874510 0.376471
0.231373 0.874510 0.376471
0.447059 0.874510 0.376471
0.635294 0.874510 0.376471
0.780392 0.874510 0.376471
0.874510 0.874510 0.376471
0.937255 0.874510 0.376471
0.976471 0.874510 0.376471
1.000000 0.874510 0.376471
0.000000 1.000000 0.376471
0.231373 1.000000 0.376471
0.447059 1.000000 0.376471
0.635294 1.000000 0.376471
0.780392 1.000000 0.376471
0.874510 1.000000 0.376471
0.937255 1.000000 0.376471
0.976471 1.000000 0.376471
1.000000 1.000000 0.376471
0.000000 0.000000 0.501961
0.231373 0.000000 0.501961
0.447059 0.000000 0.501961
0.635294 0.000000 0.501961
0.780392 0.000000 0.501961
0.874510 0.000000 0.501961
0.937255 0.000000 0.501961
0.976471 0.000000 0.501961
1.000000 0.000000 0.501961
0.000000 0.125490 0.501961
0.231373 0.125490 0.501961
0.447059 0.125490 0.501961
0.635294 0.125490 0.501961
0.780392 0.125490 0.501961
0.874510 0.125490 0.501961
0.937255 0.125490 0.501961
0.976471 0.125490 0.501961
1.000000 0.125490 0.501961
0.000000 0.250980 0.501961
0.231373 0.250980 0.501961
0.447059 0.250980 0.501961
0.635294 0.250980 0.501961
0.780392 0.250980 0.501961
0.874510 0.250980 0.501961
0.937255 0.250980 0.501961
0.976471 0.250980 0.501961
1.000000 0.250980 0.501961
0.000000 0.376471 0.501961
0.231373 0.376471 0.501961
0.447059 0.376471 0.501961
0.635294 0.376471 0.501961
0.780392 0.376471 0.501961
0.874510 0.376471 0.501961
0.937255 0.376471 0.501961
0.976471 0.376471 0.501961
1.000000 0.376471 0.501961
0.000000 0.501961 0.501961
0.231373 0.501961 0.501961
0.447059 0.501961 0.501961
0.635294 0.501961 0.501961
0.780392 0.501961 0.501961
0.874510 0.501961 0.501961
0.937255 0.501961 0.501961
0.976471 0.501961 0.501961
1.000000 0.501961 0.501961
0.000000 0.623529 0.501961
0.231373 0.623529 0.501961
0.447059 0.623529 0.501961
0.635294 0.623529 0.501961
0.780392 0.623529 0.501961
0.874510 0.623529 0.501961
0.937255 0.623529 0.501961
0.976471 0.623529 0.501961
1.000000 0.623529 0.501961
0.000000 0.749020 0.501961
0.231373 0.749020 0.501961
0.447059 0.749020 0.501961
0.635294 0.749020 0.501961
0.780392 0.749020 0.501961
0.874510 0.749020 0.501961
0.937255 0.749020 0.501961
0.976471 0.749020 0.501961
1.000000 0.749020 0.501961
0.000000 0.874510 0.501961
0.231373 0.874510 0.501961
0.447059 0.874510 0.501961
0.635294 0.874510 0.501961
0.780392 0.874510 0.501961
0.874510 0.874510 0.501961
0.937255 0.874510 0.501961
0.976471 0.874510 0.501961
1.000000 0.874510 0.501961
0.000000 1.000000 0.501961
0.231373 1.000000 0.501961
0.447059 1.000000 0.501961
0.635294 1.000000 0.501961
0.780392 1.000000 0.501961
0.874510 1.000000 0.501961
0.937255 1.000000 0.501961
0.976471 1.000000 0.501961
1.000000 1.000000 0.501961
0.000000 0.000000 0.623529
0.231373 0.000000 0.623529
0.447059 0.000000 0.623529
0.635294 0.000000 0.623529
0.780392 0.000000 0.623529
0.874510 0.000000 0.623529
0.937255 0.000000 0.623529
0.976471 0.000000 0.623529
1.000000 0.000000 0.623529
0.000000 0.125490 0.623529
0.231373 0.125490 0.623529
0.447059 0.125490 0.623529
0.635294 0.125490 0.623529
0.780392 0.125490 0.623529
0.874510 0.125490 0.623529
0.937255 0.125490 0.623529
0.976471 0.125490 0.623529
1.000000 0.125490 0.623529
0.000000 0.250980 0.623529
0.231373 0.250980 0.623529
0.447059 0.250980 0.623529
0.635294 0.250980 0.623529
0.780392 0.250980 0.623529
0.874510 0.250980 0.623529
0.937255 0.250980 0.623529
0.976471 0.250980 0.623529
1.000000 0.250980 0.623529
0.000000 0.376471 0.623529
0.231373 0.376471 0.623529
0.447059 0.376471 0.623529
0.635294 0.376471 0.623529
0.780392 0.376471 0.623529
0.874510 0.376471 0.623529
0.937255 0.376471 0.623529
0.976471 0.376471 0.623529
1.000000 0.376471 0.623529
0.000000 0.501961 0.623529
0.231373 0.501961 0.623529
0.447059 0.501961 0.623529
0.635294 0.501961 0.623529
0.780392 0.501961 0.623529
0.874510 0.501961 0.623529
0.937255 0.501961 0.623529
0.976471 0.501961 0.623529
1.000000 0.501961 0.623529
0.000000 0.623529 0.623529
0.231373 0.623529 0.623529
0.447059 0.623529 0.623529
0.635294 0.623529 0.623529
0.780392 0.623529 0.623529
0.874510 0.623529 0.623529
0.937255 0.623529 0.623529
0.976471 0.623529 0.623529
1.000000 0.623529 0.623529
0.000000 0.749020 0.623529
0.231373 0.749020 0.623529
0.447059 0.749020 0.623529
0.635294 0.749020 0.623529
0.780392 0.749020 0.623529
0.874510 0.749020 0.623529
0.937255 0.749020 0.623529
0.976471 0.749020 0.623529
1.000000 0.749020 0.623529
0.000000 0.874510 0.623529
0.231373 0.874510 0.623529
0.447059 0.874510 0.623529
0.635294 0.874510 0.623529
0.780392 0.874510 0.623529
0.874510 0.874510 0.623529
0.937255 0.874510 0.623529
0.976471 0.874510 0.623529
1.000000 0.874510 0.623529
0.000000 1.000000 0.623529
0.231373 1.000000 0.623529
0.447059 1.000000 0.623529
0.635294 1.000000 0.623529
0.780392 1.000000 0.623529
0.874510 1.000000 0.623529
0.937255 1.000000 0.623529
0.976471 1.000000 0.623529
1.000000 1.000000 0.623529
0.000000 0.000000 0.749020
0.231373 0.000000 0.749020
0.447059 0.000000 0.749020
0.635294 0.000000 0.749020
0.780392 0.000000 0.749020
0.874510 0.000000 0.749020
0.937255 0.000000 0.749020
0.976471 0.000000 0.749020
1.000000 0.000000 0.749020
0.000000 0.125490 0.749020
0.231373 0.125490 0.749020
0.447059 0.125490 0.749020
0.635294 0.125490 0.749020
0.780392 0.125490 0.749020
0.874510 0.125490 0.749020
0.937255 0.125490 0.749020
0.976471 0.125490 0.749020
1.000000 0.125490 0.749020
0.000000 0.250980 0.749020
0.231373 0.250980 0.749020
0.447059 0.250980 0.749020
0.635294 0.250980 0.749020
0.780392 0.250980 0.749020
0.874510 0.250980 0.749020
0.937255 0.250980 0.749020
0.976471 0.250980 0.749020
1.000000 0.250980 0.749020
0.000000 0.376471 0.749020
0.231373 0.376471 0.749020
0.447059 0.376471 0.749020
0.635294 0.376471 0.749020
0.780392 0.376471 0.749020
0.874510 0.376471 0.749020
0.937255 0.376471 0.749020
0.976471 0.376471 0.749020
1.000000 0.376471 0.749020
0.000000 0.501961 0.749020
0.231373 0.501961 0.749020
0.447059 0.501961 0.749020
0.635294 0.501961 0.749020
0.780392 0.501961 0.749020
0.874510 0.501961 0.749020
0.937255 0.501961 0.749020
0.976471 0.501961 0.749020
1.000000 0.501961 0.749020
0.000000 0.623529 0.749020
0.231373 0.623529 0.749020
0.447059 0.623529 0.749020
0.635294 0.623529 0.749020
0.780392 0.623529 0.749020
0.874510 0.623529 0.749020
0.937255 0.623529 0.749020
0.976471 0.623529 0.749020
1.000000 0.623529 0.749020
0.000000 0.749020 0.749020
0.231373 0.749020 0.749020
0.447059 0.749020 0.749020
0.635294 0.749020 0.749020
0.780392 0.749020 0.749020
0.874510 0.749020 0.749020
0.937255 0.749020 0.749020
0.976471 0.749020 0.749020
1.000000 0.749020 0.749020
0.000000 0.874510 0.749020
0.231373 0.874510 0.749020
0.447059 0.874510 0.749020
0.635294 0.874510 0.749020
0.780392 0.874510 0.749020
0.874510 0.874510 0.749020
0.937255 0.874510 0.749020
0.976471 0.874510 0.749020
1.000000 0.874510 0.749020
0.000000 1.000000 0.749020
0.231373 1.000000 0.749020
0.447059 1.000000 0.749020
0.635294 1.000000 0.749020
0.780392 1.000000 0.749020
0.874510 1.000000 0.749020
0.937255 1.000000 0.749020
0.976471 1.000000 0.749020
1.000000 1.000000 0.749020
0.000000 0.000000 0.874510
0.231373 0.000000 0.874510
0.447059 0.000000 0.874510
0.635294 0.000000 0.874510
0.780392 0.000000 0.874510
0.874510 0.000000 0.874510
0.937255 0.000000 0.874510
0.976471 0.000000 0.874510
1.000000 0.000000 0.874510
0.000000 0.125490 0.874510
0.231373 0.125490 0.874510
0.447059 0.125490 0.874510
0.635294 0.125490 0.874510
0.780392 0.125490 0.874510
0.874510 0.125490 0.874510
0.937255 0.125490 0.874510
0.976471 0.125490 0.874510
1.000000 0.125490 0.874510
0.000000 0.250980 0.874510
0.231373 0.250980 0.874510
0.447059 0.250980 0.874510
0.635294 0.250980 0.874510
0.780392 0.250980 0.874510
0.874510 0.250980 0.874510
0.937255 0.250980 0.874510
0.976471 0.250980 0.874510
1.000000 0.250980 0.874510
0.000000 0.376471 0.874510
0.231373 0.376471 0.874510
0.447059 0.376471 0.874510
0.635294 0.376471 0.874510
0.780392 0.376471 0.874510
0.874510 0.376471 0.874510
0.937255 0.376471 0.874510
0.976471 0.376471 0.874510
1.000000 0.376471 0.874510
0.000000 0.501961 0.874510
0.231373 0.501961 0.874510
0.447059 0.501961 0.874510
0.635294 0.501961 0.874510
0.780392 0.501961 0.874510
0.874510 0.501961 0.874510
0.937255 0.501961 0.874510
0.976471 0.501961 0.874510
1.000000 0.501961 0.874510
0.000000 0.623529 0.874510
0.231373 0.623529 0.874510
0.447059 0.623529 0.874510
0.635294 0.623529 0.874510
0.780392 0.623529 0.874510
0.874510 0.623529 0.874510
0.937255 0.623529 0.874510
0.976471 0.623529 0.874510
1.000000 0.623529 0.874510
0.000000 0.749020 0.874510
0.231373 0.749020 0.874510
0.447059 0.749020 0.874510
0.635294 0.749020 0.874510
0.780392 0.749020 0.874510
0.874510 0.749020 0.874510
0.937255 0.749020 0.874510
0.976471 0.749020 0.874510
1.000000 0.749020 0.874510
0.000000 0.874510 0.874510
0.231373 0.874510 0.874510
0.447059 0.874510 0.874510
0.635294 0.874510 0.874510
0.780392 0.874510 0.874510
0.874510 0.874510 0.874510
0.937255 0.874510 0.874510
0.976471 0.874510 0.874510
1.000000 0.874510 0.874510
0.000000 1.000000 0.874510
0.231373 1.000000 0.874510
0.447059 1.000000 0.874510
0.635294 1.000000 0.874510
0.780392 1.000000 0.874510
0.874510 1.000000 0.874510
0.937255 1.000000 0.874510
0.976471 1.000000 0.874510
1.000000 1.000000 0.874510
0.000000 0.000000 1.000000
0.231373 0.000000 1.000000
0.447059 0.000000 1.000000
0.635294 0.000000 1.000000
0.780392 0.000000 1.000000
0.874510 0.000000 1.000000
0.937255 0.000000 1.000000
0.976471 0.000000 1.000000
1.000000 0.000000 1.000000
0.000000 0.125490 1.000000
0.231373 0.125490 1.000000
0.447059 0.125490 1.000000
0.635294 0.125490 1.000000
0.780392 0.125490 1.000000
0.874510 0.125490 1.000000
0.937255 0.125490 1.000000
0.976471 0.125490 1.000000
1.000000 0.125490 1.000000
0.000000 0.250980 1.000000
0.231373 0.250980 1.000000
0.447059 0.250980 1.000000
0.635294 0.250980 1.000000
0.780392 0.250980 1.000000
0.874510 0.250980 1.000000
0.937255 0.250980 1.000000
0.976471 0.250980 1.000000
1.000000 0.250980 1.000000
0.000000 0.376471 1.000000
0.231373 0.376471 1.000000
0.447059 0.376471 1.000000
0.635294 0.376471 1.000000
0.780392 0.376471 1.000000
0.874510 0.376471 1.000000
0.937255 0.376471 1.000000
0.976471 0.376471 1.000000
1.000000 0.376471 1.000000
0.000000 0.501961 1.000000
0.231373 0.501961 1.000000
0.447059 0.501961 1.000000
0.635294 0.501961 1.000000
0.780392 0.501961 1.000000
0.874510 0.501961 1.000000
0.937255 0.501961 1.000000
0.976471 0.501961 1.000000
1.000000 0.501961 1.000000
0.000000 0.623529 1.000000
0.231373 0.623529 1.000000
0.447059 0.623529 1.000000
0.635294 0.623529 1.000000
0.780392 0.623529 1.000000
0.874510 0.623529 1.000000
0.937255 0.623529 1.000000
0.976471 0.623529 1.000000
1.000000 0.623529 1.000000
0.000000 0.749020 1.000000
0.231373 0.749020 1.000000
0.447059 0.749020 1.000000
0.635294 0.749020 1.000000
0.780392 0.749020 1.000000
0.874510 0.749020 1.000000
0.937255 0.749020 1.000000
0.976471 0.749020 1.000000
1.000000 0.749020 1.000000
0.000000 0.874510 1.000000
0.231373 0.874510 1.000000
0.447059 0.874510 1.000000
0.635294 0.874510 1.000000
0.780392 0.874510 1.000000
0.874510 0.874510 1.000000
0.937255 0.874510 1.000000
0.976471 0.874510 1.000000
1.000000 0.874510 1.000000
0.000000 1.000000 1.000000
0.231373 1.000000 1.000000
0.447059 1.000000 1.000000
0.635294 1.000000 1.000000
0.780392 1.000000 1.000000
0.874510 1.000000 1.000000
0.937255 1.000000 1.000000
0.976471 1.000000 1.000000
1.000000 1.000000 1.000000
