LUTs/Damaging/LUT_RED/red_midtones.cube
#Generated by lutCreator.js
#Coded by SirSerch
#https://github.com/SirSerch/LutCreatorJs
TITLE lutCreatorJs_25
LUT_3D_SIZE 25
0.000000 0.000000 0.000000
0.078431 0.000000 0.000000
0.152941 0.000000 0.000000
0.231373 0.000000 0.000000
0.305882 0.000000 0.000000
0.376471 0.000000 0.000000
0.447059 0.000000 0.000000
0.509804 0.000000 0.000000
0.572549 0.000000 0.000000
0.635294 0.000000 0.000000
0.686275 0.000000 0.000000
0.733333 0.000000 0.000000
0.780392 0.000000 0.000000
0.815686 0.000000 0.000000
0.847059 0.000000 0.000000
0.874510 0.000000 0.000000
0.898039 0.000000 0.000000
0.921569 0.000000 0.000000
0.937255 0.000000 0.000000
0.952941 0.000000 0.000000
0.964706 0.000000 0.000000
0.976471 0.000000 0.000000
0.984314 0.000000 0.000000
0.992157 0.000000 0.000000
1.000000 0.000000 0.000000
0.000000 0.043137 0.000000
0.078431 0.043137 0.000000
0.152941 0.043137 0.000000
0.231373 0.043137 0.000000
0.305882 0.043137 0.000000
0.376471 0.043137 0.000000
0.447059 0.043137 0.000000
0.509804 0.043137 0.000000
0.572549 0.043137 0.000000
0.635294 0.043137 0.000000
0.686275 0.043137 0.000000
0.733333 0.043137 0.000000
0.780392 0.043137 0.000000
0.815686 0.043137 0.000000
0.847059 0.043137 0.000000
0.874510 0.043137 0.000000
0.898039 0.043137 0.000000
0.921569 0.043137 0.000000
0.937255 0.043137 0.000000
0.952941 0.043137 0.000000
0.964706 0.043137 0.000000
0.976471 0.043137 0.000000
0.984314 0.043137 0.000000
0.992157 0.043137 0.000000
1.000000 0.043137 0.000000
0.000000 0.082353 0.000000
0.078431 0.082353 0.000000
0.152941 0.082353 0.000000
0.231373 0.082353 0.000000
0.305882 0.082353 0.000000
0.376471 0.082353 0.000000
0.447059 0.082353 0.000000
0.509804 0.082353 0.000000
0.572549 0.082353 0.000000
0.635294 0.082353 0.000000
0.686275 0.082353 0.000000
0.733333 0.082353 0.000000
0.780392 0.082353 0.000000
0.815686 0.082353 0.000000
0.847059 0.082353 0.000000
0.874510 0.082353 0.000000
0.898039 0.082353 0.000000
0.921569 0.082353 0.000000
0.937255 0.082353 0.000000
0.952941 0.082353 0.000000
0.964706 0.082353 0.000000
0.976471 0.082353 0.000000
0.984314 0.082353 0.000000
0.992157 0.082353 0.000000
1.000000 0.082353 0.000000
0.000000 0.125490 0.000000
0.078431 0.125490 0.000000
0.152941 0.125490 0.000000
0.231373 0.125490 0.000000
0.305882 0.125490 0.000000
0.376471 0.125490 0.000000
0.447059 0.125490 0.000000
0.509804 0.125490 0.000000
0.572549 0.125490 0.000000
0.635294 0.125490 0.000000
0.686275 0.125490 0.000000
0.733333 0.125490 0.000000
0.780392 0.125490 0.000000
0.815686 0.125490 0.000000
0.847059 0.125490 0.000000
0.874510 0.125490 0.000000
0.898039 0.125490 0.000000
0.921569 0.125490 0.000000
0.937255 0.125490 0.000000
0.952941 0.125490 0.000000
0.964706 0.125490 0.000000
0.976471 0.125490 0.000000
0.984314 0.125490 0.000000
0.992157 0.125490 0.000000
1.000000 0.125490 0.000000
0.000000 0.168627 0.000000
0.078431 0.168627 0.000000
0.152941 0.168627 0.000000
0.231373 0.168627 0.000000
0.305882 0.168627 0.000000
0.376471 0.168627 0.000000
0.447059 0.168627 0.000000
0.509804 0.168627 0.000000
0.572549 0.168627 0.000000
0.635294 0.168627 0.000000
0.686275 0.168627 0.000000
0.733333 0.168627 0.000000
0.780392 0.168627 0.000000
0.815686 0.168627 0.000000
0.847059 0.168627 0.000000
0.874510 0.168627 0.000000
0.898039 0.168627 0.000000
0.921569 0.168627 0.000000
0.937255 0.168627 0.000000
0.952941 0.168627 0.000000
0.964706 0.168627 0.000000
0.976471 0.168627 0.000000
0.984314 0.168627 0.000000
0.992157 0.168627 0.000000
1.000000 0.168627 0.000000
0.000000 0.207843 0.000000
0.078431 0.207843 0.000000
0.152941 0.207843 0.000000
0.231373 0.207843 0.000000
0.305882 0.207843 0.000000
0.376471 0.207843 0.000000
0.447059 0.207843 0.000000
0.509804 0.207843 0.000000
0.572549 0.207843 0.000000
0.635294 0.207843 0.000000
0.686275 0.207843 0.000000
0.733333 0.207843 0.000000
0.780392 0.207843 0.000000
0.815686 0.207843 0.000000
0.847059 0.207843 0.000000
0.874510 0.207843 0.000000
0.898039 0.207843 0.000000
0.921569 0.207843 0.000000
0.937255 0.207843 0.000000
0.952941 0.207843 0.000000
0.964706 0.207843 0.000000
0.976471 0.207843 0.000000
0.984314 0.207843 0.000000
0.992157 0.207843 0.000000
1.000000 0.207843 0.000000
0.000000 0.250980 0.000000
0.078431 0.250980 0.000000
0.152941 0.250980 0.000000
0.231373 0.250980 0.000000
0.305882 0.250980 0.000000
0.376471 0.250980 0.000000
0.447059 0.250980 0.000000
0.509804 0.250980 0.000000
0.572549 0.250980 0.000000
0.635294 0.250980 0.000000
0.686275 0.250980 0.000000
0.733333 0.250980 0.000000
0.780392 0.250980 0.000000
0.815686 0.250980 0.000000
0.847059 0.250980 0.000000
0.874510 0.250980 0.000000
0.898039 0.250980 0.000000
0.921569 0.250980 0.000000
0.937255 0.250980 0.000000
0.952941 0.250980 0.000000
0.964706 0.250980 0.000000
0.976471 0.250980 0.000000
0.984314 0.250980 0.000000
0.992157 0.250980 0.000000
1.000000 0.250980 0.000000
0.000000 0.290196 0.000000
0.078431 0.290196 0.000000
0.152941 0.290196 0.000000
0.231373 0.290196 0.000000
0.305882 0.290196 0.000000
0.376471 0.290196 0.000000
0.447059 0.290196 0.000000
0.509804 0.290196 0.000000
0.572549 0.290196 0.000000
0.635294 0.290196 0.000000
0.686275 0.290196 0.000000
0.733333 0.290196 0.000000
0.780392 0.290196 0.000000
0.815686 0.290196 0.000000
0.847059 0.290196 0.000000
0.874510 0.290196 0.000000
0.898039 0.290196 0.000000
0.921569 0.290196 0.000000
0.937255 0.290196 0.000000
0.952941 0.290196 0.000000
0.964706 0.290196 0.000000
0.976471 0.290196 0.000000
0.984314 0.290196 0.000000
0.992157 0.290196 0.000000
1.000000 0.290196 0.000000
0.000000 0.333333 0.000000
0.078431 0.333333 0.000000
0.152941 0.333333 0.000000
0.231373 0.333333 0.000000
0.305882 0.333333 0.000000
0.376471 0.333333 0.000000
0.447059 0.333333 0.000000
0.509804 0.333333 0.000000
0.572549 0.333333 0.000000
0.635294 0.333333 0.000000
0.686275 0.333333 0.000000
0.733333 0.333333 0.000000
0.780392 0.333333 0.000000
0.815686 0.333333 0.000000
0.847059 0.333333 0.000000
0.874510 0.333333 0.000000
0.898039 0.333333 0.000000
0.921569 0.333333 0.000000
0.937255 0.333333 0.000000
0.952941 0.333333 0.000000
0.964706 0.333333 0.000000
0.976471 0.333333 0.000000
0.984314 0.333333 0.000000
0.992157 0.333333 0.000000
1.000000 0.333333 0.000000
0.000000 0.376471 0.000000
0.078431 0.376471 0.000000
0.152941 0.376471 0.000000
0.231373 0.376471 0.000000
0.305882 0.376471 0.000000
0.376471 0.376471 0.000000
0.447059 0.376471 0.000000
0.509804 0.376471 0.000000
0.572549 0.376471 0.000000
0.635294 0.376471 0.000000
0.686275 0.376471 0.000000
0.733333 0.376471 0.000000
0.780392 0.376471 0.000000
0.815686 0.376471 0.000000
0.847059 0.376471 0.000000
0.874510 0.376471 0.000000
0.898039 0.376471 0.000000
0.921569 0.376471 0.000000
0.937255 0.376471 0.000000
0.952941 0.376471 0.000000
0.964706 0.376471 0.000000
0.976471 0.376471 0.000000
0.984314 0.376471 0.000000
0.992157 0.376471 0.000000
1.000000 0.376471 0.000000
0.000000 0.415686 0.000000
0.078431 0.415686 0.000000
0.152941 0.415686 0.000000
0.231373 0.415686 0.000000
0.305882 0.415686 0.000000
0.376471 0.415686 0.000000
0.447059 0.415686 0.000000
0.509804 0.415686 0.000000
0.572549 0.415686 0.000000
0.635294 0.415686 0.000000
0.686275 0.415686 0.000000
0.733333 0.415686 0.000000
0.780392 0.415686 0.000000
0.815686 0.415686 0.000000
0.847059 0.415686 0.000000
0.874510 0.415686 0.000000
0.898039 0.415686 0.000000
0.921569 0.415686 0.000000
0.937255 0.415686 0.000000
0.952941 0.415686 0.000000
0.964706 0.415686 0.000000
0.976471 0.415686 0.000000
0.984314 0.415686 0.000000
0.992157 0.415686 0.000000
1.000000 0.415686 0.000000
0.000000 0.458824 0.000000
0.078431 0.458824 0.000000
0.152941 0.458824 0.000000
0.231373 0.458824 0.000000
0.305882 0.458824 0.000000
0.376471 0.458824 0.000000
0.447059 0.458824 0.000000
0.509804 0.458824 0.000000
0.572549 0.458824 0.000000
0.635294 0.458824 0.000000
0.686275 0.458824 0.000000
0.733333 0.458824 0.000000
0.780392 0.458824 0.000000
0.815686 0.458824 0.000000
0.847059 0.458824 0.000000
0.874510 0.458824 0.000000
0.898039 0.458824 0.000000
0.921569 0.458824 0.000000
0.937255 0.458824 0.000000
0.952941 0.458824 0.000000
0.964706 0.458824 0.000000
0.976471 0.458824 0.000000
0.984314 0.458824 0.000000
0.992157 0.458824 0.000000
1.000000 0.458824 0.000000
0.000000 0.501961 0.000000
0.078431 0.501961 0.000000
0.152941 0.501961 0.000000
0.231373 0.501961 0.000000
0.305882 0.501961 0.000000
0.376471 0.501961 0.000000
0.447059 0.501961 0.000000
0.509804 0.501961 0.000000
0.572549 0.501961 0.000000
0.635294 0.501961 0.000000
0.686275 0.501961 0.000000
0.733333 0.501961 0.000000
0.780392 0.501961 0.000000
0.815686 0.501961 0.000000
0.847059 0.501961 0.000000
0.874510 0.501961 0.000000
0.898039 0.501961 0.000000
0.921569 0.501961 0.000000
0.937255 0.501961 0.000000
0.952941 0.501961 0.000000
0.964706 0.501961 0.000000
0.976471 0.501961 0.000000
0.984314 0.501961 0.000000
0.992157 0.501961 0.000000
1.000000 0.501961 0.000000
0.000000 0.541176 0.000000
0.078431 0.541176 0.000000
0.152941 0.541176 0.000000
0.231373 0.541176 0.000000
0.305882 0.541176 0.000000
0.376471 0.541176 0.000000
0.447059 0.541176 0.000000
0.509804 0.541176 0.000000
0.572549 0.541176 0.000000
0.635294 0.541176 0.000000
0.686275 0.541176 0.000000
0.733333 0.541176 0.000000
0.780392 0.541176 0.000000
0.815686 0.541176 0.000000
0.847059 0.541176 0.000000
0.874510 0.541176 0.000000
0.898039 0.541176 0.000000
0.921569 0.541176 0.000000
0.937255 0.541176 0.000000
0.952941 0.541176 0.000000
0.964706 0.541176 0.000000
0.976471 0.541176 0.000000
0.984314 0.541176 0.000000
0.992157 0.541176 0.000000
1.000000 0.541176 0.000000
0.000000 0.584314 0.000000
0.078431 0.584314 0.000000
0.152941 0.584314 0.000000
0.231373 0.584314 0.000000
0.305882 0.584314 0.000000
0.376471 0.584314 0.000000
0.447059 0.584314 0.000000
0.509804 0.584314 0.000000
0.572549 0.584314 0.000000
0.635294 0.584314 0.000000
0.686275 0.584314 0.000000
0.733333 0.584314 0.000000
0.780392 0.584314 0.000000
0.815686 0.584314 0.000000
0.847059 0.584314 0.000000
0.874510 0.584314 0.000000
0.898039 0.584314 0.000000
0.921569 0.584314 0.000000
0.937255 0.584314 0.000000
0.952941 0.584314 0.000000
0.964706 0.584314 0.000000
0.976471 0.584314 0.000000
0.984314 0.584314 0.000000
0.992157 0.584314 0.000000
1.000000 0.584314 0.000000
0.000000 0.623529 0.000000
0.078431 0.623529 0.000000
0.152941 0.623529 0.000000
0.231373 0.623529 0.000000
0.305882 0.623529 0.000000
0.376471 0.623529 0.000000
0.447059 0.623529 0.000000
0.509804 0.623529 0.000000
0.572549 0.623529 0.000000
0.635294 0.623529 0.000000
0.686275 0.623529 0.000000
0.733333 0.623529 0.000000
0.780392 0.623529 0.000000
0.815686 0.623529 0.000000
0.847059 0.623529 0.000000
0.874510 0.623529 0.000000
0.898039 0.623529 0.000000
0.921569 0.623529 0.000000
0.937255 0.623529 0.000000
0.952941 0.623529 0.000000
0.964706 0.623529 0.000000
0.976471 0.623529 0.000000
0.984314 0.623529 0.000000
0.992157 0.623529 0.000000
1.000000 0.623529 0.000000
0.000000 0.666667 0.000000
0.078431 0.666667 0.000000
0.152941 0.666667 0.000000
0.231373 0.666667 0.000000
0.305882 0.666667 0.000000
0.376471 0.666667 0.000000
0.447059 0.666667 0.000000
0.509804 0.666667 0.000000
0.572549 0.666667 0.000000
0.635294 0.666667 0.000000
0.686275 0.666667 0.000000
0.733333 0.666667 0.000000
0.780392 0.666667 0.000000
0.815686 0.666667 0.000000
0.847059 0.666667 0.000000
0.874510 0.666667 0.000000
0.898039 0.666667 0.000000
0.921569 0.666667 0.000000
0.937255 0.666667 0.000000
0.952941 0.666667 0.000000
0.964706 0.666667 0.000000
0.976471 0.666667 0.000000
0.984314 0.666667 0.000000
0.992157 0.666667 0.000000
1.000000 0.666667 0.000000
0.000000 0.709804 0.000000
0.078431 0.709804 0.000000
0.152941 0.709804 0.000000
0.231373 0.709804 0.000000
0.305882 0.709804 0.000000
0.376471 0.709804 0.000000
0.447059 0.709804 0.000000
0.509804 0.709804 0.000000
0.572549 0.709804 0.000000
0.635294 0.709804 0.000000
0.686275 0.709804 0.000000
0.733333 0.709804 0.000000
0.780392 0.709804 0.000000
0.815686 0.709804 0.000000
0.847059 0.709804 0.000000
0.874510 0.709804 0.000000
0.898039 0.709804 0.000000
0.921569 0.709804 0.000000
0.937255 0.709804 0.000000
0.952941 0.709804 0.000000
0.964706 0.709804 0.000000
0.976471 0.709804 0.000000
0.984314 0.709804 0.000000
0.992157 0.709804 0.000000
1.000000 0.709804 0.000000
0.000000 0.749020 0.000000
0.078431 0.749020 0.000000
0.152941 0.749020 0.000000
0.231373 0.749020 0.000000
0.305882 0.749020 0.000000
0.376471 0.749020 0.000000
0.447059 0.749020 0.000000
0.509804 0.749020 0.000000
0.572549 0.749020 0.000000
0.635294 0.749020 0.000000
0.686275 0.749020 0.000000
0.733333 0.749020 0.000000
0.780392 0.749020 0.000000
0.815686 0.749020 0.000000
0.847059 0.749020 0.000000
0.874510 0.749020 0.000000
0.898039 0.749020 0.000000
0.921569 0.749020 0.000000
0.937255 0.749020 0.000000
0.952941 0.749020 0.000000
0.964706 0.749020 0.000000
0.976471 0.749020 0.000000
0.984314 0.749020 0.000000
0.992157 0.749020 0.000000
1.000000 0.749020 0.000000
0.000000 0.792157 0.000000
0.078431 0.792157 0.000000
0.152941 0.792157 0.000000
0.231373 0.792157 0.000000
0.305882 0.792157 0.000000
0.376471 0.792157 0.000000
0.447059 0.792157 0.000000
0.509804 0.792157 0.000000
0.572549 0.792157 0.000000
0.635294 0.792157 0.000000
0.686275 0.792157 0.000000
0.733333 0.792157 0.000000
0.780392 0.792157 0.000000
0.815686 0.792157 0.000000
0.847059 0.792157 0.000000
0.874510 0.792157 0.000000
0.898039 0.792157 0.000000
0.921569 0.792157 0.000000
0.937255 0.792157 0.000000
0.952941 0.792157 0.000000
0.964706 0.792157 0.000000
0.976471 0.792157 0.000000
0.984314 0.792157 0.000000
0.992157 0.792157 0.000000
1.000000 0.792157 0.000000
0.000000 0.835294 0.000000
0.078431 0.835294 0.000000
0.152941 0.835294 0.000000
0.231373 0.835294 0.000000
0.305882 0.835294 0.000000
0.376471 0.835294 0.000000
0.447059 0.835294 0.000000
0.509804 0.835294 0.000000
0.572549 0.835294 0.000000
0.635294 0.835294 0.000000
0.686275 0.835294 0.000000
0.733333 0.835294 0.000000
0.780392 0.835294 0.000000
0.815686 0.835294 0.000000
0.847059 0.835294 0.000000
0.874510 0.835294 0.000000
0.898039 0.835294 0.000000
0.921569 0.835294 0.000000
0.937255 0.835294 0.000000
0.952941 0.835294 0.000000
0.964706 0.835294 0.000000
0.976471 0.835294 0.000000
0.984314 0.835294 0.000000
0.992157 0.835294 0.000000
1.000000 0.835294 0.000000
0.000000 0.874510 0.000000
0.078431 0.874510 0.000000
0.152941 0.874510 0.000000
0.231373 0.874510 0.000000
0.305882 0.874510 0.000000
0.376471 0.874510 0.000000
0.447059 0.874510 0.000000
0.509804 0.874510 0.000000
0.572549 0.874510 0.000000
0.635294 0.874510 0.000000
0.686275 0.874510 0.000000
0.733333 0.874510 0.000000
0.780392 0.874510 0.000000
0.815686 0.874510 0.000000
0.847059 0.874510 0.000000
0.874510 0.874510 0.000000
0.898039 0.874510 0.000000
0.921569 0.874510 0.000000
0.937255 0.874510 0.000000
0.952941 0.874510 0.000000
0.964706 0.874510 0.000000
0.976471 0.874510 0.000000
0.984314 0.874510 0.000000
0.992157 0.874510 0.000000
1.000000 0.874510 0.000000
0.000000 0.917647 0.000000
0.078431 0.917647 0.000000
0.152941 0.917647 0.000000
0.231373 0.917647 0.000000
0.305882 0.917647 0.000000
0.376471 0.917647 0.000000
0.447059 0.917647 0.000000
0.509804 0.917647 0.000000
0.572549 0.917647 0.000000
0.635294 0.917647 0.000000
0.686275 0.917647 0.000000
0.733333 0.917647 0.000000
0.780392 0.917647 0.000000
0.815686 0.917647 0.000000
0.847059 0.917647 0.000000
0.874510 0.917647 0.000000
0.898039 0.917647 0.000000
0.921569 0.917647 0.000000
0.937255 0.917647 0.000000
0.952941 0.917647 0.000000
0.964706 0.917647 0.000000
0.976471 0.917647 0.000000
0.984314 0.917647 0.000000
0.992157 0.917647 0.000000
1.000000 0.917647 0.000000
0.000000 0.956863 0.000000
0.078431 0.956863 0.000000
0.152941 0.956863 0.000000
0.231373 0.956863 0.000000
0.305882 0.956863 0.000000
0.376471 0.956863 0.000000
0.447059 0.956863 0.000000
0.509804 0.956863 0.000000
0.572549 0.956863 0.000000
0.635294 0.956863 0.000000
0.686275 0.956863 0.000000
0.733333 0.956863 0.000000
0.780392 0.956863 0.000000
0.815686 0.956863 0.000000
0.847059 0.956863 0.000000
0.874510 0.956863 0.000000
0.898039 0.956863 0.000000
0.921569 0.956863 0.000000
0.937255 0.956863 0.000000
0.952941 0.956863 0.000000
0.964706 0.956863 0.000000
0.976471 0.956863 0.000000
0.984314 0.956863 0.000000
0.992157 0.956863 0.000000
1.000000 0.956863 0.000000
0.000000 1.000000 0.000000
0.078431 1.000000 0.000000
0.152941 1.000000 0.000000
0.231373 1.000000 0.000000
0.305882 1.000000 0.000000
0.376471 1.000000 0.000000
0.447059 1.000000 0.000000
0.509804 1.000000 0.000000
0.572549 1.000000 0.000000
0.635294 1.000000 0.000000
0.686275 1.000000 0.000000
0.733333 1.000000 0.000000
0.780392 1.000000 0.000000
0.815686 1.000000 0.000000
0.847059 1.000000 0.000000
0.874510 1.000000 0.000000
0.898039 1.000000 0.000000
0.921569 1.000000 0.000000
0.937255 1.000000 0.000000
0.952941 1.000000 0.000000
0.964706 1.000000 0.000000
0.976471 1.000000 0.000000
0.984314 1.000000 0.000000
0.992157 1.000000 0.000000
1.000000 1.000000 0.000000
0.000000 0.000000 0.043137
0.078431 0.000000 0.043137
0.152941 0.000000 0.043137
0.231373 0.000000 0.043137
0.305882 0.000000 0.043137
0.376471 0.000000 0.043137
0.447059 0.000000 0.043137
0.509804 0.000000 0.043137
0.572549 0.000000 0.043137
0.635294 0.000000 0.043137
0.686275 0.000000 0.043137
0.733333 0.000000 0.043137
0.780392 0.000000 0.043137
0.815686 0.000000 0.043137
0.847059 0.000000 0.043137
0.874510 0.000000 0.043137
0.898039 0.000000 0.043137
0.921569 0.000000 0.043137
0.937255 0.000000 0.043137
0.952941 0.000000 0.043137
0.964706 0.000000 0.043137
0.976471 0.000000 0.043137
0.984314 0.000000 0.043137
0.992157 0.000000 0.043137
1.000000 0.000000 0.043137
0.000000 0.043137 0.043137
0.078431 0.043137 0.043137
0.152941 0.043137 0.043137
0.231373 0.043137 0.043137
0.305882 0.043137 0.043137
0.376471 0.043137 0.043137
0.447059 0.043137 0.043137
0.509804 0.043137 0.043137
0.572549 0.043137 0.043137
0.635294 0.043137 0.043137
0.686275 0.043137 0.043137
0.733333 0.043137 0.043137
0.780392 0.043137 0.043137
0.815686 0.043137 0.043137
0.847059 0.043137 0.043137
0.874510 0.043137 0.043137
0.898039 0.043137 0.043137
0.921569 0.043137 0.043137
0.937255 0.043137 0.043137
0.952941 0.043137 0.043137
0.964706 0.043137 0.043137
0.976471 0.043137 0.043137
0.984314 0.043137 0.043137
0.992157 0.043137 0.043137
1.000000 0.043137 0.043137
0.000000 0.082353 0.043137
0.078431 0.082353 0.043137
0.152941 0.082353 0.043137
0.231373 0.082353 0.043137
0.305882 0.082353 0.043137
0.376471 0.082353 0.043137
0.447059 0.082353 0.043137
0.509804 0.082353 0.043137
0.572549 0.082353 0.043137
0.635294 0.082353 0.043137
0.686275 0.082353 0.043137
0.733333 0.082353 0.043137
0.780392 0.082353 0.043137
0.815686 0.082353 0.043137
0.847059 0.082353 0.043137
0.874510 0.082353 0.043137
0.898039 0.082353 0.043137
0.921569 0.082353 0.043137
0.937255 0.082353 0.043137
0.952941 0.082353 0.043137
0.964706 0.082353 0.043137
0.976471 0.082353 0.043137
0.984314 0.082353 0.043137
0.992157 0.082353 0.043137
1.000000 0.082353 0.043137
0.000000 0.125490 0.043137
0.078431 0.125490 0.043137
0.152941 0.125490 0.043137
0.231373 0.125490 0.043137
0.305882 0.125490 0.043137
0.376471 0.125490 0.043137
0.447059 0.125490 0.043137
0.509804 0.125490 0.043137
0.572549 0.125490 0.043137
0.635294 0.125490 0.043137
0.686275 0.125490 0.043137
0.733333 0.125490 0.043137
0.780392 0.125490 0.043137
0.815686 0.125490 0.043137
0.847059 0.125490 0.043137
0.874510 0.125490 0.043137
0.898039 0.125490 0.043137
0.921569 0.125490 0.043137
0.937255 0.125490 0.043137
0.952941 0.125490 0.043137
0.964706 0.125490 0.043137
0.976471 0.125490 0.043137
0.984314 0.125490 0.043137
0.992157 0.125490 0.043137
1.000000 0.125490 0.043137
0.000000 0.168627 0.043137
0.078431 0.168627 0.043137
0.152941 0.168627 0.043137
0.231373 0.168627 0.043137
0.305882 0.168627 0.043137
0.376471 0.168627 0.043137
0.447059 0.168627 0.043137
0.509804 0.168627 0.043137
0.572549 0.168627 0.043137
0.635294 0.168627 0.043137
0.686275 0.168627 0.043137
0.733333 0.168627 0.043137
0.780392 0.168627 0.043137
0.815686 0.168627 0.043137
0.847059 0.168627 0.043137
0.874510 0.168627 0.043137
0.898039 0.168627 0.043137
0.921569 0.168627 0.043137
0.937255 0.168627 0.043137
0.952941 0.168627 0.043137
0.964706 0.168627 0.043137
0.976471 0.168627 0.043137
0.984314 0.168627 0.043137
0.992157 0.168627 0.043137
1.000000 0.168627 0.043137
0.000000 0.207843 0.043137
0.078431 0.207843 0.043137
0.152941 0.207843 0.043137
0.231373 0.207843 0.043137
0.305882 0.207843 0.043137
0.376471 0.207843 0.043137
0.447059 0.207843 0.043137
0.509804 0.207843 0.043137
0.572549 0.207843 0.043137
0.635294 0.207843 0.043137
0.686275 0.207843 0.043137
0.733333 0.207843 0.043137
0.780392 0.207843 0.043137
0.815686 0.207843 0.043137
0.847059 0.207843 0.043137
0.874510 0.207843 0.043137
0.898039 0.207843 0.043137
0.921569 0.207843 0.043137
0.937255 0.207843 0.043137
0.952941 0.207843 0.043137
0.964706 0.207843 0.043137
0.976471 0.207843 0.043137
0.984314 0.207843 0.043137
0.992157 0.207843 0.043137
1.000000 0.207843 0.043137
0.000000 0.250980 0.043137
0.078431 0.250980 0.043137
0.152941 0.250980 0.043137
0.231373 0.250980 0.043137
0.305882 0.250980 0.043137
0.376471 0.250980 0.043137
0.447059 0.250980 0.043137
0.509804 0.250980 0.043137
0.572549 0.250980 0.043137
0.635294 0.250980 0.043137
0.686275 0.250980 0.043137
0.733333 0.250980 0.043137
0.780392 0.250980 0.043137
0.815686 0.250980 0.043137
0.847059 0.250980 0.043137
0.874510 0.250980 0.043137
0.898039 0.250980 0.043137
0.921569 0.250980 0.043137
0.937255 0.250980 0.043137
0.952941 0.250980 0.043137
0.964706 0.250980 0.043137
0.976471 0.250980 0.043137
0.984314 0.250980 0.043137
0.992157 0.250980 0.043137
1.000000 0.250980 0.043137
0.000000 0.290196 0.043137
0.078431 0.290196 0.043137
0.152941 0.290196 0.043137
0.231373 0.290196 0.043137
0.305882 0.290196 0.043137
0.376471 0.290196 0.043137
0.447059 0.290196 0.043137
0.509804 0.290196 0.043137
0.572549 0.290196 0.043137
0.635294 0.290196 0.043137
0.686275 0.290196 0.043137
0.733333 0.290196 0.043137
0.780392 0.290196 0.043137
0.815686 0.290196 0.043137
0.847059 0.290196 0.043137
0.874510 0.290196 0.043137
0.898039 0.290196 0.043137
0.921569 0.290196 0.043137
0.937255 0.290196 0.043137
0.952941 0.290196 0.043137
0.964706 0.290196 0.043137
0.976471 0.290196 0.043137
0.984314 0.290196 0.043137
0.992157 0.290196 0.043137
1.000000 0.290196 0.043137
0.000000 0.333333 0.043137
0.078431 0.333333 0.043137
0.152941 0.333333 0.043137
0.231373 0.333333 0.043137
0.305882 0.333333 0.043137
0.376471 0.333333 0.043137
0.447059 0.333333 0.043137
0.509804 0.333333 0.043137
0.572549 0.333333 0.043137
0.635294 0.333333 0.043137
0.686275 0.333333 0.043137
0.733333 0.333333 0.043137
0.780392 0.333333 0.043137
0.815686 0.333333 0.043137
0.847059 0.333333 0.043137
0.874510 0.333333 0.043137
0.898039 0.333333 0.043137
0.921569 0.333333 0.043137
0.937255 0.333333 0.043137
0.952941 0.333333 0.043137
0.964706 0.333333 0.043137
0.976471 0.333333 0.043137
0.984314 0.333333 0.043137
0.992157 0.333333 0.043137
1.000000 0.333333 0.043137
0.000000 0.376471 0.043137
0.078431 0.376471 0.043137
0.152941 0.376471 0.043137
0.231373 0.376471 0.043137
0.305882 0.376471 0.043137
0.376471 0.376471 0.043137
0.447059 0.376471 0.043137
0.509804 0.376471 0.043137
0.572549 0.376471 0.043137
0.635294 0.376471 0.043137
0.686275 0.376471 0.043137
0.733333 0.376471 0.043137
0.780392 0.376471 0.043137
0.815686 0.376471 0.043137
0.847059 0.376471 0.043137
0.874510 0.376471 0.043137
0.898039 0.376471 0.043137
0.921569 0.376471 0.043137
0.937255 0.376471 0.043137
0.952941 0.376471 0.043137
0.964706 0.376471 0.043137
0.976471 0.376471 0.043137
0.984314 0.376471 0.043137
0.992157 0.376471 0.043137
1.000000 0.376471 0.043137
0.000000 0.415686 0.043137
0.078431 0.415686 0.043137
0.152941 0.415686 0.043137
0.231373 0.415686 0.043137
0.305882 0.415686 0.043137
0.376471 0.415686 0.043137
0.447059 0.415686 0.043137
0.509804 0.415686 0.043137
0.572549 0.415686 0.043137
