LUTs/Damaging/LUT_RED/red_midtones.cube
#Generated by lutCreator.js
#Coded by SirSerch
#https://github.com/SirSerch/LutCreatorJs
TITLE lutCreatorJs_25
LUT_3D_SIZE 5
0.000000 0.000000 0.000000
0.447059 0.000000 0.000000
0.780392 0.000000 0.000000
0.937255 0.000000 0.000000
1.000000 0.000000 0.000000
0.000000 0.250980 0.000000
0.447059 0.250980 0.000000
0.780392 0.250980 0.000000
0.937255 0.250980 0.000000
1.000000 0.250980 0.000000
0.000000 0.501961 0.000000
0.447059 0.501961 0.000000
0.780392 0.501961 0.000000
0.937255 0.501961 0.000000
1.000000 0.501961 0.000000
0.000000 0.749020 0.000000
0.447059 0.749020 0.000000
0.780392 0.749020 0.000000
0.937255 0.749020 0.000000
1.000000 0.749020 0.000000
0.000000 1.000000 0.000000
0.447059 1.000000 0.000000
0.780392 1.000000 0.000000
0.937255 1.000000 0.000000
1.000000 1.000000 0.000000
0.000000 0.000000 0.250980
0.447059 0.000000 0.250980
0.780392 0.000000 0.250980
0.937255 0.000000 0.250980
1.000000 0.000000 0.250980
0.000000 0.250980 0.250980
0.447059 0.250980 0.250980
0.780392 0.250980 0.250980
0.937255 0.250980 0.250980
1.000000 0.250980 0.250980
0.000000 0.501961 0.250980
0.447059 0.501961 0.250980
0.780392 0.501961 0.250980
0.937255 0.501961 0.250980
1.000000 0.501961 0.250980
0.000000 0.749020 0.250980
0.447059 0.749020 0.250980
0.780392 0.749020 0.250980
0.937255 0.749020 0.250980
1.000000 0.749020 0.250980
0.000000 1.000000 0.250980
0.447059 1.000000 0.250980
0.780392 1.000000 0.250980
0.937255 1.000000 0.250980
1.000000 1.000000 0.250980
0.000000 0.000000 0.501961
0.447059 0.000000 0.501961
0.780392 0.000000 0.501961
0.937255 0.000000 0.501961
1.000000 0.000000 0.501961
0.000000 0.250980 0.501961
0.447059 0.250980 0.501961
0.780392 0.250980 0.501961
0.937255 0.250980 0.501961
1.000000 0.250980 0.501961
0.000000 0.501961 0.501961
0.447059 0.501961 0.501961
0.780392 0.501961 0.501961
0.937255 0.501961 0.501961
1.000000 0.501961 0.501961
0.000000 0.749020 0.501961
0.447059 0.749020 0.501961
0.780392 0.749020 0.501961
0.937255 0.749020 0.501961
1.000000 0.749020 0.501961
0.000000 1.000000 0.501961
0.447059 1.000000 0.501961
0.780392 1.000000 0.501961
0.937255 1.000000 0.501961
1.000000 1.000000 0.501961
0.000000 0.000000 0.749020
0.447059 0.000000 0.749020
0.780392 0.000000 0.749020
0.937255 0.000000 0.749020
1.000000 0.000000 0.749020
0.000000 0.250980 0.749020
0.447059 0.250980 0.749020
0.780392 0.250980 0.749020
0.937255 0.250980 0.749020
1.000000 0.250980 0.749020
0.000000 0.501961 0.749020
0.447059 0.501961 0.749020
0.780392 0.501961 0.749020
0.937255 0.501961 0.749020
1.000000 0.501961 0.749020
0.000000 0.749020 0.749020
0.447059 0.749020 0.749020
0.780392 0.749020 0.749020
0.937255 0.749020 0.749020
1.000000 0.749020 0.749020
0.000000 1.000000 0.749020
0.447059 1.000000 0.749020
0.780392 1.000000 0.749020
0.937255 1.000000 0.749020
1.000000 1.000000 0.749020
0.000000 0.000000 1.000000
0.447059 0.000000 1.000000
0.780392 0.000000 1.000000
0.937255 0.000000 1.000000
1.000000 0.000000 1.000000
0.000000 0.250980 1.000000
0.447059 0.250980 1.000000
0.780392 0.250980 1.000000
0.937255 0.250980 1.000000
1.000000 0.250980 1.000000
0.000000 0.501961 1.000000
0.447059 0.501961 1.000000
0.780392 0.501961 1.000000
0.937255 0.501961 1.000000
1.000000 0.501961 1.000000
0.000000 0.749020 1.000000
0.447059 0.749020 1.000000
0.780392 0.749020 1.000000
0.937255 0.749020 1.000000
1.000000 0.749020 1.000000
0.000000 1.000000 1.000000
0.447059 1.000000 1.000000
0.780392 1.000000 1.000000
0.937255 1.000000 1.000000
1.000000 1.000000 1.000000
