LUTs/Damaging/LUT_RED/red_extreme.cube
#Generated by lutCreator.js
#Coded by SirSerch
#https://github.com/SirSerch/LutCreatorJs
TITLE lutCreatorJs_25
LUT_3D_SIZE 5
0.000000 0.000000 0.000000
0.658824 0.000000 0.000000
0.909804 0.000000 0.000000
0.988235 0.000000 0.000000
1.000000 0.000000 0.000000
0.000000 0.250980 0.000000
0.658824 0.250980 0.000000
0.909804 0.250980 0.000000
0.988235 0.250980 0.000000
1.000000 0.250980 0.000000
0.000000 0.501961 0.000000
0.658824 0.501961 0.000000
0.909804 0.501961 0.000000
0.988235 0.501961 0.000000
1.000000 0.501961 0.000000
0.000000 0.749020 0.000000
0.658824 0.749020 0.000000
0.909804 0.749020 0.000000
0.988235 0.749020 0.000000
1.000000 0.749020 0.000000
0.000000 1.000000 0.000000
0.658824 1.000000 0.000000
0.909804 1.000000 0.000000
0.988235 1.000000 0.000000
1.000000 1.000000 0.000000
0.000000 0.000000 0.250980
0.658824 0.000000 0.250980
0.909804 0.000000 0.250980
0.988235 0.000000 0.250980
1.000000 0.000000 0.250980
0.000000 0.250980 0.250980
0.658824 0.250980 0.250980
0.909804 0.250980 0.250980
0.988235 0.250980 0.250980
1.000000 0.250980 0.250980
0.000000 0.501961 0.250980
0.658824 0.501961 0.250980
0.909804 0.501961 0.250980
0.988235 0.501961 0.250980
1.000000 0.501961 0.250980
0.000000 0.749020 0.250980
0.658824 0.749020 0.250980
0.909804 0.749020 0.250980
0.988235 0.749020 0.250980
1.000000 0.749020 0.250980
0.000000 1.000000 0.250980
0.658824 1.000000 0.250980
0.909804 1.000000 0.250980
0.988235 1.000000 0.250980
1.000000 1.000000 0.250980
0.000000 0.000000 0.501961
0.658824 0.000000 0.501961
0.909804 0.000000 0.501961
0.988235 0.000000 0.501961
1.000000 0.000000 0.501961
0.000000 0.250980 0.501961
0.658824 0.250980 0.501961
0.909804 0.250980 0.501961
0.988235 0.250980 0.501961
1.000000 0.250980 0.501961
0.000000 0.501961 0.501961
0.658824 0.501961 0.501961
0.909804 0.501961 0.501961
0.988235 0.501961 0.501961
1.000000 0.501961 0.501961
0.000000 0.749020 0.501961
0.658824 0.749020 0.501961
0.909804 0.749020 0.501961
0.988235 0.749020 0.501961
1.000000 0.749020 0.501961
0.000000 1.000000 0.501961
0.658824 1.000000 0.501961
0.909804 1.000000 0.501961
0.988235 1.000000 0.501961
1.000000 1.000000 0.501961
0.000000 0.000000 0.749020
0.658824 0.000000 0.749020
0.909804 0.000000 0.749020
0.988235 0.000000 0.749020
1.000000 0.000000 0.749020
0.000000 0.250980 0.749020
0.658824 0.250980 0.749020
0.909804 0.250980 0.749020
0.988235 0.250980 0.749020
1.000000 0.250980 0.749020
0.000000 0.501961 0.749020
0.658824 0.501961 0.749020
0.909804 0.501961 0.749020
0.988235 0.501961 0.749020
1.000000 0.501961 0.749020
0.000000 0.749020 0.749020
0.658824 0.749020 0.749020
0.909804 0.749020 0.749020
0.988235 0.749020 0.749020
1.000000 0.749020 0.749020
0.000000 1.000000 0.749020
0.658824 1.000000 0.749020
0.909804 1.000000 0.749020
0.988235 1.000000 0.749020
1.000000 1.000000 0.749020
0.000000 0.000000 1.000000
0.658824 0.000000 1.000000
0.909804 0.000000 1.000000
0.988235 0.000000 1.000000
1.000000 0.000000 1.000000
0.000000 0.250980 1.000000
0.658824 0.250980 1.000000
0.909804 0.250980 1.000000
0.988235 0.250980 1.000000
1.000000 0.250980 1.000000
0.000000 0.501961 1.000000
0.658824 0.501961 1.000000
0.909804 0.501961 1.000000
0.988235 0.501961 1.000000
1.000000 0.501961 1.000000
0.000000 0.749020 1.000000
0.658824 0.749020 1.000000
0.909804 0.749020 1.000000
0.988235 0.749020 1.000000
1.000000 0.749020 1.000000
0.000000 1.000000 1.000000
0.658824 1.000000 1.000000
0.909804 1.000000 1.000000
0.988235 1.000000 1.000000
1.000000 1.000000 1.000000
