LUTs/Damaging/LUT_RED/warmth.cube
#Generated by lutCreator.js
#Coded by SirSerch
#https://github.com/SirSerch/LutCreatorJs
TITLE lutCreatorJs_25
LUT_3D_SIZE 9
0.000000 0.000000 0.000000
0.125490 0.000000 0.000000
0.250980 0.000000 0.000000
0.376471 0.000000 0.000000
0.501961 0.000000 0.000000
0.623529 0.000000 0.000000
0.749020 0.000000 0.000000
0.874510 0.000000 0.000000
1.000000 0.000000 0.000000
0.000000 0.125490 0.000000
0.125490 0.125490 0.000000
0.250980 0.125490 0.000000
0.376471 0.125490 0.000000
0.501961 0.125490 0.000000
0.623529 0.125490 0.000000
0.749020 0.125490 0.000000
0.874510 0.125490 0.000000
1.000000 0.125490 0.000000
0.000000 0.250980 0.000000
0.125490 0.250980 0.000000
0.250980 0.250980 0.000000
0.376471 0.250980 0.000000
0.501961 0.250980 0.000000
0.623529 0.250980 0.000000
0.749020 0.250980 0.000000
0.874510 0.250980 0.000000
1.000000 0.250980 0.000000
0.000000 0.376471 0.000000
0.125490 0.376471 0.000000
0.250980 0.376471 0.000000
0.376471 0.376471 0.000000
0.501961 0.376471 0.000000
0.623529 0.376471 0.000000
0.749020 0.376471 0.000000
0.874510 0.376471 0.000000
1.000000 0.376471 0.000000
0.000000 0.501961 0.000000
0.125490 0.501961 0.000000
0.250980 0.501961 0.000000
0.376471 0.501961 0.000000
0.501961 0.501961 0.000000
0.623529 0.501961 0.000000
0.749020 0.501961 0.000000
0.874510 0.501961 0.000000
1.000000 0.501961 0.000000
0.000000 0.623529 0.000000
0.125490 0.623529 0.000000
0.250980 0.623529 0.000000
0.376471 0.623529 0.000000
0.501961 0.623529 0.000000
0.623529 0.623529 0.000000
0.749020 0.623529 0.000000
0.874510 0.623529 0.000000
1.000000 0.623529 0.000000
0.000000 0.749020 0.000000
0.125490 0.749020 0.000000
0.250980 0.749020 0.000000
0.376471 0.749020 0.000000
0.501961 0.749020 0.000000
0.623529 0.749020 0.000000
0.749020 0.749020 0.000000
0.874510 0.749020 0.000000
1.000000 0.749020 0.000000
0.000000 0.874510 0.000000
0.125490 0.874510 0.000000
0.250980 0.874510 0.000000
0.376471 0.874510 0.000000
0.501961 0.874510 0.000000
0.623529 0.874510 0.000000
0.749020 0.874510 0.000000
0.874510 0.874510 0.000000
1.000000 0.874510 0.000000
0.000000 1.000000 0.000000
0.125490 1.000000 0.000000
0.250980 1.000000 0.000000
0.376471 1.000000 0.000000
0.501961 1.000000 0.000000
0.623529 1.000000 0.000000
0.749020 1.000000 0.000000
0.874510 1.000000 0.000000
1.000000 1.000000 0.000000
0.000000 0.000000 0.047059
0.125490 0.000000 0.047059
0.250980 0.000000 0.047059
0.376471 0.000000 0.047059
0.501961 0.000000 0.047059
0.623529 0.000000 0.047059
0.749020 0.000000 0.047059
0.874510 0.000000 0.047059
1.000000 0.000000 0.047059
0.000000 0.125490 0.047059
0.125490 0.125490 0.047059
0.250980 0.125490 0.047059
0.376471 0.125490 0.047059
0.501961 0.125490 0.047059
0.623529 0.125490 0.047059
0.749020 0.125490 0.047059
0.874510 0.125490 0.047059
1.000000 0.125490 0.047059
0.000000 0.250980 0.047059
0.125490 0.250980 0.047059
0.250980 0.250980 0.047059
0.376471 0.250980 0.047059
0.501961 0.250980 0.047059
0.623529 0.250980 0.047059
0.749020 0.250980 0.047059
0.874510 0.250980 0.047059
1.000000 0.250980 0.047059
0.000000 0.376471 0.047059
0.125490 0.376471 0.047059
0.250980 0.376471 0.047059
0.376471 0.376471 0.047059
0.501961 0.376471 0.047059
0.623529 0.376471 0.047059
0.749020 0.376471 0.047059
0.874510 0.376471 0.047059
1.000000 0.376471 0.047059
0.000000 0.501961 0.047059
0.125490 0.501961 0.047059
0.250980 0.501961 0.047059
0.376471 0.501961 0.047059
0.501961 0.501961 0.047059
0.623529 0.501961 0.047059
0.749020 0.501961 0.047059
0.874510 0.501961 0.047059
1.000000 0.501961 0.047059
0.000000 0.623529 0.047059
0.125490 0.623529 0.047059
0.250980 0.623529 0.047059
0.376471 0.623529 0.047059
0.501961 0.623529 0.047059
0.623529 0.623529 0.047059
0.749020 0.623529 0.047059
0.874510 0.623529 0.047059
1.000000 0.623529 0.047059
0.000000 0.749020 0.047059
0.125490 0.749020 0.047059
0.250980 0.749020 0.047059
0.376471 0.749020 0.047059
0.501961 0.749020 0.047059
0.623529 0.749020 0.047059
0.749020 0.749020 0.047059
0.874510 0.749020 0.047059
1.000000 0.749020 0.047059
0.000000 0.874510 0.047059
0.125490 0.874510 0.047059
0.250980 0.874510 0.047059
0.376471 0.874510 0.047059
0.501961 0.874510 0.047059
0.623529 0.874510 0.047059
0.749020 0.874510 0.047059
0.874510 0.874510 0.047059
1.000000 0.874510 0.047059
0.000000 1.000000 0.047059
0.125490 1.000000 0.047059
0.250980 1.000000 0.047059
0.376471 1.000000 0.047059
0.501961 1.000000 0.047059
0.623529 1.000000 0.047059
0.749020 1.000000 0.047059
0.874510 1.000000 0.047059
1.000000 1.000000 0.047059
0.000000 0.000000 0.101961
0.125490 0.000000 0.101961
0.250980 0.000000 0.101961
0.376471 0.000000 0.101961
0.501961 0.000000 0.101961
0.623529 0.000000 0.101961
0.749020 0.000000 0.101961
0.874510 0.000000 0.101961
1.000000 0.000000 0.101961
0.000000 0.125490 0.101961
0.125490 0.125490 0.101961
0.250980 0.125490 0.101961
0.376471 0.125490 0.101961
0.501961 0.125490 0.101961
0.623529 0.125490 0.101961
0.749020 0.125490 0.101961
0.874510 0.125490 0.101961
1.000000 0.125490 0.101961
0.000000 0.250980 0.101961
0.125490 0.250980 0.101961
0.250980 0.250980 0.101961
0.376471 0.250980 0.101961
0.501961 0.250980 0.101961
0.623529 0.250980 0.101961
0.749020 0.250980 0.101961
0.874510 0.250980 0.101961
1.000000 0.250980 0.101961
0.000000 0.376471 0.101961
0.125490 0.376471 0.101961
0.250980 0.376471 0.101961
0.376471 0.376471 0.101961
0.501961 0.376471 0.101961
0.623529 0.376471 0.101961
0.749020 0.376471 0.101961
0.874510 0.376471 0.101961
1.000000 0.376471 0.101961
0.000000 0.501961 0.101961
0.125490 0.501961 0.101961
0.250980 0.501961 0.101961
0.376471 0.501961 0.101961
0.501961 0.501961 0.101961
0.623529 0.501961 0.101961
0.749020 0.501961 0.101961
0.874510 0.501961 0.101961
1.000000 0.501961 0.101961
0.000000 0.623529 0.101961
0.125490 0.623529 0.101961
0.250980 0.623529 0.101961
0.376471 0.623529 0.101961
0.501961 0.623529 0.101961
0.623529 0.623529 0.101961
0.749020 0.623529 0.101961
0.874510 0.623529 0.101961
1.000000 0.623529 0.101961
0.000000 0.749020 0.101961
0.125490 0.749020 0.101961
0.250980 0.749020 0.101961
0.376471 0.749020 0.101961
0.501961 0.749020 0.101961
0.623529 0.749020 0.101961
0.749020 0.749020 0.101961
0.874510 0.749020 0.101961
1.000000 0.749020 0.101961
0.000000 0.874510 0.101961
0.125490 0.874510 0.101961
0.250980 0.874510 0.101961
0.376471 0.874510 0.101961
0.501961 0.874510 0.101961
0.623529 0.874510 0.101961
0.749020 0.874510 0.101961
0.874510 0.874510 0.101961
1.000000 0.874510 0.101961
0.000000 1.000000 0.101961
0.125490 1.000000 0.101961
0.250980 1.000000 0.101961
0.376471 1.000000 0.101961
0.501961 1.000000 0.101961
0.623529 1.000000 0.101961
0.749020 1.000000 0.101961
0.874510 1.000000 0.101961
1.000000 1.000000 0.101961
0.000000 0.000000 0.168627
0.125490 0.000000 0.168627
0.250980 0.000000 0.168627
0.376471 0.000000 0.168627
0.501961 0.000000 0.168627
0.623529 0.000000 0.168627
0.749020 0.000000 0.168627
0.874510 0.000000 0.168627
1.000000 0.000000 0.168627
0.000000 0.125490 0.168627
0.125490 0.125490 0.168627
0.250980 0.125490 0.168627
0.376471 0.125490 0.168627
0.501961 0.125490 0.168627
0.623529 0.125490 0.168627
0.749020 0.125490 0.168627
0.874510 0.125490 0.168627
1.000000 0.125490 0.168627
0.000000 0.250980 0.168627
0.125490 0.250980 0.168627
0.250980 0.250980 0.168627
0.376471 0.250980 0.168627
0.501961 0.250980 0.168627
0.623529 0.250980 0.168627
0.749020 0.250980 0.168627
0.874510 0.250980 0.168627
1.000000 0.250980 0.168627
0.000000 0.376471 0.168627
0.125490 0.376471 0.168627
0.250980 0.376471 0.168627
0.376471 0.376471 0.168627
0.501961 0.376471 0.168627
0.623529 0.376471 0.168627
0.749020 0.376471 0.168627
0.874510 0.376471 0.168627
1.000000 0.376471 0.168627
0.000000 0.501961 0.168627
0.125490 0.501961 0.168627
0.250980 0.501961 0.168627
0.376471 0.501961 0.168627
0.501961 0.501961 0.168627
0.623529 0.501961 0.168627
0.749020 0.501961 0.168627
0.874510 0.501961 0.168627
1.000000 0.501961 0.168627
0.000000 0.623529 0.168627
0.125490 0.623529 0.168627
0.250980 0.623529 0.168627
0.376471 0.623529 0.168627
0.501961 0.623529 0.168627
0.623529 0.623529 0.168627
0.749020 0.623529 0.168627
0.874510 0.623529 0.168627
1.000000 0.623529 0.168627
0.000000 0.749020 0.168627
0.125490 0.749020 0.168627
0.250980 0.749020 0.168627
0.376471 0.749020 0.168627
0.501961 0.749020 0.168627
0.623529 0.749020 0.168627
0.749020 0.749020 0.168627
0.874510 0.749020 0.168627
1.000000 0.749020 0.168627
0.000000 0.874510 0.168627
0.125490 0.874510 0.168627
0.250980 0.874510 0.168627
0.376471 0.874510 0.168627
0.501961 0.874510 0.168627
0.623529 0.874510 0.168627
0.749020 0.874510 0.168627
0.874510 0.874510 0.168627
1.000000 0.874510 0.168627
0.000000 1.000000 0.168627
0.125490 1.000000 0.168627
0.250980 1.000000 0.168627
0.376471 1.000000 0.168627
0.501961 1.000000 0.168627
0.623529 1.000000 0.168627
0.749020 1.000000 0.168627
0.874510 1.000000 0.168627
1.000000 1.000000 0.168627
0.000000 0.000000 0.254902
0.125490 0.000000 0.254902
0.250980 0.000000 0.254902
0.376471 0.000000 0.254902
0.501961 0.000000 0.254902
0.623529 0.000000 0.254902
0.749020 0.000000 0.254902
0.874510 0.000000 0.254902
1.000000 0.000000 0.254902
0.000000 0.125490 0.254902
0.125490 0.125490 0.254902
0.250980 0.125490 0.254902
0.376471 0.125490 0.254902
0.501961 0.125490 0.254902
0.623529 0.125490 0.254902
0.749020 0.125490 0.254902
0.874510 0.125490 0.254902
1.000000 0.125490 0.254902
0.000000 0.250980 0.254902
0.125490 0.250980 0.254902
0.250980 0.250980 0.254902
0.376471 0.250980 0.254902
0.501961 0.250980 0.254902
0.623529 0.250980 0.254902
0.749020 0.250980 0.254902
0.874510 0.250980 0.254902
1.000000 0.250980 0.254902
0.000000 0.376471 0.254902
0.125490 0.376471 0.254902
0.250980 0.376471 0.254902
0.376471 0.376471 0.254902
0.501961 0.376471 0.254902
0.623529 0.376471 0.254902
0.749020 0.376471 0.254902
0.874510 0.376471 0.254902
1.000000 0.376471 0.254902
0.000000 0.501961 0.254902
0.125490 0.501961 0.254902
0.250980 0.501961 0.254902
0.376471 0.501961 0.254902
0.501961 0.501961 0.254902
0.623529 0.501961 0.254902
0.749020 0.501961 0.254902
0.874510 0.501961 0.254902
1.000000 0.501961 0.254902
0.000000 0.623529 0.254902
0.125490 0.623529 0.254902
0.250980 0.623529 0.254902
0.376471 0.623529 0.254902
0.501961 0.623529 0.254902
0.623529 0.623529 0.254902
0.749020 0.623529 0.254902
0.874510 0.623529 0.254902
1.000000 0.623529 0.254902
0.000000 0.749020 0.254902
0.125490 0.749020 0.254902
0.250980 0.749020 0.254902
0.376471 0.749020 0.254902
0.501961 0.749020 0.254902
0.623529 0.749020 0.254902
0.749020 0.749020 0.254902
0.874510 0.749020 0.254902
1.000000 0.749020 0.254902
0.000000 0.874510 0.254902
0.125490 0.874510 0.254902
0.250980 0.874510 0.254902
0.376471 0.874510 0.254902
0.501961 0.874510 0.254902
0.623529 0.874510 0.254902
0.749020 0.874510 0.254902
0.874510 0.874510 0.254902
1.000000 0.874510 0.254902
0.000000 1.000000 0.254902
0.125490 1.000000 0.254902
0.250980 1.000000 0.254902
0.376471 1.000000 0.254902
0.501961 1.000000 0.254902
0.623529 1.000000 0.254902
0.749020 1.000000 0.254902
0.874510 1.000000 0.254902
1.000000 1.000000 0.254902
0.000000 0.000000 0.360784
0.125490 0.000000 0.360784
0.250980 0.000000 0.360784
0.376471 0.000000 0.360784
0.501961 0.000000 0.360784
0.623529 0.000000 0.360784
0.749020 0.000000 0.360784
0.874510 0.000000 0.360784
1.000000 0.000000 0.360784
0.000000 0.125490 0.360784
0.125490 0.125490 0.360784
0.250980 0.125490 0.360784
0.376471 0.125490 0.360784
0.501961 0.125490 0.360784
0.623529 0.125490 0.360784
0.749020 0.125490 0.360784
0.874510 0.125490 0.360784
1.000000 0.125490 0.360784
0.000000 0.250980 0.360784
0.125490 0.250980 0.360784
0.250980 0.250980 0.360784
0.376471 0.250980 0.360784
0.501961 0.250980 0.360784
0.623529 0.250980 0.360784
0.749020 0.250980 0.360784
0.874510 0.250980 0.360784
1.000000 0.250980 0.360784
0.000000 0.376471 0.360784
0.125490 0.376471 0.360784
0.250980 0.376471 0.360784
0.376471 0.376471 0.360784
0.501961 0.376471 0.360784
0.623529 0.376471 0.360784
0.749020 0.376471 0.360784
0.874510 0.376471 0.360784
1.000000 0.376471 0.360784
0.000000 0.501961 0.360784
0.125490 0.501961 0.360784
0.250980 0.501961 0.360784
0.376471 0.501961 0.360784
0.501961 0.501961 0.360784
0.623529 0.501961 0.360784
0.749020 0.501961 0.360784
0.874510 0.501961 0.360784
1.000000 0.501961 0.360784
0.000000 0.623529 0.360784
0.125490 0.623529 0.360784
0.250980 0.623529 0.360784
0.376471 0.623529 0.360784
0.501961 0.623529 0.360784
0.623529 0.623529 0.360784
0.749020 0.623529 0.360784
0.874510 0.623529 0.360784
1.000000 0.623529 0.360784
0.000000 0.749020 0.360784
0.125490 0.749020 0.360784
0.250980 0.749020 0.360784
0.376471 0.749020 0.360784
0.501961 0.749020 0.360784
0.623529 0.749020 0.360784
0.749020 0.749020 0.360784
0.874510 0.749020 0.360784
1.000000 0.749020 0.360784
0.000000 0.874510 0.360784
0.125490 0.874510 0.360784
0.250980 0.874510 0.360784
0.376471 0.874510 0.360784
0.501961 0.874510 0.360784
0.623529 0.874510 0.360784
0.749020 0.874510 0.360784
0.874510 0.874510 0.360784
1.000000 0.874510 0.360784
0.000000 1.000000 0.360784
0.125490 1.000000 0.360784
0.250980 1.000000 0.360784
0.376471 1.000000 0.360784
0.501961 1.000000 0.360784
0.623529 1.000000 0.360784
0.749020 1.000000 0.360784
0.874510 1.000000 0.360784
1.000000 1.000000 0.360784
0.000000 0.000000 0.517647
0.125490 0.000000 0.517647
0.250980 0.000000 0.517647
0.376471 0.000000 0.517647
0.501961 0.000000 0.517647
0.623529 0.000000 0.517647
0.749020 0.000000 0.517647
0.874510 0.000000 0.517647
1.000000 0.000000 0.517647
0.000000 0.125490 0.517647
0.125490 0.125490 0.517647
0.250980 0.125490 0.517647
0.376471 0.125490 0.517647
0.501961 0.125490 0.517647
0.623529 0.125490 0.517647
0.749020 0.125490 0.517647
0.874510 0.125490 0.517647
1.000000 0.125490 0.517647
0.000000 0.250980 0.517647
0.125490 0.250980 0.517647
0.250980 0.250980 0.517647
0.376471 0.250980 0.517647
0.501961 0.250980 0.517647
0.623529 0.250980 0.517647
0.749020 0.250980 0.517647
0.874510 0.250980 0.517647
1.000000 0.250980 0.517647
0.000000 0.376471 0.517647
0.125490 0.376471 0.517647
0.250980 0.376471 0.517647
0.376471 0.376471 0.517647
0.501961 0.376471 0.517647
0.623529 0.376471 0.517647
0.749020 0.376471 0.517647
0.874510 0.376471 0.517647
1.000000 0.376471 0.517647
0.000000 0.501961 0.517647
0.125490 0.501961 0.517647
0.250980 0.501961 0.517647
0.376471 0.501961 0.517647
0.501961 0.501961 0.517647
0.623529 0.501961 0.517647
0.749020 0.501961 0.517647
0.874510 0.501961 0.517647
1.000000 0.501961 0.517647
0.000000 0.623529 0.517647
0.125490 0.623529 0.517647
0.250980 0.623529 0.517647
0.376471 0.623529 0.517647
0.501961 0.623529 0.517647
0.623529 0.623529 0.517647
0.749020 0.623529 0.517647
0.874510 0.623529 0.517647
1.000000 0.623529 0.517647
0.000000 0.749020 0.517647
0.125490 0.749020 0.517647
0.250980 0.749020 0.517647
0.376471 0.749020 0.517647
0.501961 0.749020 0.517647
0.623529 0.749020 0.517647
0.749020 0.749020 0.517647
0.874510 0.749020 0.517647
1.000000 0.749020 0.517647
0.000000 0.874510 0.517647
0.125490 0.874510 0.517647
0.250980 0.874510 0.517647
0.376471 0.874510 0.517647
0.501961 0.874510 0.517647
0.623529 0.874510 0.517647
0.749020 0.874510 0.517647
0.874510 0.874510 0.517647
1.000000 0.874510 0.517647
0.000000 1.000000 0.517647
0.125490 1.000000 0.517647
0.250980 1.000000 0.517647
0.376471 1.000000 0.517647
0.501961 1.000000 0.517647
0.623529 1.000000 0.517647
0.749020 1.000000 0.517647
0.874510 1.000000 0.517647
1.000000 1.000000 0.517647
0.000000 0.000000 0.741176
0.125490 0.000000 0.741176
0.250980 0.000000 0.741176
0.376471 0.000000 0.741176
0.501961 0.000000 0.741176
0.623529 0.000000 0.741176
0.749020 0.000000 0.741176
0.874510 0.000000 0.741176
1.000000 0.000000 0.741176
0.000000 0.125490 0.741176
0.125490 0.125490 0.741176
0.250980 0.125490 0.741176
0.376471 0.125490 0.741176
0.501961 0.125490 0.741176
0.623529 0.125490 0.741176
0.749020 0.125490 0.741176
0.874510 0.125490 0.741176
1.000000 0.125490 0.741176
0.000000 0.250980 0.741176
0.125490 0.250980 0.741176
0.250980 0.250980 0.741176
0.376471 0.250980 0.741176
0.501961 0.250980 0.741176
0.623529 0.250980 0.741176
0.749020 0.250980 0.741176
0.874510 0.250980 0.741176
1.000000 0.250980 0.741176
0.000000 0.376471 0.741176
0.125490 0.376471 0.741176
0.250980 0.376471 0.741176
0.376471 0.376471 0.741176
0.501961 0.376471 0.741176
0.623529 0.376471 0.741176
0.749020 0.376471 0.741176
0.874510 0.376471 0.741176
1.000000 0.376471 0.741176
0.000000 0.501961 0.741176
0.125490 0.501961 0.741176
0.250980 0.501961 0.741176
0.376471 0.501961 0.741176
0.501961 0.501961 0.741176
0.623529 0.501961 0.741176
0.749020 0.501961 0.741176
0.874510 0.501961 0.741176
1.000000 0.501961 0.741176
0.000000 0.623529 0.741176
0.125490 0.623529 0.741176
0.250980 0.623529 0.741176
0.376471 0.623529 0.741176
0.501961 0.623529 0.741176
0.623529 0.623529 0.741176
0.749020 0.623529 0.741176
0.874510 0.623529 0.741176
1.000000 0.623529 0.741176
0.000000 0.749020 0.741176
0.125490 0.749020 0.741176
0.250980 0.749020 0.741176
0.376471 0.749020 0.741176
0.501961 0.749020 0.741176
0.623529 0.749020 0.741176
0.749020 0.749020 0.741176
0.874510 0.749020 0.741176
1.000000 0.749020 0.741176
0.000000 0.874510 0.741176
0.125490 0.874510 0.741176
0.250980 0.874510 0.741176
0.376471 0.874510 0.741176
0.501961 0.874510 0.741176
0.623529 0.874510 0.741176
0.749020 0.874510 0.741176
0.874510 0.874510 0.741176
1.000000 0.874510 0.741176
0.000000 1.000000 0.741176
0.125490 1.000000 0.741176
0.250980 1.000000 0.741176
0.376471 1.000000 0.741176
0.501961 1.000000 0.741176
0.623529 1.000000 0.741176
0.749020 1.000000 0.741176
0.874510 1.000000 0.741176
1.000000 1.000000 0.741176
0.000000 0.000000 1.000000
0.125490 0.000000 1.000000
0.250980 0.000000 1.000000
0.376471 0.000000 1.000000
0.501961 0.000000 1.000000
0.623529 0.000000 1.000000
0.749020 0.000000 1.000000
0.874510 0.000000 1.000000
1.000000 0.000000 1.000000
0.000000 0.125490 1.000000
0.125490 0.125490 1.000000
0.250980 0.125490 1.000000
0.376471 0.125490 1.000000
0.501961 0.125490 1.000000
0.623529 0.125490 1.000000
0.749020 0.125490 1.000000
0.874510 0.125490 1.000000
1.000000 0.125490 1.000000
0.000000 0.250980 1.000000
0.125490 0.250980 1.000000
0.250980 0.250980 1.000000
0.376471 0.250980 1.000000
0.501961 0.250980 1.000000
0.623529 0.250980 1.000000
0.749020 0.250980 1.000000
0.874510 0.250980 1.000000
1.000000 0.250980 1.000000
0.000000 0.376471 1.000000
0.125490 0.376471 1.000000
0.250980 0.376471 1.000000
0.376471 0.376471 1.000000
0.501961 0.376471 1.000000
0.623529 0.376471 1.000000
0.749020 0.376471 1.000000
0.874510 0.376471 1.000000
1.000000 0.376471 1.000000
0.000000 0.501961 1.000000
0.125490 0.501961 1.000000
0.250980 0.501961 1.000000
0.376471 0.501961 1.000000
0.501961 0.501961 1.000000
0.623529 0.501961 1.000000
0.749020 0.501961 1.000000
0.874510 0.501961 1.000000
1.000000 0.501961 1.000000
0.000000 0.623529 1.000000
0.125490 0.623529 1.000000
0.250980 0.623529 1.000000
0.376471 0.623529 1.000000
0.501961 0.623529 1.000000
0.623529 0.623529 1.000000
0.749020 0.623529 1.000000
0.874510 0.623529 1.000000
1.000000 0.623529 1.000000
0.000000 0.749020 1.000000
0.125490 0.749020 1.000000
0.250980 0.749020 1.000000
0.376471 0.749020 1.000000
0.501961 0.749020 1.000000
0.623529 0.749020 1.000000
0.749020 0.749020 1.000000
0.874510 0.749020 1.000000
1.000000 0.749020 1.000000
0.000000 0.874510 1.000000
0.125490 0.874510 1.000000
0.250980 0.874510 1.000000
0.376471 0.874510 1.000000
0.501961 0.874510 1.000000
0.623529 0.874510 1.000000
0.749020 0.874510 1.000000
0.874510 0.874510 1.000000
1.000000 0.874510 1.000000
0.000000 1.000000 1.000000
0.125490 1.000000 1.000000
0.250980 1.000000 1.000000
0.376471 1.000000 1.000000
0.501961 1.000000 1.000000
0.623529 1.000000 1.000000
0.749020 1.000000 1.000000
0.874510 1.000000 1.000000
1.000000 1.000000 1.000000
