LUTs/Damaging/LUT_RED/warmth.cube
#Generated by lutCreator.js
#Coded by SirSerch
#https://github.com/SirSerch/LutCreatorJs
TITLE lutCreatorJs_25
LUT_3D_SIZE 25
0.000000 0.000000 0.000000
0.043137 0.000000 0.000000
0.082353 0.000000 0.000000
0.125490 0.000000 0.000000
0.168627 0.000000 0.000000
0.207843 0.000000 0.000000
0.250980 0.000000 0.000000
0.290196 0.000000 0.000000
0.333333 0.000000 0.000000
0.376471 0.000000 0.000000
0.415686 0.000000 0.000000
0.458824 0.000000 0.000000
0.501961 0.000000 0.000000
0.541176 0.000000 0.000000
0.584314 0.000000 0.000000
0.623529 0.000000 0.000000
0.666667 0.000000 0.000000
0.709804 0.000000 0.000000
0.749020 0.000000 0.000000
0.792157 0.000000 0.000000
0.835294 0.000000 0.000000
0.874510 0.000000 0.000000
0.917647 0.000000 0.000000
0.956863 0.000000 0.000000
1.000000 0.000000 0.000000
0.000000 0.043137 0.000000
0.043137 0.043137 0.000000
0.082353 0.043137 0.000000
0.125490 0.043137 0.000000
0.168627 0.043137 0.000000
0.207843 0.043137 0.000000
0.250980 0.043137 0.000000
0.290196 0.043137 0.000000
0.333333 0.043137 0.000000
0.376471 0.043137 0.000000
0.415686 0.043137 0.000000
0.458824 0.043137 0.000000
0.501961 0.043137 0.000000
0.541176 0.043137 0.000000
0.584314 0.043137 0.000000
0.623529 0.043137 0.000000
0.666667 0.043137 0.000000
0.709804 0.043137 0.000000
0.749020 0.043137 0.000000
0.792157 0.043137 0.000000
0.835294 0.043137 0.000000
0.874510 0.043137 0.000000
0.917647 0.043137 0.000000
0.956863 0.043137 0.000000
1.000000 0.043137 0.000000
0.000000 0.082353 0.000000
0.043137 0.082353 0.000000
0.082353 0.082353 0.000000
0.125490 0.082353 0.000000
0.168627 0.082353 0.000000
0.207843 0.082353 0.000000
0.250980 0.082353 0.000000
0.290196 0.082353 0.000000
0.333333 0.082353 0.000000
0.376471 0.082353 0.000000
0.415686 0.082353 0.000000
0.458824 0.082353 0.000000
0.501961 0.082353 0.000000
0.541176 0.082353 0.000000
0.584314 0.082353 0.000000
0.623529 0.082353 0.000000
0.666667 0.082353 0.000000
0.709804 0.082353 0.000000
0.749020 0.082353 0.000000
0.792157 0.082353 0.000000
0.835294 0.082353 0.000000
0.874510 0.082353 0.000000
0.917647 0.082353 0.000000
0.956863 0.082353 0.000000
1.000000 0.082353 0.000000
0.000000 0.125490 0.000000
0.043137 0.125490 0.000000
0.082353 0.125490 0.000000
0.125490 0.125490 0.000000
0.168627 0.125490 0.000000
0.207843 0.125490 0.000000
0.250980 0.125490 0.000000
0.290196 0.125490 0.000000
0.333333 0.125490 0.000000
0.376471 0.125490 0.000000
0.415686 0.125490 0.000000
0.458824 0.125490 0.000000
0.501961 0.125490 0.000000
0.541176 0.125490 0.000000
0.584314 0.125490 0.000000
0.623529 0.125490 0.000000
0.666667 0.125490 0.000000
0.709804 0.125490 0.000000
0.749020 0.125490 0.000000
0.792157 0.125490 0.000000
0.835294 0.125490 0.000000
0.874510 0.125490 0.000000
0.917647 0.125490 0.000000
0.956863 0.125490 0.000000
1.000000 0.125490 0.000000
0.000000 0.168627 0.000000
0.043137 0.168627 0.000000
0.082353 0.168627 0.000000
0.125490 0.168627 0.000000
0.168627 0.168627 0.000000
0.207843 0.168627 0.000000
0.250980 0.168627 0.000000
0.290196 0.168627 0.000000
0.333333 0.168627 0.000000
0.376471 0.168627 0.000000
0.415686 0.168627 0.000000
0.458824 0.168627 0.000000
0.501961 0.168627 0.000000
0.541176 0.168627 0.000000
0.584314 0.168627 0.000000
0.623529 0.168627 0.000000
0.666667 0.168627 0.000000
0.709804 0.168627 0.000000
0.749020 0.168627 0.000000
0.792157 0.168627 0.000000
0.835294 0.168627 0.000000
0.874510 0.168627 0.000000
0.917647 0.168627 0.000000
0.956863 0.168627 0.000000
1.000000 0.168627 0.000000
0.000000 0.207843 0.000000
0.043137 0.207843 0.000000
0.082353 0.207843 0.000000
0.125490 0.207843 0.000000
0.168627 0.207843 0.000000
0.207843 0.207843 0.000000
0.250980 0.207843 0.000000
0.290196 0.207843 0.000000
0.333333 0.207843 0.000000
0.376471 0.207843 0.000000
0.415686 0.207843 0.000000
0.458824 0.207843 0.000000
0.501961 0.207843 0.000000
0.541176 0.207843 0.000000
0.584314 0.207843 0.000000
0.623529 0.207843 0.000000
0.666667 0.207843 0.000000
0.709804 0.207843 0.000000
0.749020 0.207843 0.000000
0.792157 0.207843 0.000000
0.835294 0.207843 0.000000
0.874510 0.207843 0.000000
0.917647 0.207843 0.000000
0.956863 0.207843 0.000000
1.000000 0.207843 0.000000
0.000000 0.250980 0.000000
0.043137 0.250980 0.000000
0.082353 0.250980 0.000000
0.125490 0.250980 0.000000
0.168627 0.250980 0.000000
0.207843 0.250980 0.000000
0.250980 0.250980 0.000000
0.290196 0.250980 0.000000
0.333333 0.250980 0.000000
0.376471 0.250980 0.000000
0.415686 0.250980 0.000000
0.458824 0.250980 0.000000
0.501961 0.250980 0.000000
0.541176 0.250980 0.000000
0.584314 0.250980 0.000000
0.623529 0.250980 0.000000
0.666667 0.250980 0.000000
0.709804 0.250980 0.000000
0.749020 0.250980 0.000000
0.792157 0.250980 0.000000
0.835294 0.250980 0.000000
0.874510 0.250980 0.000000
0.917647 0.250980 0.000000
0.956863 0.250980 0.000000
1.000000 0.250980 0.000000
0.000000 0.290196 0.000000
0.043137 0.290196 0.000000
0.082353 0.290196 0.000000
0.125490 0.290196 0.000000
0.168627 0.290196 0.000000
0.207843 0.290196 0.000000
0.250980 0.290196 0.000000
0.290196 0.290196 0.000000
0.333333 0.290196 0.000000
0.376471 0.290196 0.000000
0.415686 0.290196 0.000000
0.458824 0.290196 0.000000
0.501961 0.290196 0.000000
0.541176 0.290196 0.000000
0.584314 0.290196 0.000000
0.623529 0.290196 0.000000
0.666667 0.290196 0.000000
0.709804 0.290196 0.000000
0.749020 0.290196 0.000000
0.792157 0.290196 0.000000
0.835294 0.290196 0.000000
0.874510 0.290196 0.000000
0.917647 0.290196 0.000000
0.956863 0.290196 0.000000
1.000000 0.290196 0.000000
0.000000 0.333333 0.000000
0.043137 0.333333 0.000000
0.082353 0.333333 0.000000
0.125490 0.333333 0.000000
0.168627 0.333333 0.000000
0.207843 0.333333 0.000000
0.250980 0.333333 0.000000
0.290196 0.333333 0.000000
0.333333 0.333333 0.000000
0.376471 0.333333 0.000000
0.415686 0.333333 0.000000
0.458824 0.333333 0.000000
0.501961 0.333333 0.000000
0.541176 0.333333 0.000000
0.584314 0.333333 0.000000
0.623529 0.333333 0.000000
0.666667 0.333333 0.000000
0.709804 0.333333 0.000000
0.749020 0.333333 0.000000
0.792157 0.333333 0.000000
0.835294 0.333333 0.000000
0.874510 0.333333 0.000000
0.917647 0.333333 0.000000
0.956863 0.333333 0.000000
1.000000 0.333333 0.000000
0.000000 0.376471 0.000000
0.043137 0.376471 0.000000
0.082353 0.376471 0.000000
0.125490 0.376471 0.000000
0.168627 0.376471 0.000000
0.207843 0.376471 0.000000
0.250980 0.376471 0.000000
0.290196 0.376471 0.000000
0.333333 0.376471 0.000000
0.376471 0.376471 0.000000
0.415686 0.376471 0.000000
0.458824 0.376471 0.000000
0.501961 0.376471 0.000000
0.541176 0.376471 0.000000
0.584314 0.376471 0.000000
0.623529 0.376471 0.000000
0.666667 0.376471 0.000000
0.709804 0.376471 0.000000
0.749020 0.376471 0.000000
0.792157 0.376471 0.000000
0.835294 0.376471 0.000000
0.874510 0.376471 0.000000
0.917647 0.376471 0.000000
0.956863 0.376471 0.000000
1.000000 0.376471 0.000000
0.000000 0.415686 0.000000
0.043137 0.415686 0.000000
0.082353 0.415686 0.000000
0.125490 0.415686 0.000000
0.168627 0.415686 0.000000
0.207843 0.415686 0.000000
0.250980 0.415686 0.000000
0.290196 0.415686 0.000000
0.333333 0.415686 0.000000
0.376471 0.415686 0.000000
0.415686 0.415686 0.000000
0.458824 0.415686 0.000000
0.501961 0.415686 0.000000
0.541176 0.415686 0.000000
0.584314 0.415686 0.000000
0.623529 0.415686 0.000000
0.666667 0.415686 0.000000
0.709804 0.415686 0.000000
0.749020 0.415686 0.000000
0.792157 0.415686 0.000000
0.835294 0.415686 0.000000
0.874510 0.415686 0.000000
0.917647 0.415686 0.000000
0.956863 0.415686 0.000000
1.000000 0.415686 0.000000
0.000000 0.458824 0.000000
0.043137 0.458824 0.000000
0.082353 0.458824 0.000000
0.125490 0.458824 0.000000
0.168627 0.458824 0.000000
0.207843 0.458824 0.000000
0.250980 0.458824 0.000000
0.290196 0.458824 0.000000
0.333333 0.458824 0.000000
0.376471 0.458824 0.000000
0.415686 0.458824 0.000000
0.458824 0.458824 0.000000
0.501961 0.458824 0.000000
0.541176 0.458824 0.000000
0.584314 0.458824 0.000000
0.623529 0.458824 0.000000
0.666667 0.458824 0.000000
0.709804 0.458824 0.000000
0.749020 0.458824 0.000000
0.792157 0.458824 0.000000
0.835294 0.458824 0.000000
0.874510 0.458824 0.000000
0.917647 0.458824 0.000000
0.956863 0.458824 0.000000
1.000000 0.458824 0.000000
0.000000 0.501961 0.000000
0.043137 0.501961 0.000000
0.082353 0.501961 0.000000
0.125490 0.501961 0.000000
0.168627 0.501961 0.000000
0.207843 0.501961 0.000000
0.250980 0.501961 0.000000
0.290196 0.501961 0.000000
0.333333 0.501961 0.000000
0.376471 0.501961 0.000000
0.415686 0.501961 0.000000
0.458824 0.501961 0.000000
0.501961 0.501961 0.000000
0.541176 0.501961 0.000000
0.584314 0.501961 0.000000
0.623529 0.501961 0.000000
0.666667 0.501961 0.000000
0.709804 0.501961 0.000000
0.749020 0.501961 0.000000
0.792157 0.501961 0.000000
0.835294 0.501961 0.000000
0.874510 0.501961 0.000000
0.917647 0.501961 0.000000
0.956863 0.501961 0.000000
1.000000 0.501961 0.000000
0.000000 0.541176 0.000000
0.043137 0.541176 0.000000
0.082353 0.541176 0.000000
0.125490 0.541176 0.000000
0.168627 0.541176 0.000000
0.207843 0.541176 0.000000
0.250980 0.541176 0.000000
0.290196 0.541176 0.000000
0.333333 0.541176 0.000000
0.376471 0.541176 0.000000
0.415686 0.541176 0.000000
0.458824 0.541176 0.000000
0.501961 0.541176 0.000000
0.541176 0.541176 0.000000
0.584314 0.541176 0.000000
0.623529 0.541176 0.000000
0.666667 0.541176 0.000000
0.709804 0.541176 0.000000
0.749020 0.541176 0.000000
0.792157 0.541176 0.000000
0.835294 0.541176 0.000000
0.874510 0.541176 0.000000
0.917647 0.541176 0.000000
0.956863 0.541176 0.000000
1.000000 0.541176 0.000000
0.000000 0.584314 0.000000
0.043137 0.584314 0.000000
0.082353 0.584314 0.000000
0.125490 0.584314 0.000000
0.168627 0.584314 0.000000
0.207843 0.584314 0.000000
0.250980 0.584314 0.000000
0.290196 0.584314 0.000000
0.333333 0.584314 0.000000
0.376471 0.584314 0.000000
0.415686 0.584314 0.000000
0.458824 0.584314 0.000000
0.501961 0.584314 0.000000
0.541176 0.584314 0.000000
0.584314 0.584314 0.000000
0.623529 0.584314 0.000000
0.666667 0.584314 0.000000
0.709804 0.584314 0.000000
0.749020 0.584314 0.000000
0.792157 0.584314 0.000000
0.835294 0.584314 0.000000
0.874510 0.584314 0.000000
0.917647 0.584314 0.000000
0.956863 0.584314 0.000000
1.000000 0.584314 0.000000
0.000000 0.623529 0.000000
0.043137 0.623529 0.000000
0.082353 0.623529 0.000000
0.125490 0.623529 0.000000
0.168627 0.623529 0.000000
0.207843 0.623529 0.000000
0.250980 0.623529 0.000000
0.290196 0.623529 0.000000
0.333333 0.623529 0.000000
0.376471 0.623529 0.000000
0.415686 0.623529 0.000000
0.458824 0.623529 0.000000
0.501961 0.623529 0.000000
0.541176 0.623529 0.000000
0.584314 0.623529 0.000000
0.623529 0.623529 0.000000
0.666667 0.623529 0.000000
0.709804 0.623529 0.000000
0.749020 0.623529 0.000000
0.792157 0.623529 0.000000
0.835294 0.623529 0.000000
0.874510 0.623529 0.000000
0.917647 0.623529 0.000000
0.956863 0.623529 0.000000
1.000000 0.623529 0.000000
0.000000 0.666667 0.000000
0.043137 0.666667 0.000000
0.082353 0.666667 0.000000
0.125490 0.666667 0.000000
0.168627 0.666667 0.000000
0.207843 0.666667 0.000000
0.250980 0.666667 0.000000
0.290196 0.666667 0.000000
0.333333 0.666667 0.000000
0.376471 0.666667 0.000000
0.415686 0.666667 0.000000
0.458824 0.666667 0.000000
0.501961 0.666667 0.000000
0.541176 0.666667 0.000000
0.584314 0.666667 0.000000
0.623529 0.666667 0.000000
0.666667 0.666667 0.000000
0.709804 0.666667 0.000000
0.749020 0.666667 0.000000
0.792157 0.666667 0.000000
0.835294 0.666667 0.000000
0.874510 0.666667 0.000000
0.917647 0.666667 0.000000
0.956863 0.666667 0.000000
1.000000 0.666667 0.000000
0.000000 0.709804 0.000000
0.043137 0.709804 0.000000
0.082353 0.709804 0.000000
0.125490 0.709804 0.000000
0.168627 0.709804 0.000000
0.207843 0.709804 0.000000
0.250980 0.709804 0.000000
0.290196 0.709804 0.000000
0.333333 0.709804 0.000000
0.376471 0.709804 0.000000
0.415686 0.709804 0.000000
0.458824 0.709804 0.000000
0.501961 0.709804 0.000000
0.541176 0.709804 0.000000
0.584314 0.709804 0.000000
0.623529 0.709804 0.000000
0.666667 0.709804 0.000000
0.709804 0.709804 0.000000
0.749020 0.709804 0.000000
0.792157 0.709804 0.000000
0.835294 0.709804 0.000000
0.874510 0.709804 0.000000
0.917647 0.709804 0.000000
0.956863 0.709804 0.000000
1.000000 0.709804 0.000000
0.000000 0.749020 0.000000
0.043137 0.749020 0.000000
0.082353 0.749020 0.000000
0.125490 0.749020 0.000000
0.168627 0.749020 0.000000
0.207843 0.749020 0.000000
0.250980 0.749020 0.000000
0.290196 0.749020 0.000000
0.333333 0.749020 0.000000
0.376471 0.749020 0.000000
0.415686 0.749020 0.000000
0.458824 0.749020 0.000000
0.501961 0.749020 0.000000
0.541176 0.749020 0.000000
0.584314 0.749020 0.000000
0.623529 0.749020 0.000000
0.666667 0.749020 0.000000
0.709804 0.749020 0.000000
0.749020 0.749020 0.000000
0.792157 0.749020 0.000000
0.835294 0.749020 0.000000
0.874510 0.749020 0.000000
0.917647 0.749020 0.000000
0.956863 0.749020 0.000000
1.000000 0.749020 0.000000
0.000000 0.792157 0.000000
0.043137 0.792157 0.000000
0.082353 0.792157 0.000000
0.125490 0.792157 0.000000
0.168627 0.792157 0.000000
0.207843 0.792157 0.000000
0.250980 0.792157 0.000000
0.290196 0.792157 0.000000
0.333333 0.792157 0.000000
0.376471 0.792157 0.000000
0.415686 0.792157 0.000000
0.458824 0.792157 0.000000
0.501961 0.792157 0.000000
0.541176 0.792157 0.000000
0.584314 0.792157 0.000000
0.623529 0.792157 0.000000
0.666667 0.792157 0.000000
0.709804 0.792157 0.000000
0.749020 0.792157 0.000000
0.792157 0.792157 0.000000
0.835294 0.792157 0.000000
0.874510 0.792157 0.000000
0.917647 0.792157 0.000000
0.956863 0.792157 0.000000
1.000000 0.792157 0.000000
0.000000 0.835294 0.000000
0.043137 0.835294 0.000000
0.082353 0.835294 0.000000
0.125490 0.835294 0.000000
0.168627 0.835294 0.000000
0.207843 0.835294 0.000000
0.250980 0.835294 0.000000
0.290196 0.835294 0.000000
0.333333 0.835294 0.000000
0.376471 0.835294 0.000000
0.415686 0.835294 0.000000
0.458824 0.835294 0.000000
0.501961 0.835294 0.000000
0.541176 0.835294 0.000000
0.584314 0.835294 0.000000
0.623529 0.835294 0.000000
0.666667 0.835294 0.000000
0.709804 0.835294 0.000000
0.749020 0.835294 0.000000
0.792157 0.835294 0.000000
0.835294 0.835294 0.000000
0.874510 0.835294 0.000000
0.917647 0.835294 0.000000
0.956863 0.835294 0.000000
1.000000 0.835294 0.000000
0.000000 0.874510 0.000000
0.043137 0.874510 0.000000
0.082353 0.874510 0.000000
0.125490 0.874510 0.000000
0.168627 0.874510 0.000000
0.207843 0.874510 0.000000
0.250980 0.874510 0.000000
0.290196 0.874510 0.000000
0.333333 0.874510 0.000000
0.376471 0.874510 0.000000
0.415686 0.874510 0.000000
0.458824 0.874510 0.000000
0.501961 0.874510 0.000000
0.541176 0.874510 0.000000
0.584314 0.874510 0.000000
0.623529 0.874510 0.000000
0.666667 0.874510 0.000000
0.709804 0.874510 0.000000
0.749020 0.874510 0.000000
0.792157 0.874510 0.000000
0.835294 0.874510 0.000000
0.874510 0.874510 0.000000
0.917647 0.874510 0.000000
0.956863 0.874510 0.000000
1.000000 0.874510 0.000000
0.000000 0.917647 0.000000
0.043137 0.917647 0.000000
0.082353 0.917647 0.000000
0.125490 0.917647 0.000000
0.168627 0.917647 0.000000
0.207843 0.917647 0.000000
0.250980 0.917647 0.000000
0.290196 0.917647 0.000000
0.333333 0.917647 0.000000
0.376471 0.917647 0.000000
0.415686 0.917647 0.000000
0.458824 0.917647 0.000000
0.501961 0.917647 0.000000
0.541176 0.917647 0.000000
0.584314 0.917647 0.000000
0.623529 0.917647 0.000000
0.666667 0.917647 0.000000
0.709804 0.917647 0.000000
0.749020 0.917647 0.000000
0.792157 0.917647 0.000000
0.835294 0.917647 0.000000
0.874510 0.917647 0.000000
0.917647 0.917647 0.000000
0.956863 0.917647 0.000000
1.000000 0.917647 0.000000
0.000000 0.956863 0.000000
0.043137 0.956863 0.000000
0.082353 0.956863 0.000000
0.125490 0.956863 0.000000
0.168627 0.956863 0.000000
0.207843 0.956863 0.000000
0.250980 0.956863 0.000000
0.290196 0.956863 0.000000
0.333333 0.956863 0.000000
0.376471 0.956863 0.000000
0.415686 0.956863 0.000000
0.458824 0.956863 0.000000
0.501961 0.956863 0.000000
0.541176 0.956863 0.000000
0.584314 0.956863 0.000000
0.623529 0.956863 0.000000
0.666667 0.956863 0.000000
0.709804 0.956863 0.000000
0.749020 0.956863 0.000000
0.792157 0.956863 0.000000
0.835294 0.956863 0.000000
0.874510 0.956863 0.000000
0.917647 0.956863 0.000000
0.956863 0.956863 0.000000
1.000000 0.956863 0.000000
0.000000 1.000000 0.000000
0.043137 1.000000 0.000000
0.082353 1.000000 0.000000
0.125490 1.000000 0.000000
0.168627 1.000000 0.000000
0.207843 1.000000 0.000000
0.250980 1.000000 0.000000
0.290196 1.000000 0.000000
0.333333 1.000000 0.000000
0.376471 1.000000 0.000000
0.415686 1.000000 0.000000
0.458824 1.000000 0.000000
0.501961 1.000000 0.000000
0.541176 1.000000 0.000000
0.584314 1.000000 0.000000
0.623529 1.000000 0.000000
0.666667 1.000000 0.000000
0.709804 1.000000 0.000000
0.749020 1.000000 0.000000
0.792157 1.000000 0.000000
0.835294 1.000000 0.000000
0.874510 1.000000 0.000000
0.917647 1.000000 0.000000
0.956863 1.000000 0.000000
1.000000 1.000000 0.000000
0.000000 0.000000 0.015686
0.043137 0.000000 0.015686
0.082353 0.000000 0.015686
0.125490 0.000000 0.015686
0.168627 0.000000 0.015686
0.207843 0.000000 0.015686
0.250980 0.000000 0.015686
0.290196 0.000000 0.015686
0.333333 0.000000 0.015686
0.376471 0.000000 0.015686
0.415686 0.000000 0.015686
0.458824 0.000000 0.015686
0.501961 0.000000 0.015686
0.541176 0.000000 0.015686
0.584314 0.000000 0.015686
0.623529 0.000000 0.015686
0.666667 0.000000 0.015686
0.709804 0.000000 0.015686
0.749020 0.000000 0.015686
0.792157 0.000000 0.015686
0.835294 0.000000 0.015686
0.874510 0.000000 0.015686
0.917647 0.000000 0.015686
0.956863 0.000000 0.015686
1.000000 0.000000 0.015686
0.000000 0.043137 0.015686
0.043137 0.043137 0.015686
0.082353 0.043137 0.015686
0.125490 0.043137 0.015686
0.168627 0.043137 0.015686
0.207843 0.043137 0.015686
0.250980 0.043137 0.015686
0.290196 0.043137 0.015686
0.333333 0.043137 0.015686
0.376471 0.043137 0.015686
0.415686 0.043137 0.015686
0.458824 0.043137 0.015686
0.501961 0.043137 0.015686
0.541176 0.043137 0.015686
0.584314 0.043137 0.015686
0.623529 0.043137 0.015686
0.666667 0.043137 0.015686
0.709804 0.043137 0.015686
0.749020 0.043137 0.015686
0.792157 0.043137 0.015686
0.835294 0.043137 0.015686
0.874510 0.043137 0.015686
0.917647 0.043137 0.015686
0.956863 0.043137 0.015686
1.000000 0.043137 0.015686
0.000000 0.082353 0.015686
0.043137 0.082353 0.015686
0.082353 0.082353 0.015686
0.125490 0.082353 0.015686
0.168627 0.082353 0.015686
0.207843 0.082353 0.015686
0.250980 0.082353 0.015686
0.290196 0.082353 0.015686
0.333333 0.082353 0.015686
0.376471 0.082353 0.015686
0.415686 0.082353 0.015686
0.458824 0.082353 0.015686
0.501961 0.082353 0.015686
0.541176 0.082353 0.015686
0.584314 0.082353 0.015686
0.623529 0.082353 0.015686
0.666667 0.082353 0.015686
0.709804 0.082353 0.015686
0.749020 0.082353 0.015686
0.792157 0.082353 0.015686
0.835294 0.082353 0.015686
0.874510 0.082353 0.015686
0.917647 0.082353 0.015686
0.956863 0.082353 0.015686
1.000000 0.082353 0.015686
0.000000 0.125490 0.015686
0.043137 0.125490 0.015686
0.082353 0.125490 0.015686
0.125490 0.125490 0.015686
0.168627 0.125490 0.015686
0.207843 0.125490 0.015686
0.250980 0.125490 0.015686
0.290196 0.125490 0.015686
0.333333 0.125490 0.015686
0.376471 0.125490 0.015686
0.415686 0.125490 0.015686
0.458824 0.125490 0.015686
0.501961 0.125490 0.015686
0.541176 0.125490 0.015686
0.584314 0.125490 0.015686
0.623529 0.125490 0.015686
0.666667 0.125490 0.015686
0.709804 0.125490 0.015686
0.749020 0.125490 0.015686
0.792157 0.125490 0.015686
0.835294 0.125490 0.015686
0.874510 0.125490 0.015686
0.917647 0.125490 0.015686
0.956863 0.125490 0.015686
1.000000 0.125490 0.015686
0.000000 0.168627 0.015686
0.043137 0.168627 0.015686
0.082353 0.168627 0.015686
0.125490 0.168627 0.015686
0.168627 0.168627 0.015686
0.207843 0.168627 0.015686
0.250980 0.168627 0.015686
0.290196 0.168627 0.015686
0.333333 0.168627 0.015686
0.376471 0.168627 0.015686
0.415686 0.168627 0.015686
0.458824 0.168627 0.015686
0.501961 0.168627 0.015686
0.541176 0.168627 0.015686
0.584314 0.168627 0.015686
0.623529 0.168627 0.015686
0.666667 0.168627 0.015686
0.709804 0.168627 0.015686
0.749020 0.168627 0.015686
0.792157 0.168627 0.015686
0.835294 0.168627 0.015686
0.874510 0.168627 0.015686
0.917647 0.168627 0.015686
0.956863 0.168627 0.015686
1.000000 0.168627 0.015686
0.000000 0.207843 0.015686
0.043137 0.207843 0.015686
0.082353 0.207843 0.015686
0.125490 0.207843 0.015686
0.168627 0.207843 0.015686
0.207843 0.207843 0.015686
0.250980 0.207843 0.015686
0.290196 0.207843 0.015686
0.333333 0.207843 0.015686
0.376471 0.207843 0.015686
0.415686 0.207843 0.015686
0.458824 0.207843 0.015686
0.501961 0.207843 0.015686
0.541176 0.207843 0.015686
0.584314 0.207843 0.015686
0.623529 0.207843 0.015686
0.666667 0.207843 0.015686
0.709804 0.207843 0.015686
0.749020 0.207843 0.015686
0.792157 0.207843 0.015686
0.835294 0.207843 0.015686
0.874510 0.207843 0.015686
0.917647 0.207843 0.015686
0.956863 0.207843 0.015686
1.000000 0.207843 0.015686
0.000000 0.250980 0.015686
0.043137 0.250980 0.015686
0.082353 0.250980 0.015686
0.125490 0.250980 0.015686
0.168627 0.250980 0.015686
0.207843 0.250980 0.015686
0.250980 0.250980 0.015686
0.290196 0.250980 0.015686
0.333333 0.250980 0.015686
0.376471 0.250980 0.015686
0.415686 0.250980 0.015686
0.458824 0.250980 0.015686
0.501961 0.250980 0.015686
0.541176 0.250980 0.015686
0.584314 0.250980 0.015686
0.623529 0.250980 0.015686
0.666667 0.250980 0.015686
0.709804 0.250980 0.015686
0.749020 0.250980 0.015686
0.792157 0.250980 0.015686
0.835294 0.250980 0.015686
0.874510 0.250980 0.015686
0.917647 0.250980 0.015686
0.956863 0.250980 0.015686
1.000000 0.250980 0.015686
0.000000 0.290196 0.015686
0.043137 0.290196 0.015686
0.082353 0.290196 0.015686
0.125490 0.290196 0.015686
0.168627 0.290196 0.015686
0.207843 0.290196 0.015686
0.250980 0.290196 0.015686
0.290196 0.290196 0.015686
0.333333 0.290196 0.015686
0.376471 0.290196 0.015686
0.415686 0.290196 0.015686
0.458824 0.290196 0.015686
0.501961 0.290196 0.015686
0.541176 0.290196 0.015686
0.584314 0.290196 0.015686
0.623529 0.290196 0.015686
0.666667 0.290196 0.015686
0.709804 0.290196 0.015686
0.749020 0.290196 0.015686
0.792157 0.290196 0.015686
0.835294 0.290196 0.015686
0.874510 0.290196 0.015686
0.917647 0.290196 0.015686
0.956863 0.290196 0.015686
1.000000 0.290196 0.015686
0.000000 0.333333 0.015686
0.043137 0.333333 0.015686
0.082353 0.333333 0.015686
0.125490 0.333333 0.015686
0.168627 0.333333 0.015686
0.207843 0.333333 0.015686
0.250980 0.333333 0.015686
0.290196 0.333333 0.015686
0.333333 0.333333 0.015686
0.376471 0.333333 0.015686
0.415686 0.333333 0.015686
0.458824 0.333333 0.015686
0.501961 0.333333 0.015686
0.541176 0.333333 0.015686
0.584314 0.333333 0.015686
0.623529 0.333333 0.015686
0.666667 0.333333 0.015686
0.709804 0.333333 0.015686
0.749020 0.333333 0.015686
0.792157 0.333333 0.015686
0.835294 0.333333 0.015686
0.874510 0.333333 0.015686
0.917647 0.333333 0.015686
0.956863 0.333333 0.015686
1.000000 0.333333 0.015686
0.000000 0.376471 0.015686
0.043137 0.376471 0.015686
0.082353 0.376471 0.015686
0.125490 0.376471 0.015686
0.168627 0.376471 0.015686
0.207843 0.376471 0.015686
0.250980 0.376471 0.015686
0.290196 0.376471 0.015686
0.333333 0.376471 0.015686
0.376471 0.376471 0.015686
0.415686 0.376471 0.015686
0.458824 0.376471 0.015686
0.501961 0.376471 0.015686
0.541176 0.376471 0.015686
0.584314 0.376471 0.015686
0.623529 0.376471 0.015686
0.666667 0.376471 0.015686
0.709804 0.376471 0.015686
0.749020 0.376471 0.015686
0.792157 0.376471 0.015686
0.835294 0.376471 0.015686
0.874510 0.376471 0.015686
0.917647 0.376471 0.015686
0.956863 0.376471 0.015686
1.000000 0.376471 0.015686
0.000000 0.415686 0.015686
0.043137 0.415686 0.015686
0.082353 0.415686 0.015686
0.125490 0.415686 0.015686
0.168627 0.415686 0.015686
0.207843 0.415686 0.015686
0.250980 0.415686 0.015686
0.290196 0.415686 0.015686
0.333333 0.415686 0.015686
