LUTs/Damaging/LUT_RED/warmth.cube
#Generated by lutCreator.js
#Coded by SirSerch
#https://github.com/SirSerch/LutCreatorJs
TITLE lutCreatorJs_25
LUT_3D_SIZE 5
0.000000 0.000000 0.000000
0.250980 0.000000 0.000000
0.501961 0.000000 0.000000
0.749020 0.000000 0.000000
1.000000 0.000000 0.000000
0.000000 0.250980 0.000000
0.250980 0.250980 0.000000
0.501961 0.250980 0.000000
0.749020 0.250980 0.000000
1.000000 0.250980 0.000000
0.000000 0.501961 0.000000
0.250980 0.501961 0.000000
0.501961 0.501961 0.000000
0.749020 0.501961 0.000000
1.000000 0.501961 0.000000
0.000000 0.749020 0.000000
0.250980 0.749020 0.000000
0.501961 0.749020 0.000000
0.749020 0.749020 0.000000
1.000000 0.749020 0.000000
0.000000 1.000000 0.000000
0.250980 1.000000 0.000000
0.501961 1.000000 0.000000
0.749020 1.000000 0.000000
1.000000 1.000000 0.000000
0.000000 0.000000 0.101961
0.250980 0.000000 0.101961
0.501961 0.000000 0.101961
0.749020 0.000000 0.101961
1.000000 0.000000 0.101961
0.000000 0.250980 0.101961
0.250980 0.250980 0.101961
0.501961 0.250980 0.101961
0.749020 0.250980 0.101961
1.000000 0.250980 0.101961
0.000000 0.501961 0.101961
0.250980 0.501961 0.101961
0.501961 0.501961 0.101961
0.749020 0.501961 0.101961
1.000000 0.501961 0.101961
0.000000 0.749020 0.101961
0.250980 0.749020 0.101961
0.501961 0.749020 0.101961
0.749020 0.749020 0.101961
1.000000 0.749020 0.101961
0.000000 1.000000 0.101961
0.250980 1.000000 0.101961
0.501961 1.000000 0.101961
0.749020 1.000000 0.101961
1.000000 1.000000 0.101961
0.000000 0.000000 0.254902
0.250980 0.000000 0.254902
0.501961 0.000000 0.254902
0.749020 0.000000 0.254902
1.000000 0.000000 0.254902
0.000000 0.250980 0.254902
0.250980 0.250980 0.254902
0.501961 0.250980 0.254902
0.749020 0.250980 0.254902
1.000000 0.250980 0.254902
0.000000 0.501961 0.254902
0.250980 0.501961 0.254902
0.501961 0.501961 0.254902
0.749020 0.501961 0.254902
1.000000 0.501961 0.254902
0.000000 0.749020 0.254902
0.250980 0.749020 0.254902
0.501961 0.749020 0.254902
0.749020 0.749020 0.254902
1.000000 0.749020 0.254902
0.000000 1.000000 0.254902
0.250980 1.000000 0.254902
0.501961 1.000000 0.254902
0.749020 1.000000 0.254902
1.000000 1.000000 0.254902
0.000000 0.000000 0.517647
0.250980 0.000000 0.517647
0.501961 0.000000 0.517647
0.749020 0.000000 0.517647
1.000000 0.000000 0.517647
0.000000 0.250980 0.517647
0.250980 0.250980 0.517647
0.501961 0.250980 0.517647
0.749020 0.250980 0.517647
1.000000 0.250980 0.517647
0.000000 0.501961 0.517647
0.250980 0.501961 0.517647
0.501961 0.501961 0.517647
0.749020 0.501961 0.517647
1.000000 0.501961 0.517647
0.000000 0.749020 0.517647
0.250980 0.749020 0.517647
0.501961 0.749020 0.517647
0.749020 0.749020 0.517647
1.000000 0.749020 0.517647
0.000000 1.000000 0.517647
0.250980 1.000000 0.517647
0.501961 1.000000 0.517647
0.749020 1.000000 0.517647
1.000000 1.000000 0.517647
0.000000 0.000000 1.000000
0.250980 0.000000 1.000000
0.501961 0.000000 1.000000
0.749020 0.000000 1.000000
1.000000 0.000000 1.000000
0.000000 0.250980 1.000000
0.250980 0.250980 1.000000
0.501961 0.250980 1.000000
0.749020 0.250980 1.000000
1.000000 0.250980 1.000000
0.000000 0.501961 1.000000
0.250980 0.501961 1.000000
0.501961 0.501961 1.000000
0.749020 0.501961 1.000000
1.000000 0.501961 1.000000
0.000000 0.749020 1.000000
0.250980 0.749020 1.000000
0.501961 0.749020 1.000000
0.749020 0.749020 1.000000
1.000000 0.749020 1.000000
0.000000 1.000000 1.000000
0.250980 1.000000 1.000000
0.501961 1.000000 1.000000
0.749020 1.000000 1.000000
1.000000 1.000000 1.000000
