LUTs/Damaging/LUT_RED/yelllow_midtones.cube
#Generated by lutCreator.js
#Coded by SirSerch
#https://github.com/SirSerch/LutCreatorJs
TITLE lutCreatorJs_25
LUT_3D_SIZE 5
0.000000 0.000000 0.000000
0.400000 0.000000 0.000000
0.694118 0.000000 0.000000
0.874510 0.000000 0.000000
1.000000 0.000000 0.000000
0.000000 0.250980 0.000000
0.400000 0.250980 0.000000
0.694118 0.250980 0.000000
0.874510 0.250980 0.000000
1.000000 0.250980 0.000000
0.000000 0.501961 0.000000
0.400000 0.501961 0.000000
0.694118 0.501961 0.000000
0.874510 0.501961 0.000000
1.000000 0.501961 0.000000
0.000000 0.749020 0.000000
0.400000 0.749020 0.000000
0.694118 0.749020 0.000000
0.874510 0.749020 0.000000
1.000000 0.749020 0.000000
0.000000 1.000000 0.000000
0.400000 1.000000 0.000000
0.694118 1.000000 0.000000
0.874510 1.000000 0.000000
1.000000 1.000000 0.000000
0.000000 0.000000 0.082353
0.400000 0.000000 0.082353
0.694118 0.000000 0.082353
0.874510 0.000000 0.082353
1.000000 0.000000 0.082353
0.000000 0.250980 0.082353
0.400000 0.250980 0.082353
0.694118 0.250980 0.082353
0.874510 0.250980 0.082353
1.000000 0.250980 0.082353
0.000000 0.501961 0.082353
0.400000 0.501961 0.082353
0.694118 0.501961 0.082353
0.874510 0.501961 0.082353
1.000000 0.501961 0.082353
0.000000 0.749020 0.082353
0.400000 0.749020 0.082353
0.694118 0.749020 0.082353
0.874510 0.749020 0.082353
1.000000 0.749020 0.082353
0.000000 1.000000 0.082353
0.400000 1.000000 0.082353
0.694118 1.000000 0.082353
0.874510 1.000000 0.082353
1.000000 1.000000 0.082353
0.000000 0.000000 0.211765
0.400000 0.000000 0.211765
0.694118 0.000000 0.211765
0.874510 0.000000 0.211765
1.000000 0.000000 0.211765
0.000000 0.250980 0.211765
0.400000 0.250980 0.211765
0.694118 0.250980 0.211765
0.874510 0.250980 0.211765
1.000000 0.250980 0.211765
0.000000 0.501961 0.211765
0.400000 0.501961 0.211765
0.694118 0.501961 0.211765
0.874510 0.501961 0.211765
1.000000 0.501961 0.211765
0.000000 0.749020 0.211765
0.400000 0.749020 0.211765
0.694118 0.749020 0.211765
0.874510 0.749020 0.211765
1.000000 0.749020 0.211765
0.000000 1.000000 0.211765
0.400000 1.000000 0.211765
0.694118 1.000000 0.211765
0.874510 1.000000 0.211765
1.000000 1.000000 0.211765
0.000000 0.000000 0.435294
0.400000 0.000000 0.435294
0.694118 0.000000 0.435294
0.874510 0.000000 0.435294
1.000000 0.000000 0.435294
0.000000 0.250980 0.435294
0.400000 0.250980 0.435294
0.694118 0.250980 0.435294
0.874510 0.250980 0.435294
1.000000 0.250980 0.435294
0.000000 0.501961 0.435294
0.400000 0.501961 0.435294
0.694118 0.501961 0.435294
0.874510 0.501961 0.435294
1.000000 0.501961 0.435294
0.000000 0.749020 0.435294
0.400000 0.749020 0.435294
0.694118 0.749020 0.435294
0.874510 0.749020 0.435294
1.000000 0.749020 0.435294
0.000000 1.000000 0.435294
0.400000 1.000000 0.435294
0.694118 1.000000 0.435294
0.874510 1.000000 0.435294
1.000000 1.000000 0.435294
0.000000 0.000000 1.000000
0.400000 0.000000 1.000000
0.694118 0.000000 1.000000
0.874510 0.000000 1.000000
1.000000 0.000000 1.000000
0.000000 0.250980 1.000000
0.400000 0.250980 1.000000
0.694118 0.250980 1.000000
0.874510 0.250980 1.000000
1.000000 0.250980 1.000000
0.000000 0.501961 1.000000
0.400000 0.501961 1.000000
0.694118 0.501961 1.000000
0.874510 0.501961 1.000000
1.000000 0.501961 1.000000
0.000000 0.749020 1.000000
0.400000 0.749020 1.000000
0.694118 0.749020 1.000000
0.874510 0.749020 1.000000
1.000000 0.749020 1.000000
0.000000 1.000000 1.000000
0.400000 1.000000 1.000000
0.694118 1.000000 1.000000
0.874510 1.000000 1.000000
1.000000 1.000000 1.000000
