LUTs/Damaging/LUT_RED/yelllow_midtones.cube
#Generated by lutCreator.js
#Coded by SirSerch
#https://github.com/SirSerch/LutCreatorJs
TITLE lutCreatorJs_25
LUT_3D_SIZE 25
0.000000 0.000000 0.000000
0.070588 0.000000 0.000000
0.137255 0.000000 0.000000
0.207843 0.000000 0.000000
0.274510 0.000000 0.000000
0.337255 0.000000 0.000000
0.400000 0.000000 0.000000
0.454902 0.000000 0.000000
0.513725 0.000000 0.000000
0.568627 0.000000 0.000000
0.611765 0.000000 0.000000
0.654902 0.000000 0.000000
0.694118 0.000000 0.000000
0.729412 0.000000 0.000000
0.764706 0.000000 0.000000
0.792157 0.000000 0.000000
0.823529 0.000000 0.000000
0.850980 0.000000 0.000000
0.874510 0.000000 0.000000
0.898039 0.000000 0.000000
0.921569 0.000000 0.000000
0.941176 0.000000 0.000000
0.960784 0.000000 0.000000
0.980392 0.000000 0.000000
1.000000 0.000000 0.000000
0.000000 0.043137 0.000000
0.070588 0.043137 0.000000
0.137255 0.043137 0.000000
0.207843 0.043137 0.000000
0.274510 0.043137 0.000000
0.337255 0.043137 0.000000
0.400000 0.043137 0.000000
0.454902 0.043137 0.000000
0.513725 0.043137 0.000000
0.568627 0.043137 0.000000
0.611765 0.043137 0.000000
0.654902 0.043137 0.000000
0.694118 0.043137 0.000000
0.729412 0.043137 0.000000
0.764706 0.043137 0.000000
0.792157 0.043137 0.000000
0.823529 0.043137 0.000000
0.850980 0.043137 0.000000
0.874510 0.043137 0.000000
0.898039 0.043137 0.000000
0.921569 0.043137 0.000000
0.941176 0.043137 0.000000
0.960784 0.043137 0.000000
0.980392 0.043137 0.000000
1.000000 0.043137 0.000000
0.000000 0.082353 0.000000
0.070588 0.082353 0.000000
0.137255 0.082353 0.000000
0.207843 0.082353 0.000000
0.274510 0.082353 0.000000
0.337255 0.082353 0.000000
0.400000 0.082353 0.000000
0.454902 0.082353 0.000000
0.513725 0.082353 0.000000
0.568627 0.082353 0.000000
0.611765 0.082353 0.000000
0.654902 0.082353 0.000000
0.694118 0.082353 0.000000
0.729412 0.082353 0.000000
0.764706 0.082353 0.000000
0.792157 0.082353 0.000000
0.823529 0.082353 0.000000
0.850980 0.082353 0.000000
0.874510 0.082353 0.000000
0.898039 0.082353 0.000000
0.921569 0.082353 0.000000
0.941176 0.082353 0.000000
0.960784 0.082353 0.000000
0.980392 0.082353 0.000000
1.000000 0.082353 0.000000
0.000000 0.125490 0.000000
0.070588 0.125490 0.000000
0.137255 0.125490 0.000000
0.207843 0.125490 0.000000
0.274510 0.125490 0.000000
0.337255 0.125490 0.000000
0.400000 0.125490 0.000000
0.454902 0.125490 0.000000
0.513725 0.125490 0.000000
0.568627 0.125490 0.000000
0.611765 0.125490 0.000000
0.654902 0.125490 0.000000
0.694118 0.125490 0.000000
0.729412 0.125490 0.000000
0.764706 0.125490 0.000000
0.792157 0.125490 0.000000
0.823529 0.125490 0.000000
0.850980 0.125490 0.000000
0.874510 0.125490 0.000000
0.898039 0.125490 0.000000
0.921569 0.125490 0.000000
0.941176 0.125490 0.000000
0.960784 0.125490 0.000000
0.980392 0.125490 0.000000
1.000000 0.125490 0.000000
0.000000 0.168627 0.000000
0.070588 0.168627 0.000000
0.137255 0.168627 0.000000
0.207843 0.168627 0.000000
0.274510 0.168627 0.000000
0.337255 0.168627 0.000000
0.400000 0.168627 0.000000
0.454902 0.168627 0.000000
0.513725 0.168627 0.000000
0.568627 0.168627 0.000000
0.611765 0.168627 0.000000
0.654902 0.168627 0.000000
0.694118 0.168627 0.000000
0.729412 0.168627 0.000000
0.764706 0.168627 0.000000
0.792157 0.168627 0.000000
0.823529 0.168627 0.000000
0.850980 0.168627 0.000000
0.874510 0.168627 0.000000
0.898039 0.168627 0.000000
0.921569 0.168627 0.000000
0.941176 0.168627 0.000000
0.960784 0.168627 0.000000
0.980392 0.168627 0.000000
1.000000 0.168627 0.000000
0.000000 0.207843 0.000000
0.070588 0.207843 0.000000
0.137255 0.207843 0.000000
0.207843 0.207843 0.000000
0.274510 0.207843 0.000000
0.337255 0.207843 0.000000
0.400000 0.207843 0.000000
0.454902 0.207843 0.000000
0.513725 0.207843 0.000000
0.568627 0.207843 0.000000
0.611765 0.207843 0.000000
0.654902 0.207843 0.000000
0.694118 0.207843 0.000000
0.729412 0.207843 0.000000
0.764706 0.207843 0.000000
0.792157 0.207843 0.000000
0.823529 0.207843 0.000000
0.850980 0.207843 0.000000
0.874510 0.207843 0.000000
0.898039 0.207843 0.000000
0.921569 0.207843 0.000000
0.941176 0.207843 0.000000
0.960784 0.207843 0.000000
0.980392 0.207843 0.000000
1.000000 0.207843 0.000000
0.000000 0.250980 0.000000
0.070588 0.250980 0.000000
0.137255 0.250980 0.000000
0.207843 0.250980 0.000000
0.274510 0.250980 0.000000
0.337255 0.250980 0.000000
0.400000 0.250980 0.000000
0.454902 0.250980 0.000000
0.513725 0.250980 0.000000
0.568627 0.250980 0.000000
0.611765 0.250980 0.000000
0.654902 0.250980 0.000000
0.694118 0.250980 0.000000
0.729412 0.250980 0.000000
0.764706 0.250980 0.000000
0.792157 0.250980 0.000000
0.823529 0.250980 0.000000
0.850980 0.250980 0.000000
0.874510 0.250980 0.000000
0.898039 0.250980 0.000000
0.921569 0.250980 0.000000
0.941176 0.250980 0.000000
0.960784 0.250980 0.000000
0.980392 0.250980 0.000000
1.000000 0.250980 0.000000
0.000000 0.290196 0.000000
0.070588 0.290196 0.000000
0.137255 0.290196 0.000000
0.207843 0.290196 0.000000
0.274510 0.290196 0.000000
0.337255 0.290196 0.000000
0.400000 0.290196 0.000000
0.454902 0.290196 0.000000
0.513725 0.290196 0.000000
0.568627 0.290196 0.000000
0.611765 0.290196 0.000000
0.654902 0.290196 0.000000
0.694118 0.290196 0.000000
0.729412 0.290196 0.000000
0.764706 0.290196 0.000000
0.792157 0.290196 0.000000
0.823529 0.290196 0.000000
0.850980 0.290196 0.000000
0.874510 0.290196 0.000000
0.898039 0.290196 0.000000
0.921569 0.290196 0.000000
0.941176 0.290196 0.000000
0.960784 0.290196 0.000000
0.980392 0.290196 0.000000
1.000000 0.290196 0.000000
0.000000 0.333333 0.000000
0.070588 0.333333 0.000000
0.137255 0.333333 0.000000
0.207843 0.333333 0.000000
0.274510 0.333333 0.000000
0.337255 0.333333 0.000000
0.400000 0.333333 0.000000
0.454902 0.333333 0.000000
0.513725 0.333333 0.000000
0.568627 0.333333 0.000000
0.611765 0.333333 0.000000
0.654902 0.333333 0.000000
0.694118 0.333333 0.000000
0.729412 0.333333 0.000000
0.764706 0.333333 0.000000
0.792157 0.333333 0.000000
0.823529 0.333333 0.000000
0.850980 0.333333 0.000000
0.874510 0.333333 0.000000
0.898039 0.333333 0.000000
0.921569 0.333333 0.000000
0.941176 0.333333 0.000000
0.960784 0.333333 0.000000
0.980392 0.333333 0.000000
1.000000 0.333333 0.000000
0.000000 0.376471 0.000000
0.070588 0.376471 0.000000
0.137255 0.376471 0.000000
0.207843 0.376471 0.000000
0.274510 0.376471 0.000000
0.337255 0.376471 0.000000
0.400000 0.376471 0.000000
0.454902 0.376471 0.000000
0.513725 0.376471 0.000000
0.568627 0.376471 0.000000
0.611765 0.376471 0.000000
0.654902 0.376471 0.000000
0.694118 0.376471 0.000000
0.729412 0.376471 0.000000
0.764706 0.376471 0.000000
0.792157 0.376471 0.000000
0.823529 0.376471 0.000000
0.850980 0.376471 0.000000
0.874510 0.376471 0.000000
0.898039 0.376471 0.000000
0.921569 0.376471 0.000000
0.941176 0.376471 0.000000
0.960784 0.376471 0.000000
0.980392 0.376471 0.000000
1.000000 0.376471 0.000000
0.000000 0.415686 0.000000
0.070588 0.415686 0.000000
0.137255 0.415686 0.000000
0.207843 0.415686 0.000000
0.274510 0.415686 0.000000
0.337255 0.415686 0.000000
0.400000 0.415686 0.000000
0.454902 0.415686 0.000000
0.513725 0.415686 0.000000
0.568627 0.415686 0.000000
0.611765 0.415686 0.000000
0.654902 0.415686 0.000000
0.694118 0.415686 0.000000
0.729412 0.415686 0.000000
0.764706 0.415686 0.000000
0.792157 0.415686 0.000000
0.823529 0.415686 0.000000
0.850980 0.415686 0.000000
0.874510 0.415686 0.000000
0.898039 0.415686 0.000000
0.921569 0.415686 0.000000
0.941176 0.415686 0.000000
0.960784 0.415686 0.000000
0.980392 0.415686 0.000000
1.000000 0.415686 0.000000
0.000000 0.458824 0.000000
0.070588 0.458824 0.000000
0.137255 0.458824 0.000000
0.207843 0.458824 0.000000
0.274510 0.458824 0.000000
0.337255 0.458824 0.000000
0.400000 0.458824 0.000000
0.454902 0.458824 0.000000
0.513725 0.458824 0.000000
0.568627 0.458824 0.000000
0.611765 0.458824 0.000000
0.654902 0.458824 0.000000
0.694118 0.458824 0.000000
0.729412 0.458824 0.000000
0.764706 0.458824 0.000000
0.792157 0.458824 0.000000
0.823529 0.458824 0.000000
0.850980 0.458824 0.000000
0.874510 0.458824 0.000000
0.898039 0.458824 0.000000
0.921569 0.458824 0.000000
0.941176 0.458824 0.000000
0.960784 0.458824 0.000000
0.980392 0.458824 0.000000
1.000000 0.458824 0.000000
0.000000 0.501961 0.000000
0.070588 0.501961 0.000000
0.137255 0.501961 0.000000
0.207843 0.501961 0.000000
0.274510 0.501961 0.000000
0.337255 0.501961 0.000000
0.400000 0.501961 0.000000
0.454902 0.501961 0.000000
0.513725 0.501961 0.000000
0.568627 0.501961 0.000000
0.611765 0.501961 0.000000
0.654902 0.501961 0.000000
0.694118 0.501961 0.000000
0.729412 0.501961 0.000000
0.764706 0.501961 0.000000
0.792157 0.501961 0.000000
0.823529 0.501961 0.000000
0.850980 0.501961 0.000000
0.874510 0.501961 0.000000
0.898039 0.501961 0.000000
0.921569 0.501961 0.000000
0.941176 0.501961 0.000000
0.960784 0.501961 0.000000
0.980392 0.501961 0.000000
1.000000 0.501961 0.000000
0.000000 0.541176 0.000000
0.070588 0.541176 0.000000
0.137255 0.541176 0.000000
0.207843 0.541176 0.000000
0.274510 0.541176 0.000000
0.337255 0.541176 0.000000
0.400000 0.541176 0.000000
0.454902 0.541176 0.000000
0.513725 0.541176 0.000000
0.568627 0.541176 0.000000
0.611765 0.541176 0.000000
0.654902 0.541176 0.000000
0.694118 0.541176 0.000000
0.729412 0.541176 0.000000
0.764706 0.541176 0.000000
0.792157 0.541176 0.000000
0.823529 0.541176 0.000000
0.850980 0.541176 0.000000
0.874510 0.541176 0.000000
0.898039 0.541176 0.000000
0.921569 0.541176 0.000000
0.941176 0.541176 0.000000
0.960784 0.541176 0.000000
0.980392 0.541176 0.000000
1.000000 0.541176 0.000000
0.000000 0.584314 0.000000
0.070588 0.584314 0.000000
0.137255 0.584314 0.000000
0.207843 0.584314 0.000000
0.274510 0.584314 0.000000
0.337255 0.584314 0.000000
0.400000 0.584314 0.000000
0.454902 0.584314 0.000000
0.513725 0.584314 0.000000
0.568627 0.584314 0.000000
0.611765 0.584314 0.000000
0.654902 0.584314 0.000000
0.694118 0.584314 0.000000
0.729412 0.584314 0.000000
0.764706 0.584314 0.000000
0.792157 0.584314 0.000000
0.823529 0.584314 0.000000
0.850980 0.584314 0.000000
0.874510 0.584314 0.000000
0.898039 0.584314 0.000000
0.921569 0.584314 0.000000
0.941176 0.584314 0.000000
0.960784 0.584314 0.000000
0.980392 0.584314 0.000000
1.000000 0.584314 0.000000
0.000000 0.623529 0.000000
0.070588 0.623529 0.000000
0.137255 0.623529 0.000000
0.207843 0.623529 0.000000
0.274510 0.623529 0.000000
0.337255 0.623529 0.000000
0.400000 0.623529 0.000000
0.454902 0.623529 0.000000
0.513725 0.623529 0.000000
0.568627 0.623529 0.000000
0.611765 0.623529 0.000000
0.654902 0.623529 0.000000
0.694118 0.623529 0.000000
0.729412 0.623529 0.000000
0.764706 0.623529 0.000000
0.792157 0.623529 0.000000
0.823529 0.623529 0.000000
0.850980 0.623529 0.000000
0.874510 0.623529 0.000000
0.898039 0.623529 0.000000
0.921569 0.623529 0.000000
0.941176 0.623529 0.000000
0.960784 0.623529 0.000000
0.980392 0.623529 0.000000
1.000000 0.623529 0.000000
0.000000 0.666667 0.000000
0.070588 0.666667 0.000000
0.137255 0.666667 0.000000
0.207843 0.666667 0.000000
0.274510 0.666667 0.000000
0.337255 0.666667 0.000000
0.400000 0.666667 0.000000
0.454902 0.666667 0.000000
0.513725 0.666667 0.000000
0.568627 0.666667 0.000000
0.611765 0.666667 0.000000
0.654902 0.666667 0.000000
0.694118 0.666667 0.000000
0.729412 0.666667 0.000000
0.764706 0.666667 0.000000
0.792157 0.666667 0.000000
0.823529 0.666667 0.000000
0.850980 0.666667 0.000000
0.874510 0.666667 0.000000
0.898039 0.666667 0.000000
0.921569 0.666667 0.000000
0.941176 0.666667 0.000000
0.960784 0.666667 0.000000
0.980392 0.666667 0.000000
1.000000 0.666667 0.000000
0.000000 0.709804 0.000000
0.070588 0.709804 0.000000
0.137255 0.709804 0.000000
0.207843 0.709804 0.000000
0.274510 0.709804 0.000000
0.337255 0.709804 0.000000
0.400000 0.709804 0.000000
0.454902 0.709804 0.000000
0.513725 0.709804 0.000000
0.568627 0.709804 0.000000
0.611765 0.709804 0.000000
0.654902 0.709804 0.000000
0.694118 0.709804 0.000000
0.729412 0.709804 0.000000
0.764706 0.709804 0.000000
0.792157 0.709804 0.000000
0.823529 0.709804 0.000000
0.850980 0.709804 0.000000
0.874510 0.709804 0.000000
0.898039 0.709804 0.000000
0.921569 0.709804 0.000000
0.941176 0.709804 0.000000
0.960784 0.709804 0.000000
0.980392 0.709804 0.000000
1.000000 0.709804 0.000000
0.000000 0.749020 0.000000
0.070588 0.749020 0.000000
0.137255 0.749020 0.000000
0.207843 0.749020 0.000000
0.274510 0.749020 0.000000
0.337255 0.749020 0.000000
0.400000 0.749020 0.000000
0.454902 0.749020 0.000000
0.513725 0.749020 0.000000
0.568627 0.749020 0.000000
0.611765 0.749020 0.000000
0.654902 0.749020 0.000000
0.694118 0.749020 0.000000
0.729412 0.749020 0.000000
0.764706 0.749020 0.000000
0.792157 0.749020 0.000000
0.823529 0.749020 0.000000
0.850980 0.749020 0.000000
0.874510 0.749020 0.000000
0.898039 0.749020 0.000000
0.921569 0.749020 0.000000
0.941176 0.749020 0.000000
0.960784 0.749020 0.000000
0.980392 0.749020 0.000000
1.000000 0.749020 0.000000
0.000000 0.792157 0.000000
0.070588 0.792157 0.000000
0.137255 0.792157 0.000000
0.207843 0.792157 0.000000
0.274510 0.792157 0.000000
0.337255 0.792157 0.000000
0.400000 0.792157 0.000000
0.454902 0.792157 0.000000
0.513725 0.792157 0.000000
0.568627 0.792157 0.000000
0.611765 0.792157 0.000000
0.654902 0.792157 0.000000
0.694118 0.792157 0.000000
0.729412 0.792157 0.000000
0.764706 0.792157 0.000000
0.792157 0.792157 0.000000
0.823529 0.792157 0.000000
0.850980 0.792157 0.000000
0.874510 0.792157 0.000000
0.898039 0.792157 0.000000
0.921569 0.792157 0.000000
0.941176 0.792157 0.000000
0.960784 0.792157 0.000000
0.980392 0.792157 0.000000
1.000000 0.792157 0.000000
0.000000 0.835294 0.000000
0.070588 0.835294 0.000000
0.137255 0.835294 0.000000
0.207843 0.835294 0.000000
0.274510 0.835294 0.000000
0.337255 0.835294 0.000000
0.400000 0.835294 0.000000
0.454902 0.835294 0.000000
0.513725 0.835294 0.000000
0.568627 0.835294 0.000000
0.611765 0.835294 0.000000
0.654902 0.835294 0.000000
0.694118 0.835294 0.000000
0.729412 0.835294 0.000000
0.764706 0.835294 0.000000
0.792157 0.835294 0.000000
0.823529 0.835294 0.000000
0.850980 0.835294 0.000000
0.874510 0.835294 0.000000
0.898039 0.835294 0.000000
0.921569 0.835294 0.000000
0.941176 0.835294 0.000000
0.960784 0.835294 0.000000
0.980392 0.835294 0.000000
1.000000 0.835294 0.000000
0.000000 0.874510 0.000000
0.070588 0.874510 0.000000
0.137255 0.874510 0.000000
0.207843 0.874510 0.000000
0.274510 0.874510 0.000000
0.337255 0.874510 0.000000
0.400000 0.874510 0.000000
0.454902 0.874510 0.000000
0.513725 0.874510 0.000000
0.568627 0.874510 0.000000
0.611765 0.874510 0.000000
0.654902 0.874510 0.000000
0.694118 0.874510 0.000000
0.729412 0.874510 0.000000
0.764706 0.874510 0.000000
0.792157 0.874510 0.000000
0.823529 0.874510 0.000000
0.850980 0.874510 0.000000
0.874510 0.874510 0.000000
0.898039 0.874510 0.000000
0.921569 0.874510 0.000000
0.941176 0.874510 0.000000
0.960784 0.874510 0.000000
0.980392 0.874510 0.000000
1.000000 0.874510 0.000000
0.000000 0.917647 0.000000
0.070588 0.917647 0.000000
0.137255 0.917647 0.000000
0.207843 0.917647 0.000000
0.274510 0.917647 0.000000
0.337255 0.917647 0.000000
0.400000 0.917647 0.000000
0.454902 0.917647 0.000000
0.513725 0.917647 0.000000
0.568627 0.917647 0.000000
0.611765 0.917647 0.000000
0.654902 0.917647 0.000000
0.694118 0.917647 0.000000
0.729412 0.917647 0.000000
0.764706 0.917647 0.000000
0.792157 0.917647 0.000000
0.823529 0.917647 0.000000
0.850980 0.917647 0.000000
0.874510 0.917647 0.000000
0.898039 0.917647 0.000000
0.921569 0.917647 0.000000
0.941176 0.917647 0.000000
0.960784 0.917647 0.000000
0.980392 0.917647 0.000000
1.000000 0.917647 0.000000
0.000000 0.956863 0.000000
0.070588 0.956863 0.000000
0.137255 0.956863 0.000000
0.207843 0.956863 0.000000
0.274510 0.956863 0.000000
0.337255 0.956863 0.000000
0.400000 0.956863 0.000000
0.454902 0.956863 0.000000
0.513725 0.956863 0.000000
0.568627 0.956863 0.000000
0.611765 0.956863 0.000000
0.654902 0.956863 0.000000
0.694118 0.956863 0.000000
0.729412 0.956863 0.000000
0.764706 0.956863 0.000000
0.792157 0.956863 0.000000
0.823529 0.956863 0.000000
0.850980 0.956863 0.000000
0.874510 0.956863 0.000000
0.898039 0.956863 0.000000
0.921569 0.956863 0.000000
0.941176 0.956863 0.000000
0.960784 0.956863 0.000000
0.980392 0.956863 0.000000
1.000000 0.956863 0.000000
0.000000 1.000000 0.000000
0.070588 1.000000 0.000000
0.137255 1.000000 0.000000
0.207843 1.000000 0.000000
0.274510 1.000000 0.000000
0.337255 1.000000 0.000000
0.400000 1.000000 0.000000
0.454902 1.000000 0.000000
0.513725 1.000000 0.000000
0.568627 1.000000 0.000000
0.611765 1.000000 0.000000
0.654902 1.000000 0.000000
0.694118 1.000000 0.000000
0.729412 1.000000 0.000000
0.764706 1.000000 0.000000
0.792157 1.000000 0.000000
0.823529 1.000000 0.000000
0.850980 1.000000 0.000000
0.874510 1.000000 0.000000
0.898039 1.000000 0.000000
0.921569 1.000000 0.000000
0.941176 1.000000 0.000000
0.960784 1.000000 0.000000
0.980392 1.000000 0.000000
1.000000 1.000000 0.000000
0.000000 0.000000 0.011765
0.070588 0.000000 0.011765
0.137255 0.000000 0.011765
0.207843 0.000000 0.011765
0.274510 0.000000 0.011765
0.337255 0.000000 0.011765
0.400000 0.000000 0.011765
0.454902 0.000000 0.011765
0.513725 0.000000 0.011765
0.568627 0.000000 0.011765
0.611765 0.000000 0.011765
0.654902 0.000000 0.011765
0.694118 0.000000 0.011765
0.729412 0.000000 0.011765
0.764706 0.000000 0.011765
0.792157 0.000000 0.011765
0.823529 0.000000 0.011765
0.850980 0.000000 0.011765
0.874510 0.000000 0.011765
0.898039 0.000000 0.011765
0.921569 0.000000 0.011765
0.941176 0.000000 0.011765
0.960784 0.000000 0.011765
0.980392 0.000000 0.011765
1.000000 0.000000 0.011765
0.000000 0.043137 0.011765
0.070588 0.043137 0.011765
0.137255 0.043137 0.011765
0.207843 0.043137 0.011765
0.274510 0.043137 0.011765
0.337255 0.043137 0.011765
0.400000 0.043137 0.011765
0.454902 0.043137 0.011765
0.513725 0.043137 0.011765
0.568627 0.043137 0.011765
0.611765 0.043137 0.011765
0.654902 0.043137 0.011765
0.694118 0.043137 0.011765
0.729412 0.043137 0.011765
0.764706 0.043137 0.011765
0.792157 0.043137 0.011765
0.823529 0.043137 0.011765
0.850980 0.043137 0.011765
0.874510 0.043137 0.011765
0.898039 0.043137 0.011765
0.921569 0.043137 0.011765
0.941176 0.043137 0.011765
0.960784 0.043137 0.011765
0.980392 0.043137 0.011765
1.000000 0.043137 0.011765
0.000000 0.082353 0.011765
0.070588 0.082353 0.011765
0.137255 0.082353 0.011765
0.207843 0.082353 0.011765
0.274510 0.082353 0.011765
0.337255 0.082353 0.011765
0.400000 0.082353 0.011765
0.454902 0.082353 0.011765
0.513725 0.082353 0.011765
0.568627 0.082353 0.011765
0.611765 0.082353 0.011765
0.654902 0.082353 0.011765
0.694118 0.082353 0.011765
0.729412 0.082353 0.011765
0.764706 0.082353 0.011765
0.792157 0.082353 0.011765
0.823529 0.082353 0.011765
0.850980 0.082353 0.011765
0.874510 0.082353 0.011765
0.898039 0.082353 0.011765
0.921569 0.082353 0.011765
0.941176 0.082353 0.011765
0.960784 0.082353 0.011765
0.980392 0.082353 0.011765
1.000000 0.082353 0.011765
0.000000 0.125490 0.011765
0.070588 0.125490 0.011765
0.137255 0.125490 0.011765
0.207843 0.125490 0.011765
0.274510 0.125490 0.011765
0.337255 0.125490 0.011765
0.400000 0.125490 0.011765
0.454902 0.125490 0.011765
0.513725 0.125490 0.011765
0.568627 0.125490 0.011765
0.611765 0.125490 0.011765
0.654902 0.125490 0.011765
0.694118 0.125490 0.011765
0.729412 0.125490 0.011765
0.764706 0.125490 0.011765
0.792157 0.125490 0.011765
0.823529 0.125490 0.011765
0.850980 0.125490 0.011765
0.874510 0.125490 0.011765
0.898039 0.125490 0.011765
0.921569 0.125490 0.011765
0.941176 0.125490 0.011765
0.960784 0.125490 0.011765
0.980392 0.125490 0.011765
1.000000 0.125490 0.011765
0.000000 0.168627 0.011765
0.070588 0.168627 0.011765
0.137255 0.168627 0.011765
0.207843 0.168627 0.011765
0.274510 0.168627 0.011765
0.337255 0.168627 0.011765
0.400000 0.168627 0.011765
0.454902 0.168627 0.011765
0.513725 0.168627 0.011765
0.568627 0.168627 0.011765
0.611765 0.168627 0.011765
0.654902 0.168627 0.011765
0.694118 0.168627 0.011765
0.729412 0.168627 0.011765
0.764706 0.168627 0.011765
0.792157 0.168627 0.011765
0.823529 0.168627 0.011765
0.850980 0.168627 0.011765
0.874510 0.168627 0.011765
0.898039 0.168627 0.011765
0.921569 0.168627 0.011765
0.941176 0.168627 0.011765
0.960784 0.168627 0.011765
0.980392 0.168627 0.011765
1.000000 0.168627 0.011765
0.000000 0.207843 0.011765
0.070588 0.207843 0.011765
0.137255 0.207843 0.011765
0.207843 0.207843 0.011765
0.274510 0.207843 0.011765
0.337255 0.207843 0.011765
0.400000 0.207843 0.011765
0.454902 0.207843 0.011765
0.513725 0.207843 0.011765
0.568627 0.207843 0.011765
0.611765 0.207843 0.011765
0.654902 0.207843 0.011765
0.694118 0.207843 0.011765
0.729412 0.207843 0.011765
0.764706 0.207843 0.011765
0.792157 0.207843 0.011765
0.823529 0.207843 0.011765
0.850980 0.207843 0.011765
0.874510 0.207843 0.011765
0.898039 0.207843 0.011765
0.921569 0.207843 0.011765
0.941176 0.207843 0.011765
0.960784 0.207843 0.011765
0.980392 0.207843 0.011765
1.000000 0.207843 0.011765
0.000000 0.250980 0.011765
0.070588 0.250980 0.011765
0.137255 0.250980 0.011765
0.207843 0.250980 0.011765
0.274510 0.250980 0.011765
0.337255 0.250980 0.011765
0.400000 0.250980 0.011765
0.454902 0.250980 0.011765
0.513725 0.250980 0.011765
0.568627 0.250980 0.011765
0.611765 0.250980 0.011765
0.654902 0.250980 0.011765
0.694118 0.250980 0.011765
0.729412 0.250980 0.011765
0.764706 0.250980 0.011765
0.792157 0.250980 0.011765
0.823529 0.250980 0.011765
0.850980 0.250980 0.011765
0.874510 0.250980 0.011765
0.898039 0.250980 0.011765
0.921569 0.250980 0.011765
0.941176 0.250980 0.011765
0.960784 0.250980 0.011765
0.980392 0.250980 0.011765
1.000000 0.250980 0.011765
0.000000 0.290196 0.011765
0.070588 0.290196 0.011765
0.137255 0.290196 0.011765
0.207843 0.290196 0.011765
0.274510 0.290196 0.011765
0.337255 0.290196 0.011765
0.400000 0.290196 0.011765
0.454902 0.290196 0.011765
0.513725 0.290196 0.011765
0.568627 0.290196 0.011765
0.611765 0.290196 0.011765
0.654902 0.290196 0.011765
0.694118 0.290196 0.011765
0.729412 0.290196 0.011765
0.764706 0.290196 0.011765
0.792157 0.290196 0.011765
0.823529 0.290196 0.011765
0.850980 0.290196 0.011765
0.874510 0.290196 0.011765
0.898039 0.290196 0.011765
0.921569 0.290196 0.011765
0.941176 0.290196 0.011765
0.960784 0.290196 0.011765
0.980392 0.290196 0.011765
1.000000 0.290196 0.011765
0.000000 0.333333 0.011765
0.070588 0.333333 0.011765
0.137255 0.333333 0.011765
0.207843 0.333333 0.011765
0.274510 0.333333 0.011765
0.337255 0.333333 0.011765
0.400000 0.333333 0.011765
0.454902 0.333333 0.011765
0.513725 0.333333 0.011765
0.568627 0.333333 0.011765
0.611765 0.333333 0.011765
0.654902 0.333333 0.011765
0.694118 0.333333 0.011765
0.729412 0.333333 0.011765
0.764706 0.333333 0.011765
0.792157 0.333333 0.011765
0.823529 0.333333 0.011765
0.850980 0.333333 0.011765
0.874510 0.333333 0.011765
0.898039 0.333333 0.011765
0.921569 0.333333 0.011765
0.941176 0.333333 0.011765
0.960784 0.333333 0.011765
0.980392 0.333333 0.011765
1.000000 0.333333 0.011765
0.000000 0.376471 0.011765
0.070588 0.376471 0.011765
0.137255 0.376471 0.011765
0.207843 0.376471 0.011765
0.274510 0.376471 0.011765
0.337255 0.376471 0.011765
0.400000 0.376471 0.011765
0.454902 0.376471 0.011765
0.513725 0.376471 0.011765
0.568627 0.376471 0.011765
0.611765 0.376471 0.011765
0.654902 0.376471 0.011765
0.694118 0.376471 0.011765
0.729412 0.376471 0.011765
0.764706 0.376471 0.011765
0.792157 0.376471 0.011765
0.823529 0.376471 0.011765
0.850980 0.376471 0.011765
0.874510 0.376471 0.011765
0.898039 0.376471 0.011765
0.921569 0.376471 0.011765
0.941176 0.376471 0.011765
0.960784 0.376471 0.011765
0.980392 0.376471 0.011765
1.000000 0.376471 0.011765
0.000000 0.415686 0.011765
0.070588 0.415686 0.011765
0.137255 0.415686 0.011765
0.207843 0.415686 0.011765
0.274510 0.415686 0.011765
0.337255 0.415686 0.011765
0.400000 0.415686 0.011765
0.454902 0.415686 0.011765
0.513725 0.415686 0.011765
