LUTs/Damaging/LUT_RED/yelllow_midtones.cube
#Generated by lutCreator.js
#Coded by SirSerch
#https://github.com/SirSerch/LutCreatorJs
TITLE lutCreatorJs_25
LUT_3D_SIZE 9
0.000000 0.000000 0.000000
0.207843 0.000000 0.000000
0.400000 0.000000 0.000000
0.568627 0.000000 0.000000
0.694118 0.000000 0.000000
0.792157 0.000000 0.000000
0.874510 0.000000 0.000000
0.941176 0.000000 0.000000
1.000000 0.000000 0.000000
0.000000 0.125490 0.000000
0.207843 0.125490 0.000000
0.400000 0.125490 0.000000
0.568627 0.125490 0.000000
0.694118 0.125490 0.000000
0.792157 0.125490 0.000000
0.874510 0.125490 0.000000
0.941176 0.125490 0.000000
1.000000 0.125490 0.000000
0.000000 0.250980 0.000000
0.207843 0.250980 0.000000
0.400000 0.250980 0.000000
0.568627 0.250980 0.000000
0.694118 0.250980 0.000000
0.792157 0.250980 0.000000
0.874510 0.250980 0.000000
0.941176 0.250980 0.000000
1.000000 0.250980 0.000000
0.000000 0.376471 0.000000
0.207843 0.376471 0.000000
0.400000 0.376471 0.000000
0.568627 0.376471 0.000000
0.694118 0.376471 0.000000
0.792157 0.376471 0.000000
0.874510 0.376471 0.000000
0.941176 0.376471 0.000000
1.000000 0.376471 0.000000
0.000000 0.501961 0.000000
0.207843 0.501961 0.000000
0.400000 0.501961 0.000000
0.568627 0.501961 0.000000
0.694118 0.501961 0.000000
0.792157 0.501961 0.000000
0.874510 0.501961 0.000000
0.941176 0.501961 0.000000
1.000000 0.501961 0.000000
0.000000 0.623529 0.000000
0.207843 0.623529 0.000000
0.400000 0.623529 0.000000
0.568627 0.623529 0.000000
0.694118 0.623529 0.000000
0.792157 0.623529 0.000000
0.874510 0.623529 0.000000
0.941176 0.623529 0.000000
1.000000 0.623529 0.000000
0.000000 0.749020 0.000000
0.207843 0.749020 0.000000
0.400000 0.749020 0.000000
0.568627 0.749020 0.000000
0.694118 0.749020 0.000000
0.792157 0.749020 0.000000
0.874510 0.749020 0.000000
0.941176 0.749020 0.000000
1.000000 0.749020 0.000000
0.000000 0.874510 0.000000
0.207843 0.874510 0.000000
0.400000 0.874510 0.000000
0.568627 0.874510 0.000000
0.694118 0.874510 0.000000
0.792157 0.874510 0.000000
0.874510 0.874510 0.000000
0.941176 0.874510 0.000000
1.000000 0.874510 0.000000
0.000000 1.000000 0.000000
0.207843 1.000000 0.000000
0.400000 1.000000 0.000000
0.568627 1.000000 0.000000
0.694118 1.000000 0.000000
0.792157 1.000000 0.000000
0.874510 1.000000 0.000000
0.941176 1.000000 0.000000
1.000000 1.000000 0.000000
0.000000 0.000000 0.039216
0.207843 0.000000 0.039216
0.400000 0.000000 0.039216
0.568627 0.000000 0.039216
0.694118 0.000000 0.039216
0.792157 0.000000 0.039216
0.874510 0.000000 0.039216
0.941176 0.000000 0.039216
1.000000 0.000000 0.039216
0.000000 0.125490 0.039216
0.207843 0.125490 0.039216
0.400000 0.125490 0.039216
0.568627 0.125490 0.039216
0.694118 0.125490 0.039216
0.792157 0.125490 0.039216
0.874510 0.125490 0.039216
0.941176 0.125490 0.039216
1.000000 0.125490 0.039216
0.000000 0.250980 0.039216
0.207843 0.250980 0.039216
0.400000 0.250980 0.039216
0.568627 0.250980 0.039216
0.694118 0.250980 0.039216
0.792157 0.250980 0.039216
0.874510 0.250980 0.039216
0.941176 0.250980 0.039216
1.000000 0.250980 0.039216
0.000000 0.376471 0.039216
0.207843 0.376471 0.039216
0.400000 0.376471 0.039216
0.568627 0.376471 0.039216
0.694118 0.376471 0.039216
0.792157 0.376471 0.039216
0.874510 0.376471 0.039216
0.941176 0.376471 0.039216
1.000000 0.376471 0.039216
0.000000 0.501961 0.039216
0.207843 0.501961 0.039216
0.400000 0.501961 0.039216
0.568627 0.501961 0.039216
0.694118 0.501961 0.039216
0.792157 0.501961 0.039216
0.874510 0.501961 0.039216
0.941176 0.501961 0.039216
1.000000 0.501961 0.039216
0.000000 0.623529 0.039216
0.207843 0.623529 0.039216
0.400000 0.623529 0.039216
0.568627 0.623529 0.039216
0.694118 0.623529 0.039216
0.792157 0.623529 0.039216
0.874510 0.623529 0.039216
0.941176 0.623529 0.039216
1.000000 0.623529 0.039216
0.000000 0.749020 0.039216
0.207843 0.749020 0.039216
0.400000 0.749020 0.039216
0.568627 0.749020 0.039216
0.694118 0.749020 0.039216
0.792157 0.749020 0.039216
0.874510 0.749020 0.039216
0.941176 0.749020 0.039216
1.000000 0.749020 0.039216
0.000000 0.874510 0.039216
0.207843 0.874510 0.039216
0.400000 0.874510 0.039216
0.568627 0.874510 0.039216
0.694118 0.874510 0.039216
0.792157 0.874510 0.039216
0.874510 0.874510 0.039216
0.941176 0.874510 0.039216
1.000000 0.874510 0.039216
0.000000 1.000000 0.039216
0.207843 1.000000 0.039216
0.400000 1.000000 0.039216
0.568627 1.000000 0.039216
0.694118 1.000000 0.039216
0.792157 1.000000 0.039216
0.874510 1.000000 0.039216
0.941176 1.000000 0.039216
1.000000 1.000000 0.039216
0.000000 0.000000 0.082353
0.207843 0.000000 0.082353
0.400000 0.000000 0.082353
0.568627 0.000000 0.082353
0.694118 0.000000 0.082353
0.792157 0.000000 0.082353
0.874510 0.000000 0.082353
0.941176 0.000000 0.082353
1.000000 0.000000 0.082353
0.000000 0.125490 0.082353
0.207843 0.125490 0.082353
0.400000 0.125490 0.082353
0.568627 0.125490 0.082353
0.694118 0.125490 0.082353
0.792157 0.125490 0.082353
0.874510 0.125490 0.082353
0.941176 0.125490 0.082353
1.000000 0.125490 0.082353
0.000000 0.250980 0.082353
0.207843 0.250980 0.082353
0.400000 0.250980 0.082353
0.568627 0.250980 0.082353
0.694118 0.250980 0.082353
0.792157 0.250980 0.082353
0.874510 0.250980 0.082353
0.941176 0.250980 0.082353
1.000000 0.250980 0.082353
0.000000 0.376471 0.082353
0.207843 0.376471 0.082353
0.400000 0.376471 0.082353
0.568627 0.376471 0.082353
0.694118 0.376471 0.082353
0.792157 0.376471 0.082353
0.874510 0.376471 0.082353
0.941176 0.376471 0.082353
1.000000 0.376471 0.082353
0.000000 0.501961 0.082353
0.207843 0.501961 0.082353
0.400000 0.501961 0.082353
0.568627 0.501961 0.082353
0.694118 0.501961 0.082353
0.792157 0.501961 0.082353
0.874510 0.501961 0.082353
0.941176 0.501961 0.082353
1.000000 0.501961 0.082353
0.000000 0.623529 0.082353
0.207843 0.623529 0.082353
0.400000 0.623529 0.082353
0.568627 0.623529 0.082353
0.694118 0.623529 0.082353
0.792157 0.623529 0.082353
0.874510 0.623529 0.082353
0.941176 0.623529 0.082353
1.000000 0.623529 0.082353
0.000000 0.749020 0.082353
0.207843 0.749020 0.082353
0.400000 0.749020 0.082353
0.568627 0.749020 0.082353
0.694118 0.749020 0.082353
0.792157 0.749020 0.082353
0.874510 0.749020 0.082353
0.941176 0.749020 0.082353
1.000000 0.749020 0.082353
0.000000 0.874510 0.082353
0.207843 0.874510 0.082353
0.400000 0.874510 0.082353
0.568627 0.874510 0.082353
0.694118 0.874510 0.082353
0.792157 0.874510 0.082353
0.874510 0.874510 0.082353
0.941176 0.874510 0.082353
1.000000 0.874510 0.082353
0.000000 1.000000 0.082353
0.207843 1.000000 0.082353
0.400000 1.000000 0.082353
0.568627 1.000000 0.082353
0.694118 1.000000 0.082353
0.792157 1.000000 0.082353
0.874510 1.000000 0.082353
0.941176 1.000000 0.082353
1.000000 1.000000 0.082353
0.000000 0.000000 0.137255
0.207843 0.000000 0.137255
0.400000 0.000000 0.137255
0.568627 0.000000 0.137255
0.694118 0.000000 0.137255
0.792157 0.000000 0.137255
0.874510 0.000000 0.137255
0.941176 0.000000 0.137255
1.000000 0.000000 0.137255
0.000000 0.125490 0.137255
0.207843 0.125490 0.137255
0.400000 0.125490 0.137255
0.568627 0.125490 0.137255
0.694118 0.125490 0.137255
0.792157 0.125490 0.137255
0.874510 0.125490 0.137255
0.941176 0.125490 0.137255
1.000000 0.125490 0.137255
0.000000 0.250980 0.137255
0.207843 0.250980 0.137255
0.400000 0.250980 0.137255
0.568627 0.250980 0.137255
0.694118 0.250980 0.137255
0.792157 0.250980 0.137255
0.874510 0.250980 0.137255
0.941176 0.250980 0.137255
1.000000 0.250980 0.137255
0.000000 0.376471 0.137255
0.207843 0.376471 0.137255
0.400000 0.376471 0.137255
0.568627 0.376471 0.137255
0.694118 0.376471 0.137255
0.792157 0.376471 0.137255
0.874510 0.376471 0.137255
0.941176 0.376471 0.137255
1.000000 0.376471 0.137255
0.000000 0.501961 0.137255
0.207843 0.501961 0.137255
0.400000 0.501961 0.137255
0.568627 0.501961 0.137255
0.694118 0.501961 0.137255
0.792157 0.501961 0.137255
0.874510 0.501961 0.137255
0.941176 0.501961 0.137255
1.000000 0.501961 0.137255
0.000000 0.623529 0.137255
0.207843 0.623529 0.137255
0.400000 0.623529 0.137255
0.568627 0.623529 0.137255
0.694118 0.623529 0.137255
0.792157 0.623529 0.137255
0.874510 0.623529 0.137255
0.941176 0.623529 0.137255
1.000000 0.623529 0.137255
0.000000 0.749020 0.137255
0.207843 0.749020 0.137255
0.400000 0.749020 0.137255
0.568627 0.749020 0.137255
0.694118 0.749020 0.137255
0.792157 0.749020 0.137255
0.874510 0.749020 0.137255
0.941176 0.749020 0.137255
1.000000 0.749020 0.137255
0.000000 0.874510 0.137255
0.207843 0.874510 0.137255
0.400000 0.874510 0.137255
0.568627 0.874510 0.137255
0.694118 0.874510 0.137255
0.792157 0.874510 0.137255
0.874510 0.874510 0.137255
0.941176 0.874510 0.137255
1.000000 0.874510 0.137255
0.000000 1.000000 0.137255
0.207843 1.000000 0.137255
0.400000 1.000000 0.137255
0.568627 1.000000 0.137255
0.694118 1.000000 0.137255
0.792157 1.000000 0.137255
0.874510 1.000000 0.137255
0.941176 1.000000 0.137255
1.000000 1.000000 0.137255
0.000000 0.000000 0.211765
0.207843 0.000000 0.211765
0.400000 0.000000 0.211765
0.568627 0.000000 0.211765
0.694118 0.000000 0.211765
0.792157 0.000000 0.211765
0.874510 0.000000 0.211765
0.941176 0.000000 0.211765
1.000000 0.000000 0.211765
0.000000 0.125490 0.211765
0.207843 0.125490 0.211765
0.400000 0.125490 0.211765
0.568627 0.125490 0.211765
0.694118 0.125490 0.211765
0.792157 0.125490 0.211765
0.874510 0.125490 0.211765
0.941176 0.125490 0.211765
1.000000 0.125490 0.211765
0.000000 0.250980 0.211765
0.207843 0.250980 0.211765
0.400000 0.250980 0.211765
0.568627 0.250980 0.211765
0.694118 0.250980 0.211765
0.792157 0.250980 0.211765
0.874510 0.250980 0.211765
0.941176 0.250980 0.211765
1.000000 0.250980 0.211765
0.000000 0.376471 0.211765
0.207843 0.376471 0.211765
0.400000 0.376471 0.211765
0.568627 0.376471 0.211765
0.694118 0.376471 0.211765
0.792157 0.376471 0.211765
0.874510 0.376471 0.211765
0.941176 0.376471 0.211765
1.000000 0.376471 0.211765
0.000000 0.501961 0.211765
0.207843 0.501961 0.211765
0.400000 0.501961 0.211765
0.568627 0.501961 0.211765
0.694118 0.501961 0.211765
0.792157 0.501961 0.211765
0.874510 0.501961 0.211765
0.941176 0.501961 0.211765
1.000000 0.501961 0.211765
0.000000 0.623529 0.211765
0.207843 0.623529 0.211765
0.400000 0.623529 0.211765
0.568627 0.623529 0.211765
0.694118 0.623529 0.211765
0.792157 0.623529 0.211765
0.874510 0.623529 0.211765
0.941176 0.623529 0.211765
1.000000 0.623529 0.211765
0.000000 0.749020 0.211765
0.207843 0.749020 0.211765
0.400000 0.749020 0.211765
0.568627 0.749020 0.211765
0.694118 0.749020 0.211765
0.792157 0.749020 0.211765
0.874510 0.749020 0.211765
0.941176 0.749020 0.211765
1.000000 0.749020 0.211765
0.000000 0.874510 0.211765
0.207843 0.874510 0.211765
0.400000 0.874510 0.211765
0.568627 0.874510 0.211765
0.694118 0.874510 0.211765
0.792157 0.874510 0.211765
0.874510 0.874510 0.211765
0.941176 0.874510 0.211765
1.000000 0.874510 0.211765
0.000000 1.000000 0.211765
0.207843 1.000000 0.211765
0.400000 1.000000 0.211765
0.568627 1.000000 0.211765
0.694118 1.000000 0.211765
0.792157 1.000000 0.211765
0.874510 1.000000 0.211765
0.941176 1.000000 0.211765
1.000000 1.000000 0.211765
0.000000 0.000000 0.301961
0.207843 0.000000 0.301961
0.400000 0.000000 0.301961
0.568627 0.000000 0.301961
0.694118 0.000000 0.301961
0.792157 0.000000 0.301961
0.874510 0.000000 0.301961
0.941176 0.000000 0.301961
1.000000 0.000000 0.301961
0.000000 0.125490 0.301961
0.207843 0.125490 0.301961
0.400000 0.125490 0.301961
0.568627 0.125490 0.301961
0.694118 0.125490 0.301961
0.792157 0.125490 0.301961
0.874510 0.125490 0.301961
0.941176 0.125490 0.301961
1.000000 0.125490 0.301961
0.000000 0.250980 0.301961
0.207843 0.250980 0.301961
0.400000 0.250980 0.301961
0.568627 0.250980 0.301961
0.694118 0.250980 0.301961
0.792157 0.250980 0.301961
0.874510 0.250980 0.301961
0.941176 0.250980 0.301961
1.000000 0.250980 0.301961
0.000000 0.376471 0.301961
0.207843 0.376471 0.301961
0.400000 0.376471 0.301961
0.568627 0.376471 0.301961
0.694118 0.376471 0.301961
0.792157 0.376471 0.301961
0.874510 0.376471 0.301961
0.941176 0.376471 0.301961
1.000000 0.376471 0.301961
0.000000 0.501961 0.301961
0.207843 0.501961 0.301961
0.400000 0.501961 0.301961
0.568627 0.501961 0.301961
0.694118 0.501961 0.301961
0.792157 0.501961 0.301961
0.874510 0.501961 0.301961
0.941176 0.501961 0.301961
1.000000 0.501961 0.301961
0.000000 0.623529 0.301961
0.207843 0.623529 0.301961
0.400000 0.623529 0.301961
0.568627 0.623529 0.301961
0.694118 0.623529 0.301961
0.792157 0.623529 0.301961
0.874510 0.623529 0.301961
0.941176 0.623529 0.301961
1.000000 0.623529 0.301961
0.000000 0.749020 0.301961
0.207843 0.749020 0.301961
0.400000 0.749020 0.301961
0.568627 0.749020 0.301961
0.694118 0.749020 0.301961
0.792157 0.749020 0.301961
0.874510 0.749020 0.301961
0.941176 0.749020 0.301961
1.000000 0.749020 0.301961
0.000000 0.874510 0.301961
0.207843 0.874510 0.301961
0.400000 0.874510 0.301961
0.568627 0.874510 0.301961
0.694118 0.874510 0.301961
0.792157 0.874510 0.301961
0.874510 0.874510 0.301961
0.941176 0.874510 0.301961
1.000000 0.874510 0.301961
0.000000 1.000000 0.301961
0.207843 1.000000 0.301961
0.400000 1.000000 0.301961
0.568627 1.000000 0.301961
0.694118 1.000000 0.301961
0.792157 1.000000 0.301961
0.874510 1.000000 0.301961
0.941176 1.000000 0.301961
1.000000 1.000000 0.301961
0.000000 0.000000 0.435294
0.207843 0.000000 0.435294
0.400000 0.000000 0.435294
0.568627 0.000000 0.435294
0.694118 0.000000 0.435294
0.792157 0.000000 0.435294
0.874510 0.000000 0.435294
0.941176 0.000000 0.435294
1.000000 0.000000 0.435294
0.000000 0.125490 0.435294
0.207843 0.125490 0.435294
0.400000 0.125490 0.435294
0.568627 0.125490 0.435294
0.694118 0.125490 0.435294
0.792157 0.125490 0.435294
0.874510 0.125490 0.435294
0.941176 0.125490 0.435294
1.000000 0.125490 0.435294
0.000000 0.250980 0.435294
0.207843 0.250980 0.435294
0.400000 0.250980 0.435294
0.568627 0.250980 0.435294
0.694118 0.250980 0.435294
0.792157 0.250980 0.435294
0.874510 0.250980 0.435294
0.941176 0.250980 0.435294
1.000000 0.250980 0.435294
0.000000 0.376471 0.435294
0.207843 0.376471 0.435294
0.400000 0.376471 0.435294
0.568627 0.376471 0.435294
0.694118 0.376471 0.435294
0.792157 0.376471 0.435294
0.874510 0.376471 0.435294
0.941176 0.376471 0.435294
1.000000 0.376471 0.435294
0.000000 0.501961 0.435294
0.207843 0.501961 0.435294
0.400000 0.501961 0.435294
0.568627 0.501961 0.435294
0.694118 0.501961 0.435294
0.792157 0.501961 0.435294
0.874510 0.501961 0.435294
0.941176 0.501961 0.435294
1.000000 0.501961 0.435294
0.000000 0.623529 0.435294
0.207843 0.623529 0.435294
0.400000 0.623529 0.435294
0.568627 0.623529 0.435294
0.694118 0.623529 0.435294
0.792157 0.623529 0.435294
0.874510 0.623529 0.435294
0.941176 0.623529 0.435294
1.000000 0.623529 0.435294
0.000000 0.749020 0.435294
0.207843 0.749020 0.435294
0.400000 0.749020 0.435294
0.568627 0.749020 0.435294
0.694118 0.749020 0.435294
0.792157 0.749020 0.435294
0.874510 0.749020 0.435294
0.941176 0.749020 0.435294
1.000000 0.749020 0.435294
0.000000 0.874510 0.435294
0.207843 0.874510 0.435294
0.400000 0.874510 0.435294
0.568627 0.874510 0.435294
0.694118 0.874510 0.435294
0.792157 0.874510 0.435294
0.874510 0.874510 0.435294
0.941176 0.874510 0.435294
1.000000 0.874510 0.435294
0.000000 1.000000 0.435294
0.207843 1.000000 0.435294
0.400000 1.000000 0.435294
0.568627 1.000000 0.435294
0.694118 1.000000 0.435294
0.792157 1.000000 0.435294
0.874510 1.000000 0.435294
0.941176 1.000000 0.435294
1.000000 1.000000 0.435294
0.000000 0.000000 0.682353
0.207843 0.000000 0.682353
0.400000 0.000000 0.682353
0.568627 0.000000 0.682353
0.694118 0.000000 0.682353
0.792157 0.000000 0.682353
0.874510 0.000000 0.682353
0.941176 0.000000 0.682353
1.000000 0.000000 0.682353
0.000000 0.125490 0.682353
0.207843 0.125490 0.682353
0.400000 0.125490 0.682353
0.568627 0.125490 0.682353
0.694118 0.125490 0.682353
0.792157 0.125490 0.682353
0.874510 0.125490 0.682353
0.941176 0.125490 0.682353
1.000000 0.125490 0.682353
0.000000 0.250980 0.682353
0.207843 0.250980 0.682353
0.400000 0.250980 0.682353
0.568627 0.250980 0.682353
0.694118 0.250980 0.682353
0.792157 0.250980 0.682353
0.874510 0.250980 0.682353
0.941176 0.250980 0.682353
1.000000 0.250980 0.682353
0.000000 0.376471 0.682353
0.207843 0.376471 0.682353
0.400000 0.376471 0.682353
0.568627 0.376471 0.682353
0.694118 0.376471 0.682353
0.792157 0.376471 0.682353
0.874510 0.376471 0.682353
0.941176 0.376471 0.682353
1.000000 0.376471 0.682353
0.000000 0.501961 0.682353
0.207843 0.501961 0.682353
0.400000 0.501961 0.682353
0.568627 0.501961 0.682353
0.694118 0.501961 0.682353
0.792157 0.501961 0.682353
0.874510 0.501961 0.682353
0.941176 0.501961 0.682353
1.000000 0.501961 0.682353
0.000000 0.623529 0.682353
0.207843 0.623529 0.682353
0.400000 0.623529 0.682353
0.568627 0.623529 0.682353
0.694118 0.623529 0.682353
0.792157 0.623529 0.682353
0.874510 0.623529 0.682353
0.941176 0.623529 0.682353
1.000000 0.623529 0.682353
0.000000 0.749020 0.682353
0.207843 0.749020 0.682353
0.400000 0.749020 0.682353
0.568627 0.749020 0.682353
0.694118 0.749020 0.682353
0.792157 0.749020 0.682353
0.874510 0.749020 0.682353
0.941176 0.749020 0.682353
1.000000 0.749020 0.682353
0.000000 0.874510 0.682353
0.207843 0.874510 0.682353
0.400000 0.874510 0.682353
0.568627 0.874510 0.682353
0.694118 0.874510 0.682353
0.792157 0.874510 0.682353
0.874510 0.874510 0.682353
0.941176 0.874510 0.682353
1.000000 0.874510 0.682353
0.000000 1.000000 0.682353
0.207843 1.000000 0.682353
0.400000 1.000000 0.682353
0.568627 1.000000 0.682353
0.694118 1.000000 0.682353
0.792157 1.000000 0.682353
0.874510 1.000000 0.682353
0.941176 1.000000 0.682353
1.000000 1.000000 0.682353
0.000000 0.000000 1.000000
0.207843 0.000000 1.000000
0.400000 0.000000 1.000000
0.568627 0.000000 1.000000
0.694118 0.000000 1.000000
0.792157 0.000000 1.000000
0.874510 0.000000 1.000000
0.941176 0.000000 1.000000
1.000000 0.000000 1.000000
0.000000 0.125490 1.000000
0.207843 0.125490 1.000000
0.400000 0.125490 1.000000
0.568627 0.125490 1.000000
0.694118 0.125490 1.000000
0.792157 0.125490 1.000000
0.874510 0.125490 1.000000
0.941176 0.125490 1.000000
1.000000 0.125490 1.000000
0.000000 0.250980 1.000000
0.207843 0.250980 1.000000
0.400000 0.250980 1.000000
0.568627 0.250980 1.000000
0.694118 0.250980 1.000000
0.792157 0.250980 1.000000
0.874510 0.250980 1.000000
0.941176 0.250980 1.000000
1.000000 0.250980 1.000000
0.000000 0.376471 1.000000
0.207843 0.376471 1.000000
0.400000 0.376471 1.000000
0.568627 0.376471 1.000000
0.694118 0.376471 1.000000
0.792157 0.376471 1.000000
0.874510 0.376471 1.000000
0.941176 0.376471 1.000000
1.000000 0.376471 1.000000
0.000000 0.501961 1.000000
0.207843 0.501961 1.000000
0.400000 0.501961 1.000000
0.568627 0.501961 1.000000
0.694118 0.501961 1.000000
0.792157 0.501961 1.000000
0.874510 0.501961 1.000000
0.941176 0.501961 1.000000
1.000000 0.501961 1.000000
0.000000 0.623529 1.000000
0.207843 0.623529 1.000000
0.400000 0.623529 1.000000
0.568627 0.623529 1.000000
0.694118 0.623529 1.000000
0.792157 0.623529 1.000000
0.874510 0.623529 1.000000
0.941176 0.623529 1.000000
1.000000 0.623529 1.000000
0.000000 0.749020 1.000000
0.207843 0.749020 1.000000
0.400000 0.749020 1.000000
0.568627 0.749020 1.000000
0.694118 0.749020 1.000000
0.792157 0.749020 1.000000
0.874510 0.749020 1.000000
0.941176 0.749020 1.000000
1.000000 0.749020 1.000000
0.000000 0.874510 1.000000
0.207843 0.874510 1.000000
0.400000 0.874510 1.000000
0.568627 0.874510 1.000000
0.694118 0.874510 1.000000
0.792157 0.874510 1.000000
0.874510 0.874510 1.000000
0.941176 0.874510 1.000000
1.000000 0.874510 1.000000
0.000000 1.000000 1.000000
0.207843 1.000000 1.000000
0.400000 1.000000 1.000000
0.568627 1.000000 1.000000
0.694118 1.000000 1.000000
0.792157 1.000000 1.000000
0.874510 1.000000 1.000000
0.941176 1.000000 1.000000
1.000000 1.000000 1.000000
