LUTs/Artistic/LUT_MAGENTA/1_25.A002_02161553_C053.cube
TITLE "Generated by Resolve"
LUT_3D_SIZE 33
0 0 0.0772259
0 0 0.0813153
0.00633249 0 0.0856184
0.0267185 0 0.0937209
0.0561379 0 0.105486
0.0878004 0 0.111849
0.118441 0 0.113405
0.148959 0 0.113848
0.179904 0 0.114076
0.211002 0 0.114153
0.242176 0 0.114137
0.273365 0 0.114076
0.30457 0 0.113985
0.335775 0 0.113878
0.366781 0 0.113573
0.397314 0 0.112764
0.427314 0 0.111437
0.456794 0 0.10956
0.485756 0 0.107179
0.514458 0 0.10454
0.543114 0 0.101839
0.571725 0 0.0991073
0.600351 0 0.096376
0.629038 0 0.0937209
0.657832 0 0.0911727
0.686702 0 0.0887007
0.715663 0 0.086305
0.744717 0 0.0840009
0.773861 0 0.0818036
0.803067 0 0.0796368
0.832319 0 0.0775464
0.861662 0 0.0755322
0.891096 0 0.0736248
0 0.00717174 0.0849165
0.00195315 0.0115206 0.0869306
0.0183719 0.0151522 0.0909133
0.0337072 0.019089 0.0951858
0.0561837 0.0203861 0.104479
0.0872206 0.019089 0.114199
0.118151 0.0185702 0.11667
0.148684 0.0183566 0.117098
0.17969 0.0180514 0.117281
0.210834 0.0177005 0.117296
0.242023 0.0173495 0.117235
0.273228 0.0169985 0.117144
0.304372 0.0166018 0.116976
0.335012 0.0156863 0.116274
0.36495 0.0140536 0.11487
0.394034 0.0115816 0.112612
0.422354 0.00834669 0.109606
0.450172 0.00460822 0.106065
0.477791 0.000656138 0.102327
0.505486 0 0.0986801
0.533593 0 0.0954452
0.562127 0 0.0926223
0.590829 0 0.0899672
0.619699 0 0.0874952
0.648707 0 0.0851606
0.677821 0 0.0829175
0.707088 0 0.0808118
0.736416 0 0.0787823
0.765774 0 0.0767987
0.795178 0 0.0748608
0.824628 0 0.0729534
0.854124 0 0.071107
0.88365 0 0.0692607
0.00411994 0.0317998 0.0988937
0.0163577 0.0372778 0.0969406
0.0294957 0.042298 0.0968032
0.0451362 0.0462654 0.0997787
0.0606851 0.0501259 0.104021
0.0856641 0.0505989 0.114183
0.116976 0.0497139 0.119066
0.147539 0.0495003 0.119478
0.178622 0.0491646 0.11957
0.209812 0.0488289 0.119524
0.241016 0.0484779 0.119417
0.27187 0.047776 0.118944
0.301778 0.046128 0.117525
0.330556 0.0433509 0.114946
0.358373 0.0395972 0.111421
0.385565 0.0352483 0.107271
0.412528 0.0306401 0.102876
0.43949 0.0260471 0.0984817
0.466667 0.0216831 0.094316
0.49424 0.0177005 0.0905318
0.522393 0.0142977 0.0873426
0.551324 0.0116732 0.0849165
0.58053 0.00932326 0.0827802
0.609842 0.00709545 0.0807355
0.639246 0.00492866 0.0787976
0.668696 0.00282292 0.0768749
0.698177 0.000747692 0.0749981
0.727733 0 0.0732128
0.757321 0 0.071458
0.786938 0 0.0697032
0.816587 0 0.0680095
0.846235 0 0.0663157
0.875929 0 0.0646372
0.0205844 0.0560922 0.11722
0.0336614 0.0614176 0.11429
0.0463569 0.066865 0.11136
0.0585336 0.0724193 0.108782
0.0716869 0.0774395 0.108614
0.0875105 0.0812543 0.112551
0.115404 0.0810254 0.121004
0.146105 0.080766 0.121523
0.177279 0.080415 0.121492
0.208362 0.0799573 0.121248
0.238392 0.0784161 0.119936
0.267063 0.0755322 0.117266
0.294881 0.0717937 0.113725
0.322271 0.0676432 0.109773
0.349401 0.0632181 0.105562
0.37644 0.0587015 0.101228
0.403372 0.054078 0.0968185
0.430365 0.0495155 0.0924697
0.457542 0.0451362 0.0882734
0.4851 0.0411383 0.0844892
0.513176 0.0376593 0.0812085
0.54197 0.0349126 0.0786603
0.571527 0.0329137 0.0768444
0.601205 0.0310369 0.0751812
0.6309 0.0291752 0.073518
0.660624 0.0273442 0.0718853
0.690349 0.0255131 0.0702678
0.720088 0.0237125 0.0686656
0.749844 0.0218967 0.0670634
0.779599 0.0201114 0.0654612
0.809369 0.0183261 0.0638895
0.839139 0.0165408 0.0623026
0.868925 0.0147707 0.0607309
0.0337072 0.0813306 0.13611
0.0471504 0.0865492 0.133074
0.0605936 0.091783 0.130037
0.074052 0.0970016 0.127016
0.08748 0.102235 0.12401
0.100694 0.107515 0.121065
0.114244 0.112428 0.120912
0.144549 0.112093 0.123247
0.17496 0.110948 0.122316
0.204593 0.109026 0.120592
0.233661 0.106538 0.118303
0.262181 0.103502 0.11548
0.290196 0.0999619 0.112139
0.317754 0.0959793 0.108354
0.344961 0.0916304 0.104204
0.371908 0.0870375 0.0998093
0.398733 0.0823072 0.0952773
0.425589 0.0776074 0.0907759
0.452567 0.0730297 0.0863966
0.479881 0.0687877 0.0823682
0.507683 0.0650492 0.0788128
0.536156 0.0619669 0.0759289
0.565515 0.0597696 0.0739452
0.595453 0.0581521 0.0725261
0.625391 0.0565499 0.071107
0.655329 0.0549172 0.069688
0.685252 0.0532998 0.0682689
0.715175 0.051667 0.0668345
0.745098 0.0500343 0.0654002
0.775006 0.0483864 0.0639658
0.804929 0.0467536 0.0625315
0.834867 0.0451362 0.0611124
0.864805 0.0435187 0.0596933
0.0464637 0.106584 0.155825
0.0598917 0.111818 0.152789
0.0733196 0.117052 0.149783
0.0867475 0.122271 0.146777
0.10016 0.127504 0.143801
0.113497 0.132753 0.140902
0.12636 0.13814 0.137972
0.142855 0.142443 0.135164
0.17409 0.143145 0.124544
0.205295 0.142794 0.124392
0.236515 0.142458 0.124254
0.267643 0.142031 0.124025
0.298177 0.141009 0.123217
0.32784 0.139132 0.121523
0.356664 0.1364 0.11899
0.384741 0.132937 0.115724
0.412268 0.128908 0.111894
0.439399 0.124468 0.107668
0.466361 0.11989 0.103288
0.493355 0.115312 0.098909
0.520546 0.110964 0.0947585
0.548104 0.106966 0.090959
0.576303 0.103609 0.0878004
0.605249 0.100999 0.0854047
0.634409 0.0986191 0.0832227
0.663737 0.0964065 0.0811933
0.693111 0.0942092 0.0792096
0.72253 0.0920882 0.0772717
0.75198 0.0899977 0.0753796
0.781506 0.087953 0.0735485
0.811093 0.0859846 0.0717784
0.840696 0.0840467 0.0700236
0.870329 0.0821241 0.0682994
0.0589914 0.131853 0.176135
0.0723583 0.137102 0.173175
0.0856947 0.142336 0.170275
0.0989548 0.147601 0.167391
0.112062 0.152926 0.164508
0.124819 0.158343 0.161578
0.137209 0.163882 0.158572
0.149615 0.169406 0.155642
0.172152 0.171908 0.152804
0.202869 0.174014 0.129778
0.23473 0.173892 0.125551
0.265934 0.173541 0.125414
0.297139 0.173205 0.125261
0.328359 0.172854 0.125124
0.359564 0.172519 0.124971
0.390768 0.172168 0.124834
0.421973 0.171832 0.124681
0.453178 0.171481 0.124529
0.484169 0.170916 0.124178
0.514626 0.169818 0.123278
0.544533 0.16817 0.121828
0.573983 0.166079 0.119921
0.603067 0.163607 0.117662
0.631952 0.160937 0.11519
0.660746 0.15819 0.112642
0.689448 0.155337 0.109987
0.718135 0.152468 0.107317
0.746777 0.149554 0.104601
0.775418 0.146654 0.101884
0.804074 0.143755 0.0991989
0.832776 0.140902 0.0965438
0.861509 0.138079 0.0939193
0.890333 0.135348 0.0913863
0.0711528 0.157198 0.19675
0.0843977 0.162478 0.193881
0.0975204 0.167773 0.190997
0.110491 0.173129 0.188098
0.123217 0.178561 0.185168
0.135683 0.18407 0.182162
0.147997 0.189639 0.179156
0.160403 0.195163 0.176272
0.173022 0.200641 0.173144
0.201282 0.201434 0.170352
0.225696 0.204105 0.160372
0.264103 0.204944 0.127337
0.295277 0.204685 0.126467
0.326482 0.204334 0.126329
0.357687 0.203983 0.126177
0.388891 0.203647 0.12604
0.420096 0.203296 0.125887
0.451301 0.20296 0.125734
0.482506 0.202609 0.125597
0.513726 0.202258 0.12546
0.54493 0.201923 0.125307
0.576135 0.201572 0.125154
0.60734 0.201236 0.125017
0.638544 0.200885 0.124865
0.669749 0.200534 0.124712
0.700679 0.199924 0.124285
0.731304 0.198993 0.123568
0.761654 0.197787 0.122576
0.791791 0.196368 0.12134
0.821729 0.194766 0.119921
0.851484 0.19295 0.118334
0.881025 0.190951 0.116533
0.910506 0.188876 0.114641
0.0829328 0.18265 0.217472
0.0959793 0.187976 0.214588
0.108873 0.193362 0.211688
0.121584 0.198795 0.208743
0.134096 0.204288 0.205753
0.146456 0.209842 0.202731
0.15877 0.215396 0.199741
0.17116 0.22092 0.196857
0.183658 0.226429 0.193881
0.19649 0.231861 0.190661
0.230289 0.231006 0.187854
0.251347 0.233616 0.188296
0.290288 0.235309 0.14522
0.324651 0.235798 0.127581
0.355734 0.235492 0.127306
0.386938 0.235157 0.127169
0.418143 0.234806 0.127016
0.449348 0.23447 0.126879
0.480552 0.234119 0.126726
0.511772 0.233768 0.126574
0.542977 0.233433 0.126436
0.574182 0.233082 0.126284
0.605386 0.232746 0.126146
0.636591 0.232395 0.125994
0.667796 0.232059 0.125856
0.699016 0.231708 0.125704
0.73022 0.231357 0.125566
0.761425 0.231022 0.125414
0.79263 0.230671 0.125277
0.823835 0.230335 0.125124
0.855039 0.229984 0.124971
0.886183 0.229587 0.124758
0.917159 0.229007 0.124392
0.0943618 0.208209 0.238163
0.10721 0.213596 0.235248
0.119905 0.219043 0.232303
0.132448 0.224521 0.229328
0.144854 0.23006 0.226322
0.157168 0.235615 0.223301
0.169482 0.241169 0.22031
0.181872 0.246708 0.217426
0.194339 0.252201 0.214542
0.206989 0.257679 0.211353
0.219944 0.263066 0.208225
0.259205 0.260609 0.20531
0.280995 0.262806 0.207645
0.312398 0.265476 0.177172
0.352285 0.266514 0.137667
0.38497 0.266667 0.128283
0.416129 0.266346 0.128084
0.447333 0.265995 0.127932
0.478538 0.26566 0.127779
0.509743 0.265309 0.127642
0.540948 0.264973 0.127489
0.572152 0.264622 0.127352
0.603357 0.264286 0.127199
0.634562 0.263935 0.127047
0.665782 0.263584 0.126909
0.696986 0.263249 0.126757
0.728191 0.262898 0.126619
0.759396 0.262562 0.126467
0.7906 0.262211 0.126329
0.821805 0.26186 0.126177
0.85301 0.261524 0.12604
0.884215 0.261173 0.125887
0.915434 0.260838 0.125734
0.105516 0.233845 0.258808
0.118196 0.239292 0.255863
0.130755 0.24477 0.252888
0.143191 0.250294 0.249897
0.15555 0.255848 0.246876
0.167865 0.261402 0.243854
0.180179 0.266957 0.240879
0.192569 0.272496 0.237995
0.205005 0.278004 0.235126
0.217578 0.283497 0.232074
0.230335 0.288945 0.228824
0.243442 0.29427 0.225772
0.287999 0.290257 0.222705
0.310796 0.292042 0.226246
0.334524 0.295445 0.21088
0.376944 0.296681 0.162142
0.413489 0.297551 0.134173
0.445274 0.297551 0.128954
0.476448 0.297215 0.128786
0.507652 0.29688 0.128634
0.538857 0.296529 0.128496
0.570077 0.296178 0.128344
0.601282 0.295842 0.128206
0.632486 0.295491 0.128054
0.663691 0.295155 0.127901
0.694896 0.294804 0.127764
0.726101 0.294469 0.127611
0.757305 0.294118 0.127459
0.78851 0.293767 0.127321
0.819715 0.293431 0.127169
0.850919 0.29308 0.127016
0.882124 0.292744 0.126879
0.913344 0.292393 0.126741
0.116457 0.259556 0.279423
0.12903 0.265034 0.276448
0.141497 0.270542 0.273457
0.153887 0.276081 0.270451
0.166217 0.281651 0.267414
0.178515 0.287205 0.264408
0.190845 0.29276 0.261448
0.203235 0.298283 0.258549
0.215671 0.303792 0.255695
0.228168 0.3093 0.252735
0.240833 0.314778 0.249531
0.253697 0.320195 0.246311
0.267781 0.325277 0.242786
0.316701 0.319921 0.24007
0.340581 0.321294 0.244556
0.360113 0.324956 0.238987
0.398733 0.326879 0.194614
0.439445 0.327977 0.152255
0.474235 0.328527 0.132647
0.505531 0.32845 0.129595
0.536721 0.328115 0.129427
0.567926 0.327764 0.12929
0.59913 0.327428 0.129137
0.63035 0.327077 0.129
0.66154 0.326741 0.128847
0.69276 0.32639 0.12871
0.723964 0.32604 0.128557
0.755169 0.325704 0.128405
0.786374 0.325353 0.128252
0.817578 0.325017 0.128115
0.848783 0.324666 0.127962
0.879988 0.324331 0.127825
0.911192 0.32398 0.127672
0.127291 0.285298 0.299992
0.139773 0.290806 0.297002
0.152178 0.29633 0.294011
0.164538 0.301885 0.29099
0.176852 0.307454 0.287968
0.189151 0.313008 0.284962
0.201495 0.318563 0.282002
0.21387 0.324086 0.279103
0.226307 0.329595 0.276265
0.238773 0.335103 0.27335
0.251362 0.340597 0.270237
0.264103 0.346044 0.266972
0.277043 0.351446 0.263828
0.293126 0.356023 0.259342
0.345327 0.34963 0.257389
0.370382 0.350561 0.262684
0.3888 0.354223 0.260548
0.419883 0.357031 0.229511
0.463127 0.358114 0.179797
0.500938 0.359197 0.146029
0.534737 0.359487 0.132006
0.565744 0.359365 0.13019
0.596948 0.35903 0.130037
0.628153 0.358679 0.129885
0.659358 0.358343 0.129747
0.690562 0.357992 0.129595
0.721767 0.357641 0.129442
0.752972 0.357305 0.129305
0.784192 0.356954 0.129152
0.815381 0.356619 0.129
0.846601 0.356268 0.128862
0.877806 0.355932 0.12871
0.90901 0.355581 0.128573
0.138018 0.311086 0.320562
0.150454 0.316594 0.317556
0.162829 0.322148 0.314549
0.175158 0.327703 0.311528
0.187457 0.333257 0.308507
0.199771 0.338827 0.305501
0.212116 0.344366 0.302556
0.224491 0.349905 0.299657
0.236912 0.355413 0.296803
0.249363 0.360922 0.293935
0.261906 0.366415 0.290898
0.274586 0.371893 0.287694
0.287388 0.377325 0.284443
0.300404 0.382681 0.281361
0.31928 0.386572 0.275669
0.373877 0.379355 0.274693
0.400183 0.379843 0.28069
0.418509 0.383429 0.279515
0.442954 0.386862 0.261921
0.484688 0.388342 0.212619
0.525979 0.389441 0.168612
0.56199 0.390326 0.142123
0.595041 0.390448 0.131868
0.625925 0.390295 0.130739
0.657115 0.38996 0.130587
0.688334 0.389609 0.130434
0.719539 0.389273 0.130297
0.750729 0.388922 0.130144
0.781949 0.388586 0.129992
0.813153 0.388235 0.129854
0.844358 0.3879 0.129702
0.875563 0.387549 0.129564
0.906767 0.387198 0.129412
0.148684 0.336873 0.3411
0.161074 0.342412 0.338094
0.173434 0.347967 0.335073
0.185748 0.353521 0.332052
0.198047 0.359091 0.329046
0.210361 0.364645 0.32604
0.222705 0.370184 0.323095
0.235096 0.375723 0.320195
0.247517 0.381231 0.317342
0.259953 0.38674 0.314488
0.27245 0.392233 0.311528
0.285069 0.397726 0.308385
0.297795 0.403189 0.305119
0.310674 0.408606 0.301915
0.323735 0.413931 0.298894
0.346059 0.416922 0.29192
0.402319 0.40911 0.291951
0.429984 0.40914 0.298619
0.448234 0.412665 0.298238
0.468635 0.416373 0.289815
0.505425 0.418585 0.247913
0.548989 0.419608 0.197848
0.587762 0.420752 0.160571
0.622843 0.421378 0.139467
0.655222 0.421424 0.131975
0.686046 0.421256 0.131243
0.71725 0.420905 0.13109
0.748455 0.420569 0.130938
0.779675 0.420218 0.1308
0.81088 0.419867 0.130648
0.842084 0.419532 0.13051
0.873289 0.419181 0.130358
0.904494 0.418845 0.130205
0.159319 0.362692 0.361639
0.171679 0.368231 0.358618
0.184009 0.373785 0.355596
0.196323 0.379355 0.352575
0.208621 0.384909 0.349569
0.220951 0.390463 0.346578
0.233295 0.396017 0.343633
0.24567 0.401541 0.340749
0.258076 0.407065 0.337881
0.270527 0.412558 0.335042
0.282994 0.418067 0.332128
0.295567 0.42356 0.329046
0.308232 0.429038 0.325826
0.321019 0.434485 0.32256
0.333959 0.439872 0.319402
0.347066 0.445197 0.316442
0.373312 0.447135 0.308202
0.430716 0.438895 0.309178
0.4598 0.438437 0.316487
0.477928 0.441932 0.316732
0.496605 0.44567 0.312947
0.52726 0.448585 0.282155
0.570291 0.449866 0.231128
0.611994 0.450935 0.186053
0.649027 0.452018 0.154742
0.683391 0.452415 0.13785
0.715297 0.452415 0.132235
0.746136 0.452216 0.131701
0.77734 0.451881 0.131563
0.808545 0.45153 0.131411
0.83975 0.451194 0.131258
0.87097 0.450843 0.131121
0.902174 0.450492 0.130968
0.169894 0.38851 0.382162
0.182239 0.394064 0.379141
0.194568 0.399619 0.37612
0.206867 0.405188 0.373098
0.219181 0.410742 0.370092
0.231495 0.416297 0.367117
0.243854 0.421836 0.364172
0.256229 0.427375 0.361273
0.268635 0.432883 0.358419
0.281071 0.438392 0.355581
0.293538 0.4439 0.352697
0.306065 0.449393 0.349676
0.3187 0.454887 0.346502
0.331411 0.460349 0.343252
0.344244 0.465782 0.340017
0.357229 0.471153 0.336904
0.370459 0.476432 0.333928
0.400854 0.477256 0.324529
0.459022 0.468696 0.32639
0.489555 0.46775 0.334279
0.507607 0.471214 0.335073
0.526101 0.474907 0.332372
0.551019 0.478325 0.31342
0.590829 0.48014 0.266575
0.634653 0.481132 0.216129
0.674083 0.482307 0.176715
0.709972 0.483192 0.150484
0.743786 0.483452 0.136797
0.775296 0.483421 0.13257
0.806195 0.483192 0.132143
0.8374 0.482856 0.131991
0.868605 0.482506 0.131853
0.899809 0.48217 0.131685
0.180453 0.414343 0.402686
0.192782 0.419898 0.399664
0.205097 0.425452 0.396643
0.217411 0.431022 0.393622
0.229709 0.436576 0.390616
0.242039 0.44213 0.38764
0.254383 0.447684 0.38471
0.266773 0.453208 0.381811
0.279179 0.458732 0.378958
0.291615 0.46424 0.376104
0.304067 0.469734 0.373236
0.316564 0.475242 0.370275
0.329152 0.480735 0.367178
0.341817 0.486198 0.363943
0.354589 0.491661 0.360678
0.367468 0.497063 0.357473
0.380499 0.502419 0.354406
0.394278 0.507576 0.351125
0.428595 0.507317 0.340963
0.487282 0.498527 0.343572
0.519173 0.497108 0.351965
0.537285 0.500511 0.353292
0.555718 0.504143 0.351339
0.576837 0.507836 0.341024
0.611994 0.510262 0.301686
0.655619 0.511437 0.250004
0.697643 0.512489 0.20415
0.735561 0.513634 0.169436
0.770779 0.514321 0.147265
0.804059 0.514473 0.136095
0.835279 0.514427 0.132921
0.866224 0.514199 0.13254
0.897429 0.513848 0.132387
0.190997 0.440177 0.423194
0.203311 0.445731 0.420188
0.215625 0.451301 0.417151
0.227924 0.45687 0.414145
0.240238 0.462425 0.411139
0.252567 0.467979 0.408179
0.264912 0.473518 0.405234
0.277302 0.479042 0.402335
0.289708 0.484565 0.399481
0.302129 0.490074 0.396628
0.31458 0.495583 0.393774
0.327062 0.501091 0.390845
0.339605 0.506584 0.387808
0.352255 0.512062 0.384619
0.364965 0.517525 0.381369
0.377768 0.522972 0.378103
0.390692 0.528359 0.374945
0.403754 0.5337 0.371923
0.418555 0.538613 0.368048
0.456458 0.537331 0.357458
0.515496 0.528359 0.360739
0.548623 0.526543 0.369543
0.566979 0.529824 0.371389
0.585367 0.533394 0.370092
0.604456 0.537179 0.364843
0.634546 0.540169 0.33489
0.67599 0.541741 0.285603
0.719966 0.542702 0.234943
0.759976 0.543877 0.193896
0.796658 0.54493 0.163745
0.831418 0.545434 0.144793
0.864225 0.54551 0.135668
0.895216 0.545464 0.133242
0.201511 0.466026 0.443717
0.213809 0.47158 0.440681
0.226123 0.47715 0.437675
0.238437 0.482719 0.434653
0.250751 0.488273 0.431662
0.263081 0.493828 0.428702
0.275425 0.499367 0.425772
0.2878 0.504891 0.422858
0.300206 0.510414 0.420005
0.312642 0.515923 0.417151
0.325078 0.521431 0.414313
0.337545 0.52694 0.411414
0.350072 0.532433 0.408408
0.362676 0.537911 0.40528
0.375341 0.543389 0.402045
0.388098 0.548852 0.398779
0.400946 0.554269 0.395544
0.413916 0.559655 0.392416
0.427008 0.564981 0.389441
0.443244 0.569543 0.384787
0.484367 0.567315 0.374044
0.543648 0.558221 0.377874
0.57792 0.556023 0.387045
0.596674 0.559136 0.38941
0.615 0.562676 0.388663
0.633524 0.56643 0.385245
0.658778 0.569848 0.365332
0.696757 0.571939 0.321202
0.740688 0.573037 0.26923
0.782971 0.574075 0.222797
0.821668 0.575265 0.185489
0.857557 0.576165 0.159197
0.891844 0.576516 0.143023
0.211994 0.491875 0.46421
0.224308 0.497444 0.461204
0.236606 0.502998 0.458183
0.24892 0.508568 0.455161
0.261234 0.514122 0.452186
0.273564 0.519677 0.449226
0.285924 0.525216 0.446281
0.298299 0.530739 0.443381
0.310704 0.536263 0.440528
0.323125 0.541772 0.437675
0.335561 0.54728 0.434836
0.348028 0.552789 0.431952
0.360525 0.558282 0.428992
0.373098 0.563775 0.42591
0.385733 0.569253 0.422721
0.398444 0.574731 0.419471
0.411231 0.580179 0.41619
0.424109 0.58558 0.413001
0.437125 0.590951 0.409903
0.450248 0.596262 0.406958
0.468315 0.600381 0.401358
0.512322 0.597284 0.390677
0.571694 0.588113 0.394995
0.607095 0.58555 0.404456
0.626368 0.588449 0.407355
0.644633 0.591974 0.407111
0.663096 0.595682 0.404288
0.684733 0.599344 0.392599
0.718532 0.601953 0.355566
0.760937 0.603372 0.304952
0.804974 0.604318 0.254215
0.845502 0.605478 0.211856
0.882933 0.606622 0.178637
0.222477 0.517739 0.484718
0.234775 0.523293 0.481697
0.247089 0.528862 0.478691
0.259403 0.534417 0.475685
0.271717 0.539971 0.472694
0.284047 0.545525 0.469734
0.296407 0.551064 0.466804
0.308782 0.556603 0.463905
0.321187 0.562112 0.461036
0.333608 0.567636 0.458183
0.346044 0.573144 0.455344
0.358495 0.578637 0.452476
0.370977 0.584146 0.449546
0.38352 0.589639 0.44651
0.396124 0.595132 0.443366
0.408804 0.600595 0.440146
0.421546 0.606058 0.436866
0.434363 0.61149 0.433616
0.447288 0.616892 0.430457
0.460319 0.622248 0.42739
0.473472 0.627543 0.424475
0.49369 0.631128 0.417838
0.54023 0.627268 0.407385
0.59971 0.618021 0.412085
0.636164 0.615122 0.421805
0.656077 0.617777 0.425238
0.67425 0.621271 0.425422
0.692699 0.624933 0.423163
0.712169 0.628702 0.416785
0.741695 0.631769 0.387778
0.78143 0.633616 0.340856
0.825528 0.634684 0.288792
0.868025 0.635706 0.241856
0.232944 0.543603 0.505226
0.245243 0.549157 0.502205
0.257557 0.554726 0.499184
0.269856 0.560281 0.496193
0.282185 0.565835 0.493202
0.294514 0.571389 0.490257
0.306874 0.576928 0.487327
0.319249 0.582452 0.484428
0.331655 0.587976 0.481559
0.344076 0.593484 0.478706
0.356497 0.598993 0.475868
0.368948 0.604501 0.472999
0.38143 0.61001 0.4701
0.393942 0.615503 0.467109
0.406531 0.620996 0.463996
0.419181 0.626474 0.460807
0.431876 0.631952 0.457557
0.444648 0.6374 0.454276
0.457511 0.642817 0.451057
0.470466 0.648203 0.447913
0.483528 0.653544 0.444892
0.496727 0.658824 0.441962
0.519371 0.661799 0.434241
0.56817 0.657221 0.424125
0.62768 0.647944 0.42916
0.665095 0.644739 0.439124
0.685771 0.647105 0.443076
0.703853 0.650584 0.443641
0.722301 0.6542 0.441901
0.740856 0.658 0.438041
0.766339 0.661418 0.417456
0.802716 0.663706 0.375906
0.84567 0.665034 0.32462
0.243397 0.569467 0.525719
0.255695 0.575021 0.522698
0.267994 0.580591 0.519692
0.280308 0.586145 0.516701
0.292638 0.591699 0.51371
0.304982 0.597253 0.510765
0.317327 0.602792 0.507836
0.329717 0.608316 0.504936
0.342107 0.61384 0.502068
0.354528 0.619348 0.499214
0.366949 0.624857 0.496376
0.3794 0.630365 0.493523
0.391867 0.635874 0.490623
0.404364 0.641382 0.487663
0.416922 0.646876 0.484611
0.429541 0.652354 0.481453
0.442222 0.657832 0.478218
0.454948 0.663294 0.474952
0.46775 0.668727 0.471687
0.480644 0.674144 0.468482
0.493629 0.679515 0.465385
0.506706 0.68484 0.462394
0.520272 0.690044 0.459266
0.545327 0.692393 0.450584
0.596063 0.687205 0.440894
0.655589 0.677882 0.446235
0.693919 0.674388 0.456367
0.71548 0.676432 0.460883
0.733471 0.679911 0.461769
0.751888 0.683482 0.460502
0.770413 0.687251 0.457038
0.792416 0.690898 0.444465
0.825071 0.693645 0.409415
0.253834 0.595331 0.546212
0.266133 0.6009 0.543206
0.278447 0.606455 0.5402
0.290761 0.612024 0.537194
0.303075 0.617563 0.534218
0.315419 0.623117 0.531273
0.327779 0.628656 0.528344
0.340154 0.63418 0.525444
0.352544 0.639704 0.522576
0.364965 0.645228 0.519722
0.377401 0.650736 0.516884
0.389838 0.656245 0.514031
0.402289 0.661738 0.511162
0.414771 0.667247 0.508217
0.427314 0.67274 0.505196
0.439902 0.678233 0.502083
0.452552 0.683711 0.498878
0.465263 0.689174 0.495628
0.478019 0.694636 0.492348
0.490852 0.700069 0.489113
0.503777 0.70547 0.485939
0.516777 0.710826 0.482856
0.529885 0.716136 0.479896
0.544076 0.721202 0.476387
0.571496 0.722927 0.466911
0.62388 0.717205 0.457694
0.683482 0.707835 0.463279
0.722683 0.704051 0.473594
0.745174 0.705776 0.478645
0.763088 0.709255 0.47982
0.78146 0.712795 0.478996
0.799924 0.716518 0.476097
0.819776 0.720272 0.468711
0.264256 0.62121 0.566705
0.276555 0.626764 0.563699
0.288869 0.632334 0.560693
0.301183 0.637888 0.557702
0.313512 0.643442 0.554726
0.325856 0.648981 0.551781
0.338216 0.654521 0.548852
0.350591 0.66006 0.545953
0.362982 0.665583 0.543084
0.375402 0.671092 0.540215
0.387823 0.6766 0.537377
0.400259 0.682109 0.534539
0.412711 0.687617 0.53167
0.425193 0.693126 0.528756
0.437705 0.698619 0.525765
0.450263 0.704112 0.522683
0.462898 0.70959 0.519524
0.475578 0.715068 0.516289
0.488304 0.720531 0.513024
0.501091 0.725978 0.509758
0.513954 0.731395 0.506539
0.526894 0.736782 0.50338
0.53994 0.742138 0.500328
0.553063 0.747448 0.497398
0.568139 0.752285 0.493355
0.597848 0.753399 0.483207
0.651606 0.747219 0.474525
0.711315 0.737804 0.480323
0.751293 0.733776 0.490745
0.774853 0.735134 0.496361
0.792721 0.738582 0.49781
0.811032 0.742107 0.497368
0.82948 0.745785 0.494942
0.274678 0.647089 0.587198
0.286976 0.652644 0.584192
0.29929 0.658213 0.581186
0.311604 0.663767 0.578195
0.323934 0.669322 0.575235
0.336278 0.674861 0.572274
0.348638 0.6804 0.56936
0.361013 0.685924 0.566461
0.373404 0.691447 0.563577
0.385824 0.696971 0.560723
0.398245 0.70248 0.557885
0.410681 0.707988 0.555047
0.423117 0.713497 0.552178
0.435584 0.719005 0.549279
0.448096 0.724498 0.546319
0.460639 0.729992 0.543282
0.473243 0.735485 0.540154
0.485893 0.740963 0.536934
0.498589 0.746426 0.533684
0.511345 0.751888 0.530419
0.524163 0.757321 0.527169
0.537057 0.762737 0.523964
0.550027 0.768109 0.520836
0.563088 0.773449 0.5178
0.576226 0.778759 0.5149
0.592447 0.783322 0.510201
0.624308 0.783841 0.49955
0.679301 0.777249 0.491371
0.739116 0.767773 0.497337
0.779858 0.763516 0.507897
0.80444 0.764508 0.514015
0.822354 0.767926 0.515755
0.840589 0.771435 0.515663
0.285084 0.672969 0.607691
0.297383 0.678523 0.604685
0.309682 0.684092 0.601678
0.322011 0.689647 0.598703
0.33434 0.695201 0.595728
0.346685 0.70074 0.592782
0.359045 0.706279 0.589868
0.37142 0.711803 0.586969
0.38381 0.717327 0.584085
