LUTs/Artistic/LUT_MAGENTA/1_25.A002_02161553_C053.cube
TITLE "Generated by Resolve"
LUT_3D_SIZE 9
0 0 0.0772259
0.0561379 0 0.105486
0.179904 0 0.114076
0.30457 0 0.113985
0.427314 0 0.111437
0.543114 0 0.101839
0.657832 0 0.0911727
0.773861 0 0.0818036
0.891096 0 0.0736248
0.0337072 0.0813306 0.13611
0.08748 0.102235 0.12401
0.17496 0.110948 0.122316
0.290196 0.0999619 0.112139
0.398733 0.0823072 0.0952773
0.507683 0.0650492 0.0788128
0.625391 0.0565499 0.071107
0.745098 0.0500343 0.0654002
0.864805 0.0435187 0.0596933
0.0829328 0.18265 0.217472
0.134096 0.204288 0.205753
0.183658 0.226429 0.193881
0.290288 0.235309 0.14522
0.418143 0.234806 0.127016
0.542977 0.233433 0.126436
0.667796 0.232059 0.125856
0.79263 0.230671 0.125277
0.917159 0.229007 0.124392
0.127291 0.285298 0.299992
0.176852 0.307454 0.287968
0.226307 0.329595 0.276265
0.277043 0.351446 0.263828
0.3888 0.354223 0.260548
0.534737 0.359487 0.132006
0.659358 0.358343 0.129747
0.784192 0.356954 0.129152
0.90901 0.355581 0.128573
0.169894 0.38851 0.382162
0.219181 0.410742 0.370092
0.268635 0.432883 0.358419
0.3187 0.454887 0.346502
0.370459 0.476432 0.333928
0.507607 0.471214 0.335073
0.634653 0.481132 0.216129
0.775296 0.483421 0.13257
0.899809 0.48217 0.131685
0.211994 0.491875 0.46421
0.261234 0.514122 0.452186
0.310704 0.536263 0.440528
0.360525 0.558282 0.428992
0.411231 0.580179 0.41619
0.468315 0.600381 0.401358
0.626368 0.588449 0.407355
0.718532 0.601953 0.355566
0.882933 0.606622 0.178637
0.253834 0.595331 0.546212
0.303075 0.617563 0.534218
0.352544 0.639704 0.522576
0.402289 0.661738 0.511162
0.452552 0.683711 0.498878
0.503777 0.70547 0.485939
0.571496 0.722927 0.466911
0.745174 0.705776 0.478645
0.819776 0.720272 0.468711
0.295476 0.698848 0.628183
0.344732 0.72108 0.61622
0.394217 0.743206 0.604578
0.443915 0.765255 0.593179
0.493919 0.787259 0.581338
0.544625 0.809155 0.568475
0.596262 0.830762 0.555764
0.677699 0.844587 0.532219
0.863218 0.823407 0.549081
0.33695 0.802411 0.710109
0.386236 0.824628 0.698192
0.435721 0.846769 0.686549
0.485405 0.868818 0.675151
0.535271 0.890837 0.663569
0.585657 0.912779 0.651072
0.636698 0.9346 0.638041
0.688655 0.956069 0.625635
0.785351 0.965805 0.597848
0 0 0.185428
0.0620279 0 0.208728
0.182223 0 0.248371
0.304906 0 0.254444
0.428626 0 0.255375
0.553277 0 0.255344
0.67808 0 0.255009
0.802106 0 0.253742
0.922332 0 0.248631
0.0423133 0.085771 0.214572
0.100343 0.103548 0.220905
0.176516 0.113878 0.247547
0.300237 0.111101 0.264103
0.42446 0.109804 0.264515
0.549111 0.108278 0.263996
0.664958 0.0979171 0.254505
0.7729 0.0796368 0.237079
0.881544 0.0620737 0.22031
0.104524 0.184283 0.285451
0.158282 0.205188 0.273426
0.210712 0.226459 0.261631
0.292363 0.236973 0.27039
0.406317 0.22475 0.259098
0.502083 0.194324 0.229465
0.599832 0.16585 0.201785
0.712993 0.152819 0.189548
0.831952 0.145571 0.183078
0.154452 0.285603 0.364889
0.207858 0.306569 0.353201
0.260258 0.327825 0.34165
0.310033 0.349889 0.329793
0.406394 0.361196 0.28748
0.533562 0.360494 0.273259
0.658381 0.359121 0.272679
0.7832 0.357748 0.272084
0.907774 0.356115 0.271244
0.20148 0.387457 0.447425
0.253025 0.408972 0.435798
0.303044 0.430976 0.42385
0.352377 0.453178 0.411948
0.402716 0.47512 0.399756
0.508125 0.479835 0.395911
0.649454 0.485527 0.276768
0.774014 0.484321 0.275227
0.898833 0.482948 0.274632
0.245502 0.490211 0.52987
0.295705 0.512154 0.517968
0.345098 0.534356 0.505898
0.394461 0.556558 0.494057
0.444312 0.578576 0.482414
0.495659 0.600259 0.469718
0.626749 0.597009 0.469322
0.748425 0.607401 0.361456
0.889326 0.609659 0.277424
0.288075 0.593439 0.612009
0.337667 0.615564 0.599985
0.386938 0.637812 0.587915
0.436301 0.659998 0.57612
0.48603 0.682033 0.564675
0.536507 0.703975 0.552117
0.5888 0.725368 0.539559
0.745495 0.714321 0.540856
0.832471 0.72813 0.501213
0.329976 0.696864 0.694011
0.379339 0.719081 0.681941
0.42858 0.741329 0.669886
0.477974 0.7635 0.658137
0.527657 0.78555 0.646723
0.577752 0.807538 0.634714
0.628779 0.829358 0.621744
0.685985 0.8495 0.606973
0.863615 0.831922 0.611353
0.371557 0.800397 0.775937
0.420829 0.822644 0.763851
0.470069 0.844892 0.751842
0.519478 0.867048 0.740108
0.569131 0.889113 0.728695
0.619043 0.911131 0.717021
0.669596 0.933043 0.704311
0.721035 0.954726 0.691463
0.787167 0.97261 0.672877
0.0108949 0 0.293767
0.0751812 0 0.314336
0.181781 0 0.359426
0.308095 0 0.388891
0.430457 0 0.394583
0.553185 0 0.396094
0.677378 0 0.396658
0.802014 0 0.396674
0.926787 0 0.396414
0.0532692 0.0874495 0.313512
0.118456 0.102159 0.329168
0.185214 0.11577 0.351095
0.302098 0.112367 0.393973
0.425772 0.110231 0.404257
0.54873 0.109209 0.4056
0.673198 0.107866 0.405814
0.79794 0.106477 0.40557
0.922728 0.105074 0.405158
0.115465 0.188327 0.361059
0.164874 0.21001 0.35404
0.223941 0.227344 0.361776
0.294835 0.239567 0.385336
0.417762 0.236133 0.410666
0.541115 0.235035 0.411673
0.665827 0.233646 0.41146
0.787381 0.229007 0.407721
0.895003 0.210422 0.389975
0.174868 0.287419 0.434623
0.228626 0.308309 0.422614
0.281971 0.32932 0.410727
0.332601 0.35108 0.399466
0.408469 0.362554 0.415686
0.531792 0.36051 0.415381
0.62005 0.32256 0.378256
0.700603 0.276921 0.33341
0.804059 0.254154 0.311452
0.22475 0.388861 0.51284
0.278447 0.409766 0.500832
0.332082 0.430701 0.48896
0.385321 0.451713 0.477333
0.436164 0.473457 0.465537
0.521355 0.487282 0.431083
0.648219 0.486488 0.418769
0.773037 0.4851 0.418173
0.89778 0.48365 0.417502
0.27306 0.49041 0.594537
0.326024 0.511498 0.583017
0.378195 0.53283 0.571466
0.42887 0.55462 0.559655
0.478233 0.576837 0.547646
0.528206 0.59884 0.535714
0.627222 0.60557 0.530892
0.763561 0.611765 0.421347
0.888121 0.610529 0.420172
0.318929 0.592615 0.677134
0.370565 0.614099 0.665522
0.421195 0.635904 0.653696
0.470802 0.658045 0.641672
0.520088 0.680278 0.629694
0.569787 0.702327 0.618173
0.620752 0.724132 0.605463
0.745815 0.722866 0.603052
0.861265 0.733806 0.508125
0.362707 0.695445 0.759518
0.413291 0.717266 0.747692
0.463127 0.73933 0.735714
0.512459 0.761563 0.723629
0.561746 0.78378 0.711711
0.611399 0.805844 0.700252
0.661662 0.827802 0.687999
0.713329 0.849393 0.675395
0.864012 0.840452 0.67364
0.405234 0.798688 0.841627
0.455207 0.820706 0.829679
0.504692 0.842878 0.817624
0.553933 0.865125 0.805554
0.603265 0.887327 0.793698
0.652873 0.909407 0.782223
0.702831 0.931411 0.770474
0.753658 0.953277 0.757549
0.806271 0.974563 0.745068
0.0284428 0 0.402121
0.0906386 0 0.421408
0.185657 0 0.46183
0.307362 0 0.506905
0.43386 0 0.529
0.556207 0 0.534707
0.678187 0 0.536477
0.801801 0 0.53753
0.926146 0 0.537926
0.0722515 0.0858778 0.421012
0.136156 0.100877 0.437537
0.199451 0.115724 0.457374
0.302342 0.116381 0.501289
0.428183 0.111162 0.535714
0.551583 0.10927 0.544381
0.673579 0.108507 0.546105
0.797436 0.107271 0.546929
0.921935 0.105913 0.547097
0.11989 0.193118 0.448432
0.176745 0.211292 0.454276
0.242084 0.22594 0.470054
0.306523 0.240421 0.490242
0.418524 0.238315 0.534615
0.543557 0.235187 0.550698
0.665675 0.234379 0.552438
0.789853 0.233082 0.552941
0.914534 0.231708 0.552834
0.188418 0.290715 0.509819
0.237293 0.312963 0.498848
0.287236 0.334356 0.493126
0.346929 0.351415 0.501671
0.413581 0.365194 0.522347
0.534157 0.361669 0.555505
0.656703 0.360708 0.557519
0.781262 0.35935 0.557565
0.90602 0.357931 0.557137
0.244907 0.390631 0.583642
0.298665 0.411536 0.571649
0.352224 0.432486 0.559747
0.404868 0.453696 0.547936
0.45452 0.475639 0.537682
0.523156 0.489158 0.554955
0.647242 0.487282 0.561563
0.757092 0.470939 0.54612
0.819577 0.407202 0.483207
0.294636 0.492195 0.661112
0.348379 0.513115 0.648981
0.402136 0.534035 0.636866
0.455848 0.55494 0.624826
0.509453 0.575875 0.612955
0.56199 0.597101 0.601358
0.63534 0.613535 0.575952
0.762325 0.612696 0.563714
0.887144 0.611307 0.563119
0.34345 0.593698 0.741878
0.396902 0.614664 0.730129
0.450126 0.635676 0.718563
0.502831 0.656855 0.707042
0.554253 0.678416 0.695369
0.603922 0.700526 0.68336
0.653574 0.722622 0.671626
0.746181 0.731411 0.665156
0.877195 0.738186 0.565637
0.390524 0.695583 0.824155
0.443183 0.716747 0.812619
0.495247 0.738109 0.801083
0.546334 0.759777 0.789364
0.596292 0.781796 0.777401
0.645579 0.804028 0.765347
0.69514 0.826139 0.75378
0.745739 0.848035 0.741253
0.864378 0.848966 0.735927
0.43566 0.798001 0.906661
0.487327 0.819471 0.895048
0.538247 0.841184 0.883299
0.588373 0.863172 0.871366
0.637812 0.885359 0.859327
0.687068 0.907591 0.847318
0.736614 0.929702 0.835752
0.786679 0.95169 0.823819
0.838056 0.973373 0.811032
0.0460059 0 0.510506
0.107088 0 0.529091
0.193378 0 0.564935
0.307546 0 0.613153
0.433555 0 0.65095
0.559579 0 0.668971
0.682033 0 0.6748
0.803464 0 0.676692
0.926528 0 0.678096
0.0907912 0.0843671 0.529168
0.153719 0.0996414 0.545907
0.215381 0.115084 0.564752
0.307424 0.119463 0.603586
0.427283 0.114794 0.650263
0.554101 0.110124 0.676371
0.677378 0.108339 0.684428
0.798795 0.107713 0.686366
0.922026 0.10663 0.687648
0.130953 0.19469 0.548012
0.19585 0.209659 0.561913
0.259831 0.224643 0.578424
0.321889 0.239963 0.597253
0.42005 0.242237 0.639078
0.544701 0.236896 0.678187
0.669276 0.234287 0.690623
0.790784 0.233616 0.69276
0.91426 0.232471 0.693874
0.19086 0.296788 0.590234
0.242344 0.317418 0.587686
0.299672 0.335393 0.594141
0.365118 0.350011 0.609918
0.427817 0.365148 0.628672
0.533944 0.364828 0.672633
0.659831 0.360784 0.695323
0.781613 0.359991 0.697993
0.905425 0.35877 0.698833
0.260197 0.393439 0.658778
0.310399 0.415351 0.647089
0.35903 0.437629 0.636591
0.409461 0.458778 0.631922
0.46952 0.475685 0.640925
0.533486 0.490471 0.659449
0.649149 0.487861 0.697948
0.771725 0.486641 0.702464
0.895979 0.485328 0.702861
0.314717 0.49395 0.73257
0.368475 0.514839 0.720562
0.42211 0.53576 0.708644
0.475288 0.556832 0.696757
0.527123 0.578271 0.685023
0.576471 0.600183 0.675959
0.639445 0.615717 0.690089
0.76144 0.613489 0.706249
0.885405 0.611353 0.705226
0.364294 0.595605 0.809537
0.418051 0.616526 0.797345
0.471809 0.63743 0.785153
0.525567 0.658351 0.772992
0.579324 0.679271 0.760845
0.633066 0.700175 0.74876
0.68661 0.721126 0.736934
0.74818 0.73991 0.722866
0.87599 0.739071 0.708217
0.413291 0.697139 0.889479
0.466926 0.718059 0.877592
0.520485 0.738994 0.865782
0.573907 0.759976 0.854078
0.626963 0.781033 0.842542
0.679149 0.80235 0.830976
0.729442 0.824277 0.819089
0.778881 0.846433 0.807324
0.864698 0.857511 0.798169
0.461051 0.798856 0.971176
0.514229 0.819883 0.959625
0.567163 0.840986 0.948089
0.619577 0.862226 0.936568
0.671138 0.883741 0.924941
0.721523 0.905638 0.913069
0.770932 0.92784 0.901015
0.820356 0.949996 0.889296
0.870634 0.971954 0.877073
0.0634012 0 0.618875
0.123919 0 0.637064
0.204059 0 0.669108
0.310887 0 0.715557
0.432639 0 0.762081
0.559686 0 0.793286
0.685283 0 0.808865
0.807828 0 0.814832
0.928939 0 0.816846
0.108827 0.0830091 0.637369
0.171298 0.0983902 0.654322
0.232044 0.114153 0.672602
0.315999 0.121401 0.706981
0.428199 0.118868 0.755032
0.553384 0.113222 0.79556
0.679911 0.109163 0.816648
0.803128 0.107424 0.824384
0.924269 0.106859 0.826535
0.148333 0.193744 0.654063
0.214405 0.208148 0.670069
0.27744 0.223392 0.686809
0.338415 0.239094 0.705013
0.426413 0.244923 0.741604
0.543969 0.240818 0.789425
0.670771 0.235737 0.819699
0.794995 0.233387 0.830488
0.916228 0.232776 0.832944
0.197513 0.300435 0.682368
0.253773 0.318837 0.687785
0.318853 0.333745 0.701808
0.382925 0.348699 0.718288
0.44416 0.36434 0.736309
0.537133 0.368429 0.775464
0.659922 0.363256 0.818387
0.785519 0.359899 0.835126
0.906996 0.359152 0.838193
0.263737 0.399512 0.736004
0.312795 0.421347 0.728496
0.364599 0.44181 0.726574
0.422232 0.459648 0.733394
0.48777 0.47425 0.749142
0.549508 0.489784 0.766903
0.649012 0.491646 0.808728
0.774975 0.4869 0.838224
0.897017 0.485832 0.84271
0.331044 0.496437 0.807568
0.382422 0.518013 0.79585
0.432151 0.540063 0.784268
0.48069 0.562325 0.774273
0.531533 0.583261 0.770459
0.591791 0.600092 0.779706
0.654536 0.615351 0.796948
0.763119 0.614633 0.837705
0.886473 0.612726 0.846662
0.384344 0.597314 0.881392
0.438102 0.618204 0.869398
0.491783 0.639124 0.85745
0.54522 0.660105 0.845563
0.597955 0.6813 0.833738
0.648951 0.702983 0.822034
0.69836 0.724758 0.814145
0.759335 0.741054 0.826581
0.875486 0.739803 0.850172
0.433768 0.699046 0.958007
0.487526 0.719966 0.9458
0.541299 0.740887 0.933593
0.595071 0.761807 0.921386
0.648829 0.782727 0.909178
0.702602 0.803647 0.896986
0.756359 0.824552 0.884794
0.810117 0.845472 0.872663
0.863096 0.866606 0.860624
0.482811 0.800641 1
0.536522 0.821546 1
0.590204 0.842466 1
0.643839 0.863386 1
0.697368 0.884337 0.989624
0.750713 0.905318 0.977996
0.803479 0.926467 0.966476
0.854673 0.948104 0.954772
0.904112 0.970291 0.942824
0.0807813 0 0.727245
0.140948 0 0.74522
0.216724 0 0.774441
0.316884 0.000717174 0.817884
0.433341 0 0.866865
0.558602 0 0.908232
0.68574 0 0.934737
0.810987 0 0.94873
0.933577 0 0.954787
0.126787 0.081651 0.745754
0.188724 0.0971847 0.762707
0.248997 0.11313 0.780697
0.327413 0.122362 0.811627
0.432319 0.12224 0.857252
0.552789 0.117296 0.90486
0.679591 0.111849 0.93875
0.805692 0.108217 0.956741
0.928862 0.106508 0.964309
0.167773 0.191989 0.762051
0.232441 0.20679 0.778302
0.295064 0.222141 0.795224
0.355352 0.238087 0.813092
0.436194 0.246448 0.845502
0.545769 0.244755 0.892882
0.669825 0.2392 0.936004
0.796704 0.234684 0.960449
0.920684 0.232502 0.970336
0.208499 0.302037 0.781979
0.271305 0.317815 0.793973
0.337438 0.332219 0.809979
0.40058 0.347433 0.826688
0.461082 0.363317 0.844388
0.544839 0.370657 0.878538
0.659648 0.367346 0.926589
0.786114 0.361929 0.961059
0.911192 0.35903 0.974945
0.267262 0.404715 0.82182
0.319783 0.424826 0.821286
0.376287 0.443122 0.827024
0.441428 0.458 0.841077
0.505699 0.472908 0.857527
0.566461 0.488746 0.874998
0.654017 0.494743 0.911101
0.77438 0.490028 0.956741
0.90071 0.485969 0.978225
0.336934 0.50193 0.88365
0.385367 0.524208 0.873579
0.434653 0.545937 0.86659
0.486717 0.566278 0.865156
0.544518 0.584054 0.872221
0.610162 0.598611 0.887953
0.67155 0.614298 0.905135
0.764187 0.61854 0.943664
0.889204 0.613443 0.979446
0.401434 0.599588 0.956313
0.453513 0.620951 0.94461
0.504402 0.64268 0.932845
0.553765 0.664836 0.921386
0.602319 0.687022 0.91191
0.653498 0.707805 0.908782
0.713802 0.724605 0.918105
0.776501 0.73994 0.93489
0.87657 0.741833 0.974762
0.453819 0.70074 1
0.507576 0.72163 1
0.561288 0.742535 1
0.614832 0.763485 0.994293
0.667964 0.784558 0.982391
0.720333 0.805844 0.970672
0.770535 0.827771 0.95903
0.820188 0.849363 0.952209
0.881422 0.865614 0.964385
0.50312 0.802533 1
0.556878 0.823453 1
0.610651 0.844373 1
0.664408 0.865293 1
0.718181 0.886213 1
0.771939 0.907134 1
0.825711 0.928054 1
0.879484 0.948959 1
0.933242 0.969879 1
0.098146 0 0.835615
0.158083 0 0.853529
0.230671 0 0.880522
0.324819 0.0028687 0.920913
0.436377 0.000488289 0.969299
0.558145 0 1
0.684794 0 1
0.811704 0 1
0.93666 0 1
0.144671 0.0803082 0.854139
0.206119 0.0959945 0.871092
0.266102 0.112032 0.888945
0.340566 0.122713 0.91725
0.438895 0.124865 0.959777
0.55404 0.121355 1
0.678538 0.115663 1
0.805737 0.110597 1
0.931441 0.107301 1
0.186526 0.190417 0.870176
0.250416 0.205432 0.886671
0.312505 0.220935 0.903609
0.372457 0.236988 0.92134
0.448417 0.24712 0.950622
0.550759 0.247883 0.995071
0.669612 0.243336 1
0.796033 0.23772 1
0.92256 0.233692 1
0.224186 0.301732 0.886687
0.290745 0.31606 0.901961
0.355489 0.330831 0.918318
0.418128 0.346197 0.935073
0.478233 0.362219 0.952697
0.55581 0.371771 0.98294
0.662501 0.371054 1
0.785107 0.365698 1
0.912169 0.360784 1
0.274983 0.407828 0.916014
0.330968 0.426337 0.921157
0.393866 0.442084 0.933242
0.46006 0.456458 0.949233
0.523339 0.471641 0.965911
0.583642 0.487633 0.983337
0.663142 0.496498 1
0.774884 0.494118 1
0.900587 0.488548 1
0.338888 0.508064 0.964889
0.389197 0.529259 0.960098
0.441901 0.549279 0.959899
0.498543 0.567514 0.96582
0.563699 0.582406 0.979858
0.628122 0.597269 0.996262
0.688807 0.613153 1
0.770947 0.621088 1
0.888411 0.617075 1
0.409628 0.60444 1
0.458503 0.626703 1
0.506935 0.648951 1
0.55642 0.670573 1
0.608682 0.690806 1
0.666575 0.708553 1
0.732326 0.723095 1
0.793835 0.738766 1
0.879683 0.745403 1
0.471504 0.702846 1
0.523888 0.724117 1
0.575677 0.745571 1
0.6262 0.767407 1
0.675273 0.789639 1
0.723903 0.811749 1
0.775357 0.832395 1
0.835615 0.84921 1
0.898787 0.864424 1
0.523156 0.804196 1
0.576928 0.825086 1
0.630655 0.845991 1
0.684276 0.866926 1
0.737652 0.887938 1
0.790478 0.909087 1
0.84239 0.93051 1
0.891997 0.95259 1
0.941955 0.974014 1
0.115511 0 0.943984
0.17528 0 0.961807
0.245487 0 0.987137
0.334691 0.00436408 1
0.441535 0.00357061 1
0.559152 0 1
0.683772 0 1
0.810987 0 1
0.937606 0 1
0.162295 0.079057 0.962478
0.223499 0.0948196 0.979492
0.283299 0.110903 0.99736
0.354849 0.122667 1
0.447425 0.126802 1
0.557702 0.124865 1
0.678401 0.119814 1
0.804685 0.114107 1
0.931777 0.109453 1
0.204807 0.188983 0.978378
0.26833 0.204089 0.995056
0.329915 0.21973 1
0.38967 0.235859 1
0.46215 0.247257 1
0.558007 0.250263 1
0.671565 0.247257 1
0.795071 0.241688 1
0.92221 0.236393 1
0.243229 0.300145 0.994049
0.309529 0.314488 1
0.37348 0.329488 1
0.435737 0.34493 1
0.495445 0.361089 1
0.568856 0.372152 1
0.668376 0.373892 1
0.785443 0.369833 1
0.911238 0.364126 1
0.285893 0.409461 1
0.346746 0.425986 1
0.413336 0.44033 1
0.478157 0.45507 1
0.540932 0.47039 1
0.6009 0.486473 1
0.675288 0.4972 1
0.778866 0.497536 1
0.899794 0.4925 1
0.34403 0.512459 1
0.397116 0.532296 1
0.453208 0.550744 1
0.516136 0.566491 1
0.582406 0.58085 1
0.645823 0.595987 1
0.706127 0.611994 1
0.781674 0.622293 1
0.889937 0.621057 1
0.411627 0.610849 1
0.460563 0.632746 1
0.511055 0.653864 1
0.563897 0.673823 1
0.62063 0.692012 1
0.685725 0.70692 1
0.750301 0.721736 1
0.811185 0.737591 1
0.888258 0.747341 1
0.481605 0.707134 1
0.531258 0.729198 1
0.579995 0.751492 1
0.628458 0.773709 1
0.678141 0.795239 1
0.730556 0.815396 1
0.788434 0.833127 1
0.854276 0.847669 1
0.916136 0.863233 1
0.541253 0.806195 1
0.593942 0.82739 1
0.646159 0.848722 1
0.697673 0.870268 1
0.747875 0.892195 1
0.796719 0.914458 1
0.845457 0.936507 1
0.897124 0.957031 1
0.957229 0.973907 1
