LUTs/Artistic/LUT_MAGENTA/1_25.A002_02161553_C053.cube
TITLE "Generated by Resolve"
LUT_3D_SIZE 5
0 0 0.0772259
0.179904 0 0.114076
0.427314 0 0.111437
0.657832 0 0.0911727
0.891096 0 0.0736248
0.0829328 0.18265 0.217472
0.183658 0.226429 0.193881
0.418143 0.234806 0.127016
0.667796 0.232059 0.125856
0.917159 0.229007 0.124392
0.169894 0.38851 0.382162
0.268635 0.432883 0.358419
0.370459 0.476432 0.333928
0.634653 0.481132 0.216129
0.899809 0.48217 0.131685
0.253834 0.595331 0.546212
0.352544 0.639704 0.522576
0.452552 0.683711 0.498878
0.571496 0.722927 0.466911
0.819776 0.720272 0.468711
0.33695 0.802411 0.710109
0.435721 0.846769 0.686549
0.535271 0.890837 0.663569
0.636698 0.9346 0.638041
0.785351 0.965805 0.597848
0.0108949 0 0.293767
0.181781 0 0.359426
0.430457 0 0.394583
0.677378 0 0.396658
0.926787 0 0.396414
0.115465 0.188327 0.361059
0.223941 0.227344 0.361776
0.417762 0.236133 0.410666
0.665827 0.233646 0.41146
0.895003 0.210422 0.389975
0.22475 0.388861 0.51284
0.332082 0.430701 0.48896
0.436164 0.473457 0.465537
0.648219 0.486488 0.418769
0.89778 0.48365 0.417502
0.318929 0.592615 0.677134
0.421195 0.635904 0.653696
0.520088 0.680278 0.629694
0.620752 0.724132 0.605463
0.861265 0.733806 0.508125
0.405234 0.798688 0.841627
0.504692 0.842878 0.817624
0.603265 0.887327 0.793698
0.702831 0.931411 0.770474
0.806271 0.974563 0.745068
0.0460059 0 0.510506
0.193378 0 0.564935
0.433555 0 0.65095
0.682033 0 0.6748
0.926528 0 0.678096
0.130953 0.19469 0.548012
0.259831 0.224643 0.578424
0.42005 0.242237 0.639078
0.669276 0.234287 0.690623
0.91426 0.232471 0.693874
0.260197 0.393439 0.658778
0.35903 0.437629 0.636591
0.46952 0.475685 0.640925
0.649149 0.487861 0.697948
0.895979 0.485328 0.702861
0.364294 0.595605 0.809537
0.471809 0.63743 0.785153
0.579324 0.679271 0.760845
0.68661 0.721126 0.736934
0.87599 0.739071 0.708217
0.461051 0.798856 0.971176
0.567163 0.840986 0.948089
0.671138 0.883741 0.924941
0.770932 0.92784 0.901015
0.870634 0.971954 0.877073
0.0807813 0 0.727245
0.216724 0 0.774441
0.433341 0 0.866865
0.68574 0 0.934737
0.933577 0 0.954787
0.167773 0.191989 0.762051
0.295064 0.222141 0.795224
0.436194 0.246448 0.845502
0.669825 0.2392 0.936004
0.920684 0.232502 0.970336
0.267262 0.404715 0.82182
0.376287 0.443122 0.827024
0.505699 0.472908 0.857527
0.654017 0.494743 0.911101
0.90071 0.485969 0.978225
0.401434 0.599588 0.956313
0.504402 0.64268 0.932845
0.602319 0.687022 0.91191
0.713802 0.724605 0.918105
0.87657 0.741833 0.974762
0.50312 0.802533 1
0.610651 0.844373 1
0.718181 0.886213 1
0.825711 0.928054 1
0.933242 0.969879 1
0.115511 0 0.943984
0.245487 0 0.987137
0.441535 0.00357061 1
0.683772 0 1
0.937606 0 1
0.204807 0.188983 0.978378
0.329915 0.21973 1
0.46215 0.247257 1
0.671565 0.247257 1
0.92221 0.236393 1
0.285893 0.409461 1
0.413336 0.44033 1
0.540932 0.47039 1
0.675288 0.4972 1
0.899794 0.4925 1
0.411627 0.610849 1
0.511055 0.653864 1
0.62063 0.692012 1
0.750301 0.721736 1
0.888258 0.747341 1
0.541253 0.806195 1
0.646159 0.848722 1
0.747875 0.892195 1
0.845457 0.936507 1
0.957229 0.973907 1
