LUTs/Artistic/LUT_MAGENTA/MysticPurpleSunset.cube
TITLE "Generated by Resolve"
LUT_3D_SIZE 33
0 0 0
0 0 0
0 0 0
0 0 0
0.00709544 0 0
0.0434424 0 0
0.0794232 0 0
0.114977 0 0
0.150866 0 0
0.187198 0 0
0.223636 0 0
0.259998 0 0
0.296956 0 0
0.333822 0 0
0.37203 0 0
0.409247 0 0
0.44741 0 0
0.486213 0 0
0.525078 0 0
0.563912 0 0
0.603098 0 0
0.641474 0 0
0.678676 0 0
0.716182 0 0
0.753902 0 0
0.79144 0 0
0.828779 0 0
0.865782 0 0
0.902312 0 0
0.938766 0 0
0.974624 0 0
1 0 0
1 0 0
0 0 0
0 0 0
0 0 0
0 0 0
0.0119783 0 0
0.0481727 0 0
0.0840925 0 0
0.12015 0 0
0.155779 0 0
0.19205 0 0
0.22797 0 0
0.264546 0 0
0.301549 0 0
0.33933 0 0
0.376852 0 0
0.414023 0 0
0.452262 0 0
0.491234 0 0
0.530159 0 0
0.56907 0 0
0.607706 0 0
0.645838 0 0
0.683345 0 0
0.720806 0 0
0.758434 0 0
0.79617 0 0
0.83328 0 0
0.870115 0 0
0.906905 0 0
0.943114 0 0
0.979492 0 0
1 0 0
1 0 0
0 0 0
0 0 0
0 0 0
0 0 0
0.0167544 0 0
0.0530709 0 0
0.0890669 0 0
0.124392 0 0
0.160174 0 0
0.196551 0 0
0.232731 0 0
0.269368 0 0
0.306493 0 0
0.34406 0 0
0.381521 0 0
0.418769 0 0
0.457084 0 0
0.495995 0 0
0.534966 0 0
0.57377 0 0
0.612436 0 0
0.650401 0 0
0.687709 0 0
0.725582 0 0
0.763302 0 0
0.800641 0 0
0.837964 0 0
0.874922 0 0
0.911635 0 0
0.948363 0 0
0.98471 0 0
1 0 0
1 0 0
0 0.00726329 0
0 0.00798047 0
0 0.00917067 0
0 0.0103456 0
0.0219425 0.0109407 0
0.05832 0.012314 0
0.0941024 0.0133974 0
0.129549 0.0145418 0
0.165408 0.0155795 0
0.201572 0.0165103 0
0.238163 0.0174868 0
0.274617 0.0179446 0
0.311681 0.0180972 0
0.349126 0.0180362 0
0.386358 0.0176699 0
0.423713 0.0169985 0
0.462455 0.0163272 0
0.501366 0.0151827 0
0.540093 0.0139315 0
0.578759 0.0125734 0
0.61738 0.0111391 0
0.655253 0.00978103 0
0.693187 0.00851453 0
0.730739 0.0071107 0
0.768383 0.00569161 0
0.806073 0.0043183 0
0.843259 0.00309758 0
0.880293 0.00209049 0
0.917372 0.00120546 0
0.953658 0.000335698 0
0.989883 0 0
1 0 0
1 0 0
0 0.0406806 0
0 0.0414588 0
0 0.042649 0
0 0.0441596 0
0.0264744 0.0451362 0
0.062562 0.0460822 0
0.0980392 0.0471809 0
0.133623 0.0482032 0
0.169238 0.0491951 0
0.205921 0.0502327 0
0.242084 0.0508888 0
0.278676 0.0512856 0
0.315496 0.0514687 0
0.35314 0.0513161 0
0.390341 0.0509041 0
0.428153 0.0504768 0
0.46659 0.0495613 0
0.505409 0.0484779 0
0.544198 0.0472267 0
0.583062 0.0458686 0
0.621881 0.04448 0
0.659907 0.0433661 0
0.697581 0.0419928 0
0.735454 0.0406043 0
0.773175 0.039292 0
0.810651 0.0380865 0
0.84828 0.0372625 0
0.885573 0.0362097 0
0.922286 0.0353552 0
0.95903 0.0345159 0
0.995148 0.0338903 0
1 0.033463 0
1 0.0332647 0
0 0.0742046 0
0 0.0753033 0
0 0.0766308 0
0 0.0779736 0
0.0304875 0.0787671 0
0.0662699 0.0797131 0
0.101854 0.0806897 0
0.137209 0.0817426 0
0.17351 0.082887 0
0.209644 0.0836805 0
0.245884 0.0842603 0
0.282307 0.0846876 0
0.319432 0.0848096 0
0.357259 0.0849317 0
0.394446 0.0845655 0
0.432074 0.0838788 0
0.470787 0.0829633 0
0.509789 0.0818799 0
0.548653 0.080705 0
0.587839 0.0797131 0
0.62681 0.0783551 0
0.6645 0.0770733 0
0.70248 0.0757458 0
0.740276 0.0745403 0
0.778027 0.0733959 0
0.816266 0.0725109 0
0.853651 0.0715343 0
0.890837 0.0706493 0
0.928069 0.0698405 0
0.964599 0.0692912 0
1 0.068925 0
1 0.0687877 0
1 0.0685588 0
0 0.108019 0
0 0.109285 0
0 0.110353 0
0 0.111543 0
0.0340429 0.112322 0
0.0698863 0.113207 0
0.105409 0.114397 0
0.141268 0.115419 0
0.177005 0.116381 0
0.213275 0.117159 0
0.249409 0.117815 0
0.286122 0.118196 0
0.323384 0.118593 0
0.361364 0.118517 0
0.398489 0.118135 0
0.436347 0.11751 0
0.475059 0.116701 0
0.514122 0.115694 0
0.553597 0.114778 0
0.592599 0.113634 0
0.631754 0.112383 0
0.669505 0.111223 0
0.707408 0.110094 0
0.745342 0.10898 0
0.783856 0.108171 0
0.821729 0.107225 0
0.859373 0.106386 0
0.896895 0.105623 0
0.933852 0.105089 0
0.970871 0.104997 0
1 0.104753 0
1 0.10457 0
1 0.104509 0
0 0.141833 0
0 0.142901 0
0 0.143954 0
0.00122072 0.145052 0
0.0373999 0.145861 0
0.0732586 0.146944 0
0.109133 0.148013 0
0.144518 0.149081 0
0.180545 0.150027 0
0.216663 0.150881 0
0.253071 0.151522 0
0.290059 0.152285 0
0.327443 0.152483 0
0.365301 0.152468 0
0.402441 0.152148 0
0.440604 0.151553 0
0.480095 0.150912 0
0.519463 0.150103 0
0.558602 0.149126 0
0.597711 0.148058 0
0.636774 0.14696 0
0.674556 0.145968 0
0.712978 0.14522 0
0.751614 0.144183 0
0.789654 0.143313 0
0.827573 0.142565 0
0.865553 0.141863 0
0.903014 0.141405 0
0.940536 0.14136 0
0.977707 0.141039 0
1 0.141039 0
1 0.141161 0
1 0.141253 0
0 0.175463 0
0 0.176532 0
0 0.177615 0
0.00437934 0.17879 0
0.0409552 0.179812 0
0.0768292 0.180758 0
0.112215 0.181872 0
0.147875 0.18294 0
0.183856 0.184009 0
0.220371 0.185016 0
0.256931 0.185962 0
0.293935 0.186465 0
0.331304 0.186786 0
0.369757 0.186755 0
0.406989 0.186526 0
0.445335 0.186267 0
0.484855 0.185718 0
0.524224 0.184909 0
0.563561 0.18407 0
0.602884 0.183169 0
0.642039 0.182208 0
0.680629 0.18143 0
0.719066 0.180682 0
0.757412 0.179934 0
0.795682 0.179278 0
0.834043 0.178637 0
0.872007 0.178119 0
0.910018 0.178134 0
0.947585 0.177996 0
0.984543 0.178058 0
1 0.178195 0
1 0.178424 0
1 0.179126 0
0 0.209247 0
0 0.210361 0
0 0.211521 0
0.00791943 0.212818 0
0.0441138 0.213764 0
0.0798352 0.214878 0
0.115496 0.216037 0
0.15108 0.217273 0
0.187503 0.218463 0
0.224048 0.219699 0
0.260868 0.220493 0
0.297948 0.221149 0
0.335729 0.221515 0
0.373831 0.221683 0
0.411673 0.221851 0
0.450416 0.221515 0
0.490059 0.220966 0
0.529625 0.220295 0
0.569268 0.219501 0
0.608988 0.218891 0
0.648356 0.218311 0
0.686564 0.217655 0
0.725078 0.216983 0
0.763638 0.216388 0
0.802518 0.215808 0
0.841093 0.215671 0
0.879271 0.215595 0
0.917082 0.215488 0
0.954864 0.215503 0
0.991974 0.215839 0
1 0.216358 0
1 0.217044 0
1 0.2177 0
0 0.24329 0
0 0.244739 0
0 0.245914 0
0.010956 0.24712 0
0.0471809 0.248188 0
0.0830854 0.249393 0
0.118654 0.250751 0
0.154971 0.252354 0
0.19147 0.25359 0
0.228 0.254704 0
0.26479 0.25568 0
0.302022 0.256489 0
0.340169 0.257069 0
0.378729 0.257557 0
0.416587 0.257557 0
0.455665 0.257313 0
0.495552 0.256931 0
0.535332 0.256474 0
0.575204 0.256031 0
0.615152 0.255604 0
0.654307 0.255039 0
0.693004 0.25452 0
0.731914 0.254063 0
0.770809 0.253651 0
0.809644 0.253544 0
0.848493 0.253498 0
0.886778 0.253574 0
0.925002 0.253758 0
0.962783 0.254063 0
0.999954 0.254582 0
1 0.255573 0
1 0.25626 0
1 0.257069 0
0 0.277958 0
0 0.279271 0
0 0.280598 0
0.0141451 0.281926 0
0.0505531 0.283131 0
0.0863813 0.284535 0
0.122774 0.286198 0
0.158724 0.287709 0
0.195392 0.289143 0
0.23212 0.29044 0
0.269047 0.291585 0
0.306813 0.29247 0
0.345418 0.2934 0
0.383764 0.293812 0
0.42211 0.293965 0
0.461555 0.293889 0
0.501396 0.29369 0
0.541863 0.293645 0
0.581933 0.293278 0
0.621958 0.292897 0
0.661006 0.292531 0
0.700023 0.29218 0
0.739437 0.291966 0
0.778759 0.292103 0
0.81767 0.292119 0
0.856504 0.292134 0
0.89514 0.292317 0
0.933211 0.29276 0
0.971344 0.293477 0
1 0.294408 0
1 0.295216 0
1 0.295979 0
1 0.296895 0
0 0.312901 0
0 0.314336 0
0 0.315923 0
0.017792 0.317189 0
0.0545052 0.318837 0
0.0907301 0.320439 0
0.12665 0.322118 0
0.162936 0.323751 0
0.199878 0.325292 0
0.236805 0.326741 0
0.274601 0.328344 0
0.312398 0.329442 0
0.351095 0.330205 0
0.389258 0.3308 0
0.428153 0.33106 0
0.468101 0.331167 0
0.508827 0.331411 0
0.548882 0.331289 0
0.589014 0.331121 0
0.62948 0.330907 0
0.668772 0.33077 0
0.708125 0.330755 0
0.747875 0.330907 0
0.78706 0.330968 0
0.826139 0.331182 0
0.865156 0.331487 0
0.90396 0.331868 0
0.942199 0.332555 0
0.98027 0.333455 0
1 0.33431 0
1 0.335225 0
1 0.336156 0
1 0.337148 0
0 0.348318 0
0 0.349874 0
0 0.351659 0
0.0221408 0.353323 0
0.0588083 0.354971 0
0.0949721 0.356741 0
0.131319 0.358557 0
0.168017 0.360403 0
0.205035 0.362188 0
0.242603 0.364065 0
0.280156 0.365545 0
0.318502 0.366766 0
0.357595 0.367727 0
0.396063 0.368414 0
0.434974 0.368902 0
0.475883 0.369421 0
0.516518 0.369604 0
0.557061 0.369696 0
0.597513 0.369711 0
0.638071 0.369619 0
0.677684 0.370001 0
0.717174 0.370123 0
0.756863 0.37026 0
0.796231 0.370504 0
0.83537 0.370809 0
0.874403 0.371267 0
0.913664 0.372061 0
0.951873 0.372824 0
0.989822 0.373617 0
1 0.374624 0
1 0.375662 0
1 0.376822 0
1 0.378317 0
0 0.384237 0
0 0.385992 0
0 0.388281 0
0.0270695 0.389914 0
0.0639506 0.391714 0
0.100267 0.393698 0
0.136812 0.395697 0
0.173892 0.397986 0
0.211521 0.400031 0
0.249088 0.401831 0
0.286931 0.403449 0
0.325612 0.404791 0
0.365087 0.405921 0
0.404074 0.407111 0
0.44361 0.407858 0
0.484382 0.408255 0
0.525322 0.408484 0
0.566064 0.408713 0
0.606821 0.408896 0
0.647883 0.409354 0
0.687175 0.409552 0
0.726818 0.409781 0
0.766491 0.410025 0
0.806119 0.410346 0
0.845396 0.410834 0
0.884978 0.411643 0
0.923812 0.412299 0
0.962097 0.413214 0
1 0.414176 0
1 0.41529 0
1 0.416373 0
1 0.417853 0
1 0.419287 0
0 0.421012 0
0 0.423117 0
0 0.425238 0
0.0330053 0.427054 0
0.06981 0.42916 0
0.106722 0.431296 0
0.143648 0.433768 0
0.180987 0.436133 0
0.218723 0.438239 0
0.256641 0.440223 0
0.294942 0.4421 0
0.334051 0.443626 0
0.374014 0.44509 0
0.413016 0.446143 0
0.453132 0.446921 0
0.494118 0.447501 0
0.535332 0.447883 0
0.576211 0.448173 0
0.617533 0.448753 0
0.657923 0.448966 0
0.69752 0.449271 0
0.737331 0.449607 0
0.777234 0.449912 0
0.817212 0.45069 0
0.856626 0.451347 0
0.89604 0.451957 0
0.934737 0.452781 0
0.973129 0.453742 0
1 0.454871 0
1 0.456474 0
1 0.457633 0
1 0.4589 0
1 0.460365 0
0 0.458274 0
0 0.460502 0
0.00239567 0.462806 0
0.0400244 0.464805 0
0.0769665 0.467109 0
0.114351 0.469871 0
0.151568 0.472343 0
0.189212 0.474845 0
0.227146 0.47715 0
0.265354 0.479225 0
0.304158 0.481346 0
0.343923 0.483192 0
0.383505 0.484565 0
0.423011 0.485634 0
0.463401 0.486488 0
0.504677 0.487129 0
0.546273 0.487816 0
0.587488 0.48838 0
0.628565 0.488762 0
0.668635 0.489097 0
0.708537 0.489555 0
0.748516 0.490059 0
0.788891 0.490806 0
0.828595 0.491463 0
0.868162 0.492149 0
0.907256 0.493004 0
0.946136 0.49395 0
0.984573 0.495018 0
1 0.496605 0
1 0.497856 0.000579843
1 0.499153 0.00201419
1 0.500633 0.00358587
1 0.501961 0.00508125
0 0.496239 0
0 0.49868 0
0.0102846 0.501167 0
0.0481575 0.503639 0
0.0856336 0.506523 0
0.122866 0.509163 0
0.160327 0.511818 0
0.198276 0.514488 0
0.236316 0.517021 0
0.275227 0.519387 0
0.314397 0.521614 0
0.354116 0.523354 0
0.393698 0.524727 0
0.433692 0.525841 0
0.47451 0.526802 0
0.516258 0.527657 0
0.557763 0.528374 0
0.599008 0.528923 0
0.640238 0.529397 0
0.68014 0.529885 0.00015259
0.72018 0.530404 0.000762951
0.760861 0.531273 0.00170901
0.800793 0.531914 0.00247196
0.840513 0.532647 0.00331121
0.880095 0.533425 0.00419623
0.919081 0.534371 0.00527962
0.958404 0.535622 0.00663767
0.996765 0.53695 0.00810254
1 0.538247 0.00965896
1 0.539574 0.0110018
1 0.540932 0.0125124
1 0.542473 0.0141756
1 0.544106 0.0159457
0 0.535302 0
0 0.538003 0
0.0192264 0.540673 0
0.0574197 0.543542 0
0.0947738 0.546395 0
0.13228 0.549264 0
0.170108 0.552117 0
0.208225 0.554833 0
0.246815 0.557794 0
0.285863 0.560037 0
0.325154 0.562158 0.000976577
0.365164 0.563973 0.00260929
0.404776 0.565332 0.00430304
0.445151 0.566659 0.0056611
0.486824 0.56791 0.00628672
0.528496 0.568643 0.00730907
0.569879 0.569314 0.00807202
0.611276 0.569909 0.00859083
0.652293 0.570474 0.00936904
0.692515 0.571252 0.0102388
0.733028 0.57203 0.0111238
0.773236 0.572671 0.0118257
0.813184 0.573388 0.012665
0.853086 0.574166 0.0135348
0.892485 0.575113 0.0146029
0.931899 0.576349 0.0162203
0.970611 0.577661 0.0173953
1 0.578897 0.0187839
1 0.580255 0.0202335
1 0.581674 0.0217746
1 0.583032 0.0235142
1 0.584939 0.0252842
1 0.586252 0.0269474
0 0.575143 0
0 0.578592 0
0.0293278 0.581247 0
0.0673838 0.584054 0
0.104784 0.586999 0
0.142275 0.590051 0
0.180591 0.592935 6.10361e-05
0.219318 0.596155 0.00341802
0.257923 0.598764 0.00610361
0.296864 0.60119 0.00863661
0.33666 0.603311 0.0103456
0.377157 0.605127 0.0122072
0.416754 0.606714 0.0138705
0.457679 0.608255 0.0154879
0.499611 0.609216 0.016495
0.541192 0.610086 0.0174411
0.58262 0.610895 0.0183108
0.624125 0.611566 0.019028
0.664897 0.612375 0.0199283
0.705379 0.61326 0.0210117
0.745769 0.613962 0.0216526
0.786145 0.614679 0.0224613
0.826322 0.615412 0.0235294
0.865995 0.616327 0.0243076
0.905898 0.617624 0.0259861
0.944823 0.618769 0.0270085
0.983291 0.62002 0.0284123
1 0.621241 0.0300145
1 0.622629 0.0313115
1 0.624155 0.0332341
1 0.625727 0.0347143
1 0.627207 0.0366064
1 0.628489 0.0379797
0 0.616312 0
0.0015259 0.619455 0
0.0399329 0.622309 0
0.0780346 0.625284 0.00062562
0.115587 0.628428 0.00392157
0.153429 0.63154 0.00717174
0.192111 0.635004 0.0107729
0.230884 0.637903 0.0133516
0.269688 0.64065 0.0161135
0.308919 0.643122 0.0186923
0.349081 0.645228 0.0210269
0.389746 0.64741 0.0231479
0.429709 0.648966 0.0247959
0.471107 0.650141 0.0263371
0.512963 0.651179 0.0271916
0.554391 0.65211 0.0282292
0.59617 0.652857 0.0292973
0.638193 0.653895 0.0302281
0.678553 0.654582 0.03122
0.718929 0.655299 0.0318303
0.759213 0.656016 0.0326848
0.799558 0.656718 0.0337682
0.839658 0.657679 0.0346227
0.879881 0.658747 0.0359655
0.919188 0.659724 0.0372778
0.957961 0.660883 0.0383459
0.996445 0.662058 0.0399634
1 0.663417 0.0412451
1 0.664805 0.0430915
1 0.666362 0.0447089
1 0.667765 0.0463874
1 0.669108 0.0479744
1 0.670359 0.0491646
0 0.657847 0.00149538
0.0129397 0.66099 0.00485237
0.0514382 0.663935 0.00798047
0.0893263 0.667124 0.0111696
0.127764 0.670649 0.0146487
0.165759 0.673961 0.0180972
0.204334 0.677089 0.0214542
0.243061 0.680034 0.0244755
0.2822 0.68275 0.0273594
0.321904 0.685191 0.0300145
0.362814 0.687678 0.0325475
0.402823 0.689433 0.0344549
0.443366 0.690852 0.0362402
0.485069 0.692073 0.0373388
0.526741 0.693156 0.0385748
0.568658 0.69395 0.0397498
0.610758 0.695064 0.0407568
0.652384 0.695689 0.0417487
0.6925 0.696422 0.0425422
0.732921 0.697154 0.0432898
0.773388 0.69781 0.044358
0.813596 0.698634 0.045243
0.853849 0.699733 0.046479
0.893477 0.700603 0.0477455
0.932754 0.701595 0.0486915
0.971633 0.702632 0.0502022
1 0.703899 0.0514687
1 0.705486 0.0534981
1 0.706783 0.0550546
1 0.708049 0.0562753
1 0.709484 0.0582132
1 0.710658 0.0595102
1 0.711894 0.0610666
0 0.69958 0.0121462
0.0253452 0.702724 0.0156558
0.0637217 0.705882 0.0189364
0.102113 0.709407 0.0229648
0.140078 0.712856 0.0263981
0.178286 0.716182 0.0299687
0.217426 0.719249 0.0334936
0.256214 0.72224 0.0364233
0.295491 0.724926 0.0393683
0.335943 0.727672 0.0422217
0.376806 0.729702 0.0444343
0.416754 0.73138 0.04654
0.45774 0.732769 0.047837
0.499474 0.733959 0.0491951
0.541985 0.73518 0.0508431
0.58381 0.736034 0.0516213
0.625498 0.736751 0.0525368
0.666728 0.737362 0.0535744
0.70692 0.738064 0.0542
0.747463 0.738674 0.0552682
0.788205 0.739742 0.0564736
0.82826 0.74049 0.0572824
0.868162 0.741238 0.0585031
0.907515 0.742153 0.0593881
0.946593 0.743099 0.0608377
0.985382 0.744183 0.0621347
1 0.745724 0.0637675
1 0.746914 0.0654459
1 0.748165 0.0667124
1 0.74934 0.0684062
1 0.750698 0.0700542
1 0.751873 0.0714122
1 0.753185 0.0730755
0 0.741573 0.0244602
0.0384375 0.744915 0.0278325
0.0769665 0.748394 0.0316167
0.115251 0.75172 0.0352483
0.153307 0.755108 0.0388952
0.191959 0.758358 0.042649
0.230823 0.761532 0.0458228
0.270191 0.764706 0.0493629
0.309972 0.767452 0.0522469
0.350317 0.769711 0.0546731
0.391119 0.771588 0.0570077
0.431357 0.77319 0.0585641
0.472511 0.774548 0.0601358
0.51519 0.77583 0.0618906
0.557153 0.776761 0.0627756
0.598642 0.777584 0.0638132
0.640497 0.778164 0.0648661
0.681056 0.778866 0.065507
0.721553 0.779431 0.0665293
0.762371 0.780423 0.0677653
0.80264 0.781079 0.068452
0.842939 0.781674 0.0695354
0.882567 0.782483 0.0703593
0.921767 0.783352 0.0715648
0.960647 0.784298 0.0729839
0.999359 0.785748 0.0744945
1 0.786786 0.0760662
1 0.787976 0.0773785
1 0.78912 0.0789807
1 0.790356 0.0805219
1 0.791897 0.0821393
1 0.792874 0.08365
1 0.793912 0.0847791
0.0132296 0.783825 0.0371099
0.0522774 0.787213 0.0408637
0.0907912 0.790509 0.0446021
0.128817 0.793973 0.0482643
0.167147 0.797345 0.0522011
0.205921 0.800671 0.0555581
0.245167 0.803952 0.0591897
0.28481 0.806882 0.0623331
0.32459 0.80943 0.0651255
0.365194 0.811597 0.0676432
0.405844 0.813336 0.0695811
0.446235 0.814832 0.0712444
0.488594 0.816297 0.0731975
0.53051 0.817304 0.0741894
0.57229 0.818128 0.0752575
0.614191 0.818738 0.0763409
0.655818 0.819333 0.0769207
0.696437 0.820172 0.0782177
0.73695 0.820829 0.0791485
0.777249 0.821439 0.0798047
0.817502 0.822003 0.0808728
0.857298 0.82269 0.0818036
0.896803 0.823453 0.0826429
0.936568 0.824506 0.0842756
0.975158 0.825498 0.0853132
1 0.826505 0.0868696
1 0.827634 0.0882582
1 0.828717 0.0894484
1 0.82977 0.0910658
1 0.831449 0.0928359
1 0.832395 0.0942855
1 0.833356 0.095613
1 0.834348 0.0966354
0.0278172 0.826108 0.0506142
0.0666056 0.829343 0.0543679
0.104768 0.832792 0.0579995
0.142992 0.836179 0.0619821
0.181643 0.839673 0.065568
0.22089 0.843183 0.0694285
0.260014 0.846128 0.0728313
0.299428 0.848859 0.0756542
0.339437 0.851255 0.0783703
0.38056 0.853193 0.0804761
0.420859 0.855055 0.0826276
0.462257 0.856474 0.0845655
0.504067 0.857588 0.0856641
0.546014 0.858427 0.0867628
0.587976 0.859068 0.0879072
0.629679 0.859693 0.0885023
0.671183 0.860471 0.0895552
0.711589 0.861082 0.0906844
0.751904 0.861631 0.0912337
0.792111 0.862165 0.0920882
0.832197 0.862699 0.0930953
0.871824 0.863371 0.0937972
0.911604 0.864317 0.0953384
0.95053 0.865202 0.0962692
0.989075 0.866087 0.0974899
1 0.867079 0.0990158
1 0.868177 0.100175
1 0.869215 0.101686
1 0.870558 0.103334
1 0.871809 0.104799
1 0.872694 0.106233
1 0.87364 0.107256
1 0.874525 0.108598
0.0424353 0.868177 0.0643626
0.0809033 0.871565 0.0679789
0.119203 0.874968 0.0717784
0.15758 0.878447 0.0755932
0.196414 0.882063 0.0795911
0.235554 0.885145 0.0830396
0.274601 0.88806 0.0861677
0.31426 0.890623 0.0890211
0.354772 0.89279 0.0914473
0.395941 0.894774 0.0937057
0.436469 0.896391 0.0958114
0.477592 0.897642 0.0970779
0.519677 0.898558 0.0982528
0.561624 0.899275 0.0993362
0.60322 0.899931 0.100114
0.645258 0.900786 0.101259
0.685985 0.901228 0.10219
0.726192 0.901747 0.102708
0.766384 0.902235 0.103456
0.806806 0.902617 0.104356
0.846922 0.903365 0.105165
0.886641 0.904097 0.106325
0.92575 0.904814 0.107195
0.964324 0.905638 0.108339
1 0.906508 0.109712
1 0.907485 0.11078
1 0.908782 0.112413
1 0.90985 0.114061
1 0.910979 0.115236
1 0.911971 0.116762
1 0.912886 0.117754
1 0.913771 0.118959
1 0.9149 0.120684
0.0570993 0.910307 0.0780804
0.0954757 0.913634 0.0818036
0.134112 0.917403 0.0859541
0.172244 0.92079 0.0897078
0.211124 0.923995 0.0932021
0.25008 0.927001 0.0965286
0.289387 0.929717 0.0995346
0.329397 0.932143 0.102205
0.37026 0.934524 0.104875
