LUTs/Artistic/LUT_MAGENTA/MysticPurpleSunset.cube
TITLE "Generated by Resolve"
LUT_3D_SIZE 5
0 0 0
0.150866 0 0
0.44741 0 0
0.753902 0 0
1 0 0
0 0.175463 0
0.183856 0.184009 0
0.484855 0.185718 0
0.795682 0.179278 0
1 0.179126 0
0 0.458274 0
0.227146 0.47715 0
0.546273 0.487816 0
0.868162 0.492149 0
1 0.501961 0.00508125
0.0132296 0.783825 0.0371099
0.32459 0.80943 0.0651255
0.655818 0.819333 0.0769207
0.975158 0.825498 0.0853132
1 0.834348 0.0966354
0.127947 1 0.144808
0.442359 1 0.166049
0.770214 1 0.171756
1 1 0.178607
1 1 0.188052
0 0 0.157183
0.153185 0 0.167636
0.449836 0 0.170169
0.755795 0 0.160189
1 0 0.152422
0 0.177096 0.187976
0.186191 0.186023 0.197772
0.488258 0.188144 0.20061
0.800717 0.182818 0.19617
1 0.183948 0.198611
0 0.462501 0.219318
0.233768 0.482994 0.241352
0.554162 0.493782 0.253956
0.876677 0.498939 0.261173
1 0.509026 0.273899
0.0218967 0.791089 0.305547
0.333837 0.816632 0.335119
0.664759 0.825833 0.348119
0.982849 0.831601 0.357885
1 0.840177 0.371054
0.135668 1 0.418357
0.449912 1 0.440543
0.776776 1 0.44799
1 1 0.456794
1 1 0.467964
0 0 0.428611
0.15433 0 0.439475
0.450721 0 0.442634
0.756649 0 0.433616
1 0 0.42678
0 0.177508 0.461204
0.187869 0.18732 0.472572
0.491142 0.190127 0.476753
0.804746 0.186206 0.474098
1 0.188586 0.478965
0 0.466682 0.498436
0.239933 0.48838 0.523201
0.561807 0.499657 0.538537
0.884169 0.505058 0.548547
1 0.51574 0.564645
0.0302739 0.798123 0.595163
0.342092 0.823011 0.627283
0.672831 0.831968 0.643961
0.989746 0.837308 0.658579
1 0.845808 0.677989
0.143023 1 0.721767
0.457221 1 0.749096
0.783627 1 0.761532
1 1 0.775113
1 1 0.790631
0 0 0.733791
0.155978 0 0.747051
0.451881 0 0.751598
0.757626 0 0.744503
1 0 0.74023
0 0.178439 0.772946
0.189975 0.18909 0.786801
0.494926 0.193042 0.794537
0.809827 0.190005 0.795789
1 0.194217 0.805661
0 0.471901 0.82298
0.246677 0.494331 0.851423
0.570459 0.506355 0.869947
0.893065 0.5122 0.882414
1 0.523186 0.900618
0.0394903 0.805982 0.931197
0.351629 0.830427 0.964187
0.681758 0.838773 0.980957
0.997971 0.844007 0.99472
1 0.852033 1
0.151247 1 1
0.4654 1 1
0.791836 1 1
1 1 1
1 1 1
0 0 1
0.158145 0 1
0.454368 0 1
0.760067 0 1
1 0 1
0 0.180911 1
0.193561 0.192401 1
0.50071 0.197528 1
0.817288 0.195911 1
1 0.201175 1
0 0.478798 1
0.25536 0.502037 1
0.580621 0.514153 1
0.903014 0.520333 1
1 0.530877 1
0.0493477 0.81442 1
0.361715 0.838407 1
0.690837 0.845579 1
1 0.850919 1
1 0.858717 1
0.159228 1 1
0.474449 1 1
0.800214 1 1
1 1 1
1 1 1
