LUTs/Artistic/LUT_MAGENTA/MysticPurpleSunset.cube
TITLE "Generated by Resolve"
LUT_3D_SIZE 9
0 0 0
0.00709544 0 0
0.150866 0 0
0.296956 0 0
0.44741 0 0
0.603098 0 0
0.753902 0 0
0.902312 0 0
1 0 0
0 0.0406806 0
0.0264744 0.0451362 0
0.169238 0.0491951 0
0.315496 0.0514687 0
0.46659 0.0495613 0
0.621881 0.04448 0
0.773175 0.039292 0
0.922286 0.0353552 0
1 0.0332647 0
0 0.175463 0
0.0409552 0.179812 0
0.183856 0.184009 0
0.331304 0.186786 0
0.484855 0.185718 0
0.642039 0.182208 0
0.795682 0.179278 0
0.947585 0.177996 0
1 0.179126 0
0 0.312901 0
0.0545052 0.318837 0
0.199878 0.325292 0
0.351095 0.330205 0
0.508827 0.331411 0
0.668772 0.33077 0
0.826139 0.331182 0
0.98027 0.333455 0
1 0.337148 0
0 0.458274 0
0.0769665 0.467109 0
0.227146 0.47715 0
0.383505 0.484565 0
0.546273 0.487816 0
0.708537 0.489555 0
0.868162 0.492149 0
1 0.496605 0
1 0.501961 0.00508125
0 0.616312 0
0.115587 0.628428 0.00392157
0.269688 0.64065 0.0161135
0.429709 0.648966 0.0247959
0.59617 0.652857 0.0292973
0.759213 0.656016 0.0326848
0.919188 0.659724 0.0372778
1 0.664805 0.0430915
1 0.670359 0.0491646
0.0132296 0.783825 0.0371099
0.167147 0.797345 0.0522011
0.32459 0.80943 0.0651255
0.488594 0.816297 0.0731975
0.655818 0.819333 0.0769207
0.817502 0.822003 0.0808728
0.975158 0.825498 0.0853132
1 0.82977 0.0910658
1 0.834348 0.0966354
0.0716411 0.952316 0.0918441
0.225681 0.965743 0.1066
0.38526 0.975647 0.11754
0.550072 0.97998 0.122744
0.71519 0.981872 0.126055
0.875502 0.983795 0.129549
1 0.986603 0.133837
1 0.990524 0.139086
1 0.993729 0.143282
0.127947 1 0.144808
0.28188 1 0.157885
0.442359 1 0.166049
0.60795 1 0.169299
0.770214 1 0.171756
0.927901 1 0.174273
1 1 0.178607
1 1 0.18349
1 1 0.188052
0 0 0.0282597
0.00848402 0 0.0337072
0.152148 0 0.0385138
0.297871 0 0.0414893
0.448661 0 0.0410163
0.604013 0 0.0365606
0.755154 0 0.0309148
0.903517 0 0.0262913
1 0 0.0228885
0 0.0414282 0.0455024
0.0276799 0.0461128 0.0506447
0.170535 0.0500801 0.0551919
0.316686 0.052369 0.0575265
0.467765 0.0504768 0.0558633
0.623117 0.0454261 0.0511635
0.774716 0.0403906 0.0463264
0.924178 0.0365454 0.043183
1 0.0345769 0.041474
0 0.17641 0.0586252
0.0419165 0.180529 0.0630503
0.185138 0.185138 0.0679637
0.333059 0.188006 0.0710307
0.486778 0.187121 0.0703441
0.644358 0.18378 0.067216
0.798215 0.18117 0.0647898
0.950149 0.180301 0.0644694
1 0.181445 0.066041
0 0.314305 0.0691234
0.0559854 0.320211 0.0754864
0.202029 0.327199 0.0827192
0.353536 0.332387 0.087892
0.511269 0.333532 0.0890669
0.672038 0.333532 0.089189
0.830106 0.334096 0.0901961
0.9841 0.336568 0.0929885
1 0.340597 0.0973373
0 0.4607 0.0874952
0.0800336 0.46981 0.0973983
0.230503 0.480125 0.108431
0.387289 0.487633 0.11632
0.549966 0.490852 0.119875
0.712856 0.492912 0.122332
0.872633 0.495644 0.125628
1 0.500099 0.1308
1 0.505638 0.137179
0 0.619669 0.121462
0.119539 0.631998 0.134569
0.273747 0.644388 0.147646
0.434531 0.652567 0.15639
0.601068 0.656474 0.160922
0.764187 0.659571 0.165026
0.923583 0.663417 0.16968
1 0.668315 0.175555
1 0.673808 0.182483
0.0176089 0.787488 0.169055
0.171725 0.801282 0.184405
0.329366 0.813184 0.197955
0.493172 0.819745 0.205554
0.660578 0.822705 0.210071
0.822065 0.825315 0.21384
0.979202 0.828717 0.219059
1 0.833021 0.224765
1 0.837339 0.231174
0.0761273 0.95613 0.224964
0.229984 0.969467 0.239811
0.389853 0.979019 0.250919
0.554498 0.983032 0.256184
0.719539 0.984817 0.260182
0.879515 0.986267 0.263828
1 0.989288 0.268452
1 0.993362 0.274479
1 0.99649 0.279194
0.131868 1 0.278889
0.285924 1 0.292042
0.44654 1 0.300649
0.611872 1 0.304387
0.773465 1 0.306752
0.931228 1 0.310353
1 1 0.314855
1 1 0.320592
1 1 0.325689
0 0 0.157183
0.00970474 0 0.162707
0.153185 0 0.167636
0.299153 0 0.170733
0.449836 0 0.170169
0.604898 0 0.165454
0.755795 0 0.160189
0.904418 0 0.155673
1 0 0.152422
0 0.0422522 0.174899
0.0285649 0.0467994 0.179751
0.171466 0.0507515 0.184314
0.317601 0.0529793 0.186816
0.468727 0.0510567 0.185229
0.624384 0.0461585 0.180682
0.775799 0.0413367 0.176349
0.925689 0.0376593 0.173266
1 0.0359045 0.172168
0 0.177096 0.187976
0.042771 0.181231 0.192538
0.186191 0.186023 0.197772
0.334401 0.189059 0.201175
0.488258 0.188144 0.20061
0.646342 0.185245 0.198108
0.800717 0.182818 0.19617
0.952789 0.182177 0.196139
1 0.183948 0.198611
0 0.315358 0.199145
0.0575418 0.32166 0.205951
0.203815 0.329 0.213931
0.35613 0.334356 0.219654
0.514397 0.335698 0.221332
0.675425 0.335958 0.221973
0.83328 0.336889 0.223407
0.987045 0.339315 0.226383
1 0.343755 0.231998
0 0.462501 0.219318
0.0829175 0.472404 0.230152
0.233768 0.482994 0.241352
0.390646 0.490608 0.249714
0.554162 0.493782 0.253956
0.716915 0.496025 0.25716
0.876677 0.498939 0.261173
1 0.503304 0.266606
1 0.509026 0.273899
0 0.622629 0.255268
0.123247 0.635447 0.269413
0.277989 0.647791 0.282979
0.438209 0.65565 0.291981
0.605509 0.659831 0.297353
0.768322 0.663005 0.301885
0.927871 0.666712 0.307149
1 0.671534 0.313603
1 0.677043 0.320668
0.0218967 0.791089 0.305547
0.175952 0.804883 0.321477
0.333837 0.816632 0.335119
0.497704 0.822721 0.343099
0.664759 0.825833 0.348119
0.826032 0.828336 0.352682
0.982849 0.831601 0.357885
1 0.835828 0.36463
1 0.840177 0.371054
0.0802777 0.959594 0.363012
0.234287 0.972732 0.378378
0.39411 0.982055 0.389685
0.558556 0.985901 0.395392
0.723369 0.987533 0.399969
0.882902 0.989044 0.403861
1 0.991928 0.409155
1 0.996033 0.415488
1 0.999069 0.420737
0.135668 1 0.418357
0.289555 1 0.432151
0.449912 1 0.440543
0.615671 1 0.445151
0.776776 1 0.44799
0.934462 1 0.451774
1 1 0.456794
1 1 0.462806
1 1 0.467964
0 0 0.290028
0.0102846 0 0.295613
0.15407 0 0.300938
0.300023 0 0.304479
0.450614 0 0.303777
0.605524 0 0.299321
0.756313 0 0.294118
0.904952 0 0.28986
1 0 0.286793
0 0.0428016 0.308461
0.0290074 0.0470741 0.313207
0.17203 0.0511025 0.318227
0.318212 0.0533303 0.320775
0.469139 0.0512245 0.319219
0.625208 0.0466316 0.315496
0.776776 0.0420233 0.311345
0.926909 0.0385595 0.308736
1 0.0370184 0.308354
0 0.177462 0.321996
0.0432593 0.18175 0.32694
0.187198 0.186618 0.332662
0.335317 0.189929 0.336339
0.489815 0.189014 0.336278
0.648081 0.186542 0.334249
0.802609 0.184497 0.333028
0.955093 0.184054 0.333562
1 0.186206 0.336812
0 0.316197 0.334569
0.0586404 0.322927 0.341924
0.205509 0.330526 0.350286
0.358267 0.336065 0.356588
0.517159 0.33785 0.359106
0.678172 0.338399 0.360372
0.836439 0.339437 0.362264
0.990372 0.342 0.366217
1 0.346853 0.372274
0 0.464469 0.356786
0.0854505 0.47483 0.368292
0.236805 0.485634 0.38056
0.393851 0.493004 0.38909
0.557809 0.496681 0.39382
0.720653 0.499016 0.397711
0.880323 0.501884 0.401968
1 0.506493 0.40856
1 0.512383 0.415976
0 0.625696 0.395315
0.126818 0.638727 0.409995
0.281727 0.651179 0.423926
0.442573 0.658854 0.433494
0.609827 0.66305 0.439155
0.772641 0.666163 0.444312
0.931212 0.669657 0.449516
1 0.674846 0.456458
1 0.680156 0.4636
0.0261082 0.794537 0.447517
0.179934 0.808438 0.463905
0.338125 0.819944 0.478004
0.501915 0.825925 0.485908
0.669017 0.828824 0.490867
0.829999 0.831327 0.495323
0.986389 0.834272 0.500664
1 0.838727 0.508171
1 0.842969 0.515908
0.0843061 0.962997 0.506249
0.238132 0.976059 0.521248
0.397772 0.984741 0.532143
0.563043 0.988617 0.538689
0.72697 0.990372 0.544015
0.886503 0.991775 0.548852
1 0.994675 0.554757
1 0.998337 0.561593
1 1 0.568353
0.139269 1 0.561975
0.293446 1 0.576379
0.45359 1 0.585657
0.619516 1 0.590982
0.780331 1 0.594919
0.937728 1 0.599542
1 1 0.605951
1 1 0.613581
1 1 0.620706
0 0 0.428611
0.0109865 0 0.434241
0.15433 0 0.439475
0.300679 0 0.443397
0.450721 0 0.442634
0.605905 0 0.438392
0.756649 0 0.433616
0.905089 0 0.429099
1 0 0.42678
0 0.0429389 0.447318
0.0292668 0.0473487 0.452415
0.172457 0.0513313 0.457252
0.318685 0.0535592 0.460243
0.469917 0.0514839 0.458915
0.625971 0.0471046 0.455238
0.777768 0.0426642 0.451606
0.927611 0.0392767 0.449134
1 0.0383001 0.449165
0 0.177508 0.461204
0.0437629 0.182208 0.466697
0.187869 0.18732 0.472572
0.336431 0.190768 0.476753
0.491142 0.190127 0.476753
0.649561 0.187961 0.475044
0.804746 0.186206 0.474098
0.957275 0.186145 0.475029
1 0.188586 0.478965
0 0.317082 0.475044
0.0602731 0.324178 0.482856
0.207431 0.332128 0.491386
0.360113 0.337804 0.497597
0.51986 0.340108 0.500755
0.681498 0.340856 0.502586
0.839872 0.342046 0.505455
0.99379 0.344991 0.510094
1 0.349981 0.517403
0 0.466682 0.498436
0.0883803 0.477272 0.510506
0.239933 0.48838 0.523201
0.39707 0.495903 0.532677
0.561807 0.499657 0.538537
0.724651 0.50219 0.543053
0.884169 0.505058 0.548547
1 0.509941 0.555947
1 0.51574 0.564645
0 0.628855 0.53962
0.13051 0.6421 0.555306
0.285771 0.654398 0.570108
0.446708 0.662333 0.580331
0.614191 0.666407 0.587167
0.776654 0.669551 0.593347
0.935286 0.672923 0.600046
1 0.67805 0.608957
1 0.683345 0.618143
0.0302739 0.798123 0.595163
0.18439 0.811963 0.612726
0.342092 0.823011 0.627283
0.506584 0.829053 0.637171
0.672831 0.831968 0.643961
0.833692 0.834089 0.650462
0.989746 0.837308 0.658579
1 0.841627 0.668498
1 0.845808 0.677989
0.0883955 0.96643 0.658289
0.242191 0.979294 0.675608
0.401648 0.987778 0.688289
0.567193 0.991394 0.697795
0.730694 0.992691 0.704707
0.889662 0.994202 0.711116
1 0.997436 0.719265
1 1 0.727626
1 1 0.735775
0.143023 1 0.721767
0.297261 1 0.738247
0.457221 1 0.749096
0.622507 1 0.755611
0.783627 1 0.761532
0.940688 1 0.7673
1 1 0.775113
1 1 0.783337
1 1 0.790631
0 0 0.572
0.0117494 0 0.578164
0.155184 0 0.583703
0.301305 0 0.588067
0.451286 0 0.587396
0.606348 0 0.58381
0.757076 0 0.579324
0.905516 0 0.575555
1 0 0.573831
0 0.0432746 0.591821
0.0298314 0.0476539 0.597391
0.172808 0.051667 0.602853
0.319066 0.053727 0.605844
0.470695 0.0519417 0.605554
0.626902 0.0477455 0.602457
0.779019 0.0434577 0.599939
0.928908 0.0404059 0.598291
1 0.0397192 0.599619
0 0.177874 0.60737
0.04448 0.182788 0.613367
0.188861 0.188128 0.620081
0.337407 0.191531 0.624842
0.49279 0.191424 0.626352
0.651698 0.189441 0.626169
0.806943 0.187732 0.626535
0.960174 0.188388 0.629541
1 0.191287 0.635538
0 0.318257 0.62388
0.0619211 0.325704 0.633005
0.209415 0.334051 0.642985
0.362936 0.33991 0.650874
0.523064 0.342443 0.655924
0.684718 0.343465 0.659754
0.842741 0.344717 0.664485
0.997284 0.348119 0.671778
1 0.353307 0.680644
0 0.469093 0.652735
0.0911879 0.480079 0.666911
0.243015 0.49131 0.681468
0.4009 0.498878 0.692775
0.565881 0.5028 0.700511
0.728786 0.505455 0.707118
0.888151 0.508415 0.714107
1 0.513405 0.723278
1 0.519295 0.733074
0 0.632273 0.700862
0.134371 0.645624 0.718547
0.289525 0.657801 0.734615
0.451377 0.665751 0.746792
0.618784 0.669871 0.754971
0.781033 0.672847 0.76228
0.939574 0.676341 0.770092
1 0.681529 0.779675
1 0.686625 0.789303
0.0346685 0.801801 0.762554
0.188586 0.815702 0.781399
0.346593 0.82652 0.796994
0.510979 0.832441 0.807477
0.677195 0.835157 0.814878
0.837598 0.837201 0.821469
0.993683 0.840482 0.829282
1 0.844938 0.838499
1 0.848737 0.84686
0.0925917 0.970001 0.829297
0.246098 0.982559 0.846464
0.405737 0.991012 0.859495
0.571588 0.994476 0.868147
0.734859 0.995727 0.874281
0.893446 0.997345 0.880064
1 1 0.887068
1 1 0.895186
1 1 0.902174
0.146883 1 0.892119
0.300847 1 0.907042
0.461524 1 0.917723
0.626871 1 0.923506
0.787457 1 0.928206
0.944717 1 0.934081
1 1 0.941451
1 1 0.949279
1 1 0.956191
0 0 0.733791
0.0123903 0 0.740871
0.155978 0 0.747051
0.301915 0 0.751736
0.451881 0 0.751598
0.606897 0 0.74847
0.757626 0 0.744503
0.906233 0 0.741314
1 0 0.74023
0 0.0436866 0.755718
0.0304723 0.0479744 0.761883
0.173388 0.052079 0.767697
0.3196 0.0541543 0.771084
0.471656 0.0525826 0.771466
0.628092 0.0486 0.769024
0.780331 0.0444648 0.766751
0.930816 0.0418555 0.766064
1 0.0415045 0.768063
0 0.178439 0.772946
0.0454108 0.183566 0.779522
0.189975 0.18909 0.786801
0.339239 0.192782 0.792264
0.494926 0.193042 0.794537
0.654154 0.191379 0.794919
0.809827 0.190005 0.795789
0.963348 0.191043 0.799619
1 0.194217 0.805661
0 0.319753 0.791379
0.0638895 0.327565 0.801236
0.211566 0.336019 0.811872
0.366079 0.342519 0.820768
0.52665 0.345296 0.82591
0.688197 0.346532 0.829969
0.846937 0.347921 0.834257
1 0.351675 0.84094
1 0.357015 0.849607
0 0.471901 0.82298
0.0947127 0.483223 0.837369
0.246677 0.494331 0.851423
0.404913 0.502419 0.862699
0.570459 0.506355 0.869947
0.732967 0.508812 0.875456
0.893065 0.5122 0.882414
1 0.517433 0.891112
1 0.523186 0.900618
0 0.636271 0.871
0.138796 0.649668 0.887846
0.294423 0.661784 0.903593
0.45626 0.669718 0.915145
0.623819 0.673701 0.922881
0.785626 0.676448 0.929107
0.94406 0.680232 0.936889
1 0.685267 0.946044
1 0.690272 0.95491
0.0394903 0.805982 0.931197
0.1935 0.819669 0.949386
0.351629 0.830427 0.964187
0.516274 0.836057 0.974151
0.681758 0.838773 0.980957
0.842313 0.840635 0.987015
0.997971 0.844007 0.99472
1 0.848386 1
1 0.852033 1
0.0972152 0.973983 0.995941
0.250477 0.986191 1
0.411109 0.994308 1
0.576165 0.99794 1
0.73904 0.999039 1
0.897932 1 1
1 1 1
1 1 1
1 1 1
0.151247 1 1
0.305333 1 1
0.4654 1 1
0.631266 1 1
0.791836 1 1
0.948775 1 1
1 1 1
1 1 1
1 1 1
0 0 0.898817
0.0131075 0 0.905211
0.157107 0 0.911513
0.302708 0 0.915587
0.452979 0 0.915358
0.608026 0 0.912077
0.758495 0 0.907683
0.90753 0 0.904875
1 0 0.903883
0 0.0444953 0.919676
0.0314336 0.0487526 0.925795
0.174456 0.0529641 0.931304
0.320943 0.0551156 0.934936
0.47303 0.0537881 0.935058
0.629831 0.0499886 0.932677
0.782376 0.0459754 0.930327
0.933486 0.0437934 0.930175
1 0.0438697 0.932509
0 0.179538 0.936492
0.0470283 0.184863 0.943297
0.191699 0.190631 0.950454
0.341482 0.194644 0.956161
0.497734 0.195132 0.958526
0.657221 0.19379 0.959091
0.81323 0.192966 0.960342
0.967147 0.194232 0.964492
1 0.19765 0.970489
0 0.321874 0.955383
0.0662547 0.330053 0.965469
0.214527 0.33872 0.976211
0.369635 0.345586 0.985534
0.530816 0.348562 0.990738
0.692515 0.349722 0.994507
0.851392 0.351659 0.999054
1 0.355596 1
1 0.360952 1
0 0.475242 0.9879
0.0983139 0.486702 1
0.250782 0.498192 1
0.409873 0.506279 1
0.575647 0.510323 1
0.738262 0.512779 1
0.897841 0.51635 1
1 0.521508 1
1 0.52694 1
0 0.640513 1
0.143145 0.653681 1
0.299367 0.666163 1
0.461875 0.673854 1
0.629267 0.67776 1
0.790707 0.680415 1
0.949035 0.684108 1
1 0.689113 1
1 0.693675 1
0.0446021 0.810376 1
0.198077 0.823758 1
0.356847 0.83447 1
0.521279 0.839902 1
0.686366 0.842023 1
0.84683 0.844236 1
1 0.847501 1
1 0.851972 1
1 0.855406 1
0.101884 0.978027 1
0.255177 0.990066 1
0.415641 0.997955 1
0.581018 1 1
0.743374 1 1
0.902068 1 1
1 1 1
1 1 1
1 1 1
0.155383 1 1
0.309773 1 1
0.470085 1 1
0.635843 1 1
0.795895 1 1
0.952956 1 1
1 1 1
1 1 1
1 1 1
0 0 1
0.0146639 0 1
0.158145 0 1
0.303929 0 1
0.454368 0 1
0.609491 0 1
0.760067 0 1
0.909117 0 1
1 0 1
0 0.0455634 1
0.0326848 0.0498054 1
0.175463 0.0538186 1
0.32253 0.0563973 1
0.474952 0.0552377 1
0.632059 0.0515908 1
0.784634 0.0479286 1
0.936294 0.0459907 1
1 0.0464637 1
0 0.180911 1
0.0488289 0.18645 1
0.193561 0.192401 1
0.343847 0.196857 1
0.50071 0.197528 1
0.660212 0.196185 1
0.817288 0.195911 1
0.971206 0.197604 1
1 0.201175 1
0 0.324178 1
0.0692912 0.332708 1
0.217792 0.341802 1
0.373342 0.348852 1
0.535149 0.351934 1
0.696742 0.353262 1
0.856153 0.355428 1
1 0.359548 1
1 0.364874 1
0 0.478798 1
0.102266 0.490394 1
0.25536 0.502037 1
0.414466 0.510216 1
0.580621 0.514153 1
0.743175 0.516823 1
0.903014 0.520333 1
1 0.525567 1
1 0.530877 1
0 0.644648 1
0.147875 0.657984 1
0.304311 0.670436 1
0.467033 0.677928 1
0.634012 0.681392 1
0.795727 0.684215 1
0.953429 0.687938 1
1 0.692653 1
1 0.697292 1
0.0493477 0.81442 1
0.203067 0.827863 1
0.361715 0.838407 1
0.526497 0.843473 1
0.690837 0.845579 1
0.851423 0.847684 1
1 0.850919 1
1 0.854948 1
1 0.858717 1
0.105821 0.981628 1
0.259709 0.99379 1
0.420264 1 1
0.585519 1 1
0.747631 1 1
0.905791 1 1
1 1 1
1 1 1
1 1 1
0.159228 1 1
0.314031 1 1
0.474449 1 1
0.639811 1 1
0.800214 1 1
0.957107 1 1
1 1 1
1 1 1
1 1 1
