LUTs/Artistic/LUT_MAGENTA/Neon.cube
#Generated by wwww.onlinelutcreator.com 
LUT_3D_SIZE 5 
DOMAIN_MIN 0.000000 0.000000 0.000000
DOMAIN_MAX 0.903226 0.903226 0.903226
0.000000 0.000000 0.027451
0.047059 0.054902 0.082353
0.298039 0.027451 0.192157
0.549020 0.000000 0.309804
0.807843 0.000000 0.415686
0.109804 0.105882 0.152941
0.180392 0.156863 0.215686
0.427451 0.125490 0.321569
0.678431 0.094118 0.439216
0.945098 0.062745 0.541176
0.168627 0.282353 0.047059
0.239216 0.337255 0.113725
0.482353 0.305882 0.223529
0.737255 0.266667 0.337255
0.996078 0.239216 0.443137
0.223529 0.474510 0.000000
0.286275 0.545098 0.011765
0.529412 0.513725 0.125490
0.792157 0.462745 0.231373
0.996078 0.431373 0.356863
0.290196 0.698039 0.000000
0.349020 0.784314 0.000000
0.588235 0.749020 0.023529
0.843137 0.705882 0.129412
0.972549 0.650980 0.270588
0.011765 0.039216 0.215686
0.007843 0.090196 0.274510
0.215686 0.062745 0.388235
0.470588 0.027451 0.501961
0.729412 0.000000 0.615686
0.027451 0.137255 0.349020
0.094118 0.192157 0.415686
0.345098 0.168627 0.517647
0.600000 0.133333 0.627451
0.858824 0.094118 0.745098
0.082353 0.321569 0.247059
0.149020 0.380392 0.313725
0.392157 0.352941 0.423529
0.654902 0.313725 0.529412
0.913725 0.270588 0.643137
0.137255 0.525490 0.152941
0.200000 0.600000 0.215686
0.447059 0.560784 0.317647
0.709804 0.521569 0.435294
0.972549 0.470588 0.533333
0.188235 0.764706 0.039216
0.254902 0.854902 0.113725
0.501961 0.807843 0.219608
0.756863 0.756863 0.325490
0.980392 0.709804 0.450980
0.027451 0.062745 0.384314
0.019608 0.125490 0.439216
0.137255 0.094118 0.568627
0.396078 0.062745 0.674510
0.658824 0.031373 0.788235
0.011765 0.176471 0.505882
0.027451 0.227451 0.592157
0.266667 0.196078 0.701961
0.525490 0.168627 0.803922
0.784314 0.137255 0.913725
0.011765 0.360784 0.427451
0.078431 0.423529 0.490196
0.325490 0.384314 0.600000
0.584314 0.356863 0.709804
0.850980 0.313725 0.823529
0.066667 0.576471 0.321569
0.133333 0.654902 0.388235
0.380392 0.607843 0.501961
0.639216 0.560784 0.611765
0.890196 0.525490 0.721569
0.125490 0.819608 0.219608
0.192157 0.894118 0.290196
0.435294 0.858824 0.396078
0.694118 0.815686 0.505882
0.952941 0.760784 0.623529
0.039216 0.109804 0.654902
0.039216 0.160784 0.701961
0.054902 0.137255 0.823529
0.274510 0.105882 0.945098
0.533333 0.074510 0.996078
0.031373 0.219608 0.749020
0.031373 0.282353 0.827451
0.149020 0.250980 0.960784
0.407843 0.215686 0.996078
0.654902 0.184314 0.996078
0.000000 0.415686 0.662745
0.000000 0.478431 0.749020
0.192157 0.443137 0.862745
0.454902 0.400000 0.972549
0.713725 0.372549 0.996078
0.000000 0.635294 0.588235
0.011765 0.713725 0.650980
0.250980 0.670588 0.760784
0.509804 0.627451 0.874510
0.772549 0.580392 0.984314
0.000000 0.882353 0.490196
0.062745 0.968627 0.549020
0.313725 0.929412 0.654902
0.568627 0.874510 0.768627
0.827451 0.831373 0.878431
0.054902 0.156863 0.874510
0.047059 0.192157 0.878431
0.062745 0.172549 0.988235
0.200000 0.133333 0.996078
0.458824 0.105882 0.996078
0.039216 0.247059 0.874510
0.031373 0.290196 0.878431
0.109804 0.258824 0.996078
0.380392 0.219608 0.996078
0.635294 0.188235 0.996078
0.000000 0.443137 0.784314
0.000000 0.494118 0.807843
0.160784 0.454902 0.929412
0.423529 0.415686 0.996078
0.690196 0.380392 0.996078
0.000000 0.670588 0.713725
0.000000 0.733333 0.737255
0.215686 0.690196 0.839216
0.470588 0.650980 0.956863
0.737255 0.600000 0.996078
0.000000 0.925490 0.631373
0.019608 0.992157 0.635294
0.262745 0.949020 0.745098
0.517647 0.894118 0.866667
0.772549 0.854902 0.980392
