LUTs/Artistic/LUT_MAGENTA/Neon.cube
#Generated by wwww.onlinelutcreator.com 
LUT_3D_SIZE 32 
0.000000 0.000000 0.027451
0.000000 0.007843 0.031373
0.000000 0.011765 0.039216
0.007843 0.023529 0.047059
0.023529 0.031373 0.054902
0.031373 0.039216 0.066667
0.039216 0.047059 0.078431
0.047059 0.054902 0.082353
0.082353 0.047059 0.098039
0.121569 0.043137 0.113725
0.156863 0.039216 0.129412
0.188235 0.039216 0.149020
0.223529 0.031373 0.156863
0.258824 0.027451 0.180392
0.298039 0.027451 0.192157
0.325490 0.023529 0.211765
0.368627 0.011765 0.219608
0.400000 0.011765 0.239216
0.439216 0.000000 0.254902
0.478431 0.000000 0.274510
0.513725 0.000000 0.294118
0.549020 0.000000 0.309804
0.588235 0.000000 0.325490
0.627451 0.000000 0.337255
0.666667 0.000000 0.356863
0.705882 0.000000 0.376471
0.745098 0.000000 0.384314
0.776471 0.000000 0.400000
0.807843 0.000000 0.415686
0.847059 0.000000 0.435294
0.878431 0.000000 0.447059
0.909804 0.000000 0.462745
0.000000 0.011765 0.039216
0.007843 0.023529 0.047059
0.023529 0.031373 0.054902
0.031373 0.039216 0.066667
0.039216 0.043137 0.078431
0.047059 0.054902 0.082353
0.054902 0.058824 0.094118
0.066667 0.066667 0.105882
0.105882 0.062745 0.121569
0.137255 0.058824 0.133333
0.176471 0.054902 0.152941
0.211765 0.054902 0.164706
0.243137 0.043137 0.188235
0.274510 0.043137 0.196078
0.313725 0.039216 0.215686
0.349020 0.031373 0.227451
0.380392 0.027451 0.247059
0.419608 0.027451 0.262745
0.454902 0.019608 0.274510
0.501961 0.019608 0.294118
0.529412 0.007843 0.313725
0.572549 0.007843 0.325490
0.615686 0.000000 0.337255
0.647059 0.000000 0.360784
0.690196 0.000000 0.376471
0.721569 0.000000 0.388235
0.760784 0.000000 0.400000
0.796078 0.000000 0.419608
0.831373 0.000000 0.439216
0.870588 0.000000 0.447059
0.901961 0.000000 0.462745
0.933333 0.000000 0.486275
0.023529 0.031373 0.054902
0.031373 0.039216 0.062745
0.039216 0.043137 0.078431
0.047059 0.054902 0.082353
0.054902 0.058824 0.094118
0.062745 0.062745 0.105882
0.078431 0.074510 0.109804
0.082353 0.078431 0.121569
0.121569 0.074510 0.137255
0.152941 0.074510 0.152941
0.188235 0.066667 0.168627
0.227451 0.066667 0.188235
0.258824 0.058824 0.207843
0.301961 0.058824 0.219608
0.333333 0.054902 0.231373
0.368627 0.047059 0.250980
0.400000 0.043137 0.262745
0.439216 0.043137 0.286275
0.474510 0.039216 0.290196
0.509804 0.031373 0.309804
0.549020 0.027451 0.329412
0.592157 0.023529 0.345098
0.631373 0.011765 0.360784
0.666667 0.007843 0.376471
0.705882 0.003922 0.388235
0.745098 0.000000 0.411765
0.776471 0.000000 0.427451
0.815686 0.000000 0.435294
0.847059 0.000000 0.447059
0.882353 0.000000 0.470588
0.913725 0.000000 0.490196
0.952941 0.000000 0.501961
0.039216 0.043137 0.078431
0.047059 0.054902 0.082353
0.054902 0.058824 0.094118
0.062745 0.062745 0.105882
0.078431 0.074510 0.109804
0.082353 0.078431 0.121569
0.094118 0.090196 0.129412
0.105882 0.094118 0.137255
0.137255 0.090196 0.156863
0.176471 0.090196 0.168627
0.211765 0.082353 0.188235
0.247059 0.078431 0.200000
0.274510 0.074510 0.219608
0.313725 0.074510 0.231373
0.352941 0.066667 0.250980
0.388235 0.066667 0.258824
0.423529 0.058824 0.282353
0.458824 0.058824 0.298039
0.494118 0.054902 0.309804
0.529412 0.047059 0.329412
0.572549 0.039216 0.349020
0.611765 0.031373 0.368627
0.639216 0.027451 0.380392
0.682353 0.027451 0.392157
0.725490 0.023529 0.411765
0.756863 0.011765 0.431373
0.796078 0.007843 0.443137
0.831373 0.003922 0.458824
0.866667 0.003922 0.470588
0.901961 0.000000 0.486275
0.941176 0.000000 0.501961
0.972549 0.000000 0.517647
0.054902 0.058824 0.094118
0.062745 0.062745 0.105882
0.078431 0.074510 0.109804
0.082353 0.078431 0.121569
0.094118 0.090196 0.129412
0.105882 0.094118 0.137255
0.109804 0.105882 0.152941
0.125490 0.109804 0.156863
0.156863 0.105882 0.176471
0.192157 0.105882 0.188235
0.227451 0.098039 0.207843
0.262745 0.094118 0.219608
0.301961 0.090196 0.231373
0.333333 0.090196 0.250980
0.372549 0.078431 0.266667
0.400000 0.078431 0.286275
0.439216 0.074510 0.301961
0.474510 0.074510 0.317647
0.509804 0.062745 0.329412
0.549020 0.062745 0.349020
0.592157 0.054902 0.364706
0.623529 0.054902 0.380392
0.662745 0.043137 0.392157
0.705882 0.039216 0.415686
0.745098 0.031373 0.431373
0.776471 0.027451 0.443137
0.819608 0.027451 0.454902
0.850980 0.023529 0.482353
0.890196 0.019608 0.490196
0.921569 0.011765 0.501961
0.960784 0.007843 0.517647
0.992157 0.003922 0.533333
0.078431 0.074510 0.109804
0.082353 0.078431 0.121569
0.094118 0.090196 0.125490
0.105882 0.094118 0.137255
0.109804 0.105882 0.152941
0.125490 0.109804 0.156863
0.129412 0.121569 0.164706
0.137255 0.125490 0.180392
0.176471 0.121569 0.192157
0.211765 0.113725 0.211765
0.250980 0.109804 0.223529
0.286275 0.109804 0.243137
0.313725 0.105882 0.258824
0.356863 0.105882 0.270588
0.388235 0.094118 0.290196
0.423529 0.094118 0.305882
0.454902 0.090196 0.317647
0.494118 0.090196 0.337255
0.525490 0.078431 0.345098
0.568627 0.078431 0.360784
0.607843 0.066667 0.384314
0.643137 0.062745 0.396078
0.678431 0.058824 0.419608
0.725490 0.054902 0.435294
0.756863 0.047059 0.443137
0.792157 0.043137 0.462745
0.835294 0.039216 0.482353
0.874510 0.031373 0.498039
0.898039 0.031373 0.505882
0.941176 0.027451 0.521569
0.972549 0.027451 0.537255
0.996078 0.023529 0.549020
0.094118 0.090196 0.125490
0.105882 0.094118 0.137255
0.109804 0.105882 0.152941
0.125490 0.109804 0.156863
0.129412 0.121569 0.164706
0.137255 0.125490 0.180392
0.152941 0.133333 0.188235
0.156863 0.137255 0.196078
0.192157 0.133333 0.215686
0.227451 0.129412 0.223529
0.262745 0.125490 0.243137
0.301961 0.125490 0.254902
0.333333 0.121569 0.266667
0.376471 0.113725 0.290196
0.411765 0.109804 0.301961
0.439216 0.109804 0.317647
0.478431 0.105882 0.337255
0.513725 0.105882 0.352941
0.545098 0.094118 0.364706
0.588235 0.090196 0.384314
0.623529 0.082353 0.400000
0.662745 0.082353 0.419608
0.701961 0.074510 0.439216
0.741176 0.066667 0.447059
0.776471 0.062745 0.462745
0.815686 0.054902 0.486275
0.858824 0.054902 0.501961
0.886275 0.047059 0.509804
0.917647 0.047059 0.529412
0.960784 0.039216 0.541176
0.996078 0.039216 0.556863
0.996078 0.031373 0.576471
0.109804 0.105882 0.152941
0.121569 0.109804 0.156863
0.129412 0.121569 0.164706
0.137255 0.125490 0.180392
0.152941 0.133333 0.188235
0.156863 0.137255 0.192157
0.164706 0.149020 0.207843
0.180392 0.156863 0.215686
0.215686 0.152941 0.227451
0.250980 0.149020 0.247059
0.286275 0.145098 0.258824
0.317647 0.137255 0.274510
0.356863 0.133333 0.294118
0.388235 0.129412 0.309804
0.427451 0.125490 0.321569
0.454902 0.125490 0.337255
0.498039 0.121569 0.360784
0.529412 0.121569 0.372549
0.568627 0.109804 0.384314
0.611765 0.105882 0.400000
0.643137 0.098039 0.423529
0.678431 0.094118 0.439216
0.721569 0.090196 0.447059
0.756863 0.082353 0.470588
0.796078 0.078431 0.486275
0.831373 0.074510 0.501961
0.874510 0.066667 0.509804
0.905882 0.062745 0.529412
0.945098 0.062745 0.541176
0.980392 0.054902 0.556863
0.996078 0.054902 0.576471
0.996078 0.047059 0.592157
0.121569 0.121569 0.137255
0.129412 0.125490 0.149020
0.145098 0.137255 0.156863
0.152941 0.145098 0.164706
0.156863 0.152941 0.176471
0.168627 0.160784 0.188235
0.180392 0.164706 0.192157
0.188235 0.176471 0.207843
0.219608 0.172549 0.219608
0.250980 0.172549 0.239216
0.294118 0.160784 0.250980
0.325490 0.156863 0.266667
0.364706 0.156863 0.274510
0.400000 0.156863 0.298039
0.439216 0.149020 0.313725
0.474510 0.149020 0.325490
0.501961 0.137255 0.345098
0.541176 0.137255 0.360784
0.576471 0.129412 0.376471
0.615686 0.125490 0.392157
0.654902 0.125490 0.407843
0.694118 0.113725 0.427451
0.733333 0.109804 0.439216
0.764706 0.105882 0.454902
0.803922 0.105882 0.478431
0.843137 0.094118 0.494118
0.882353 0.094118 0.501961
0.913725 0.090196 0.517647
0.952941 0.090196 0.533333
0.988235 0.078431 0.549020
0.996078 0.078431 0.572549
0.996078 0.074510 0.584314
0.129412 0.149020 0.125490
0.137255 0.156863 0.137255
0.152941 0.160784 0.145098
0.156863 0.172549 0.156863
0.168627 0.180392 0.160784
0.180392 0.188235 0.168627
0.188235 0.192157 0.188235
0.196078 0.200000 0.188235
0.231373 0.200000 0.207843
0.262745 0.196078 0.223529
0.305882 0.192157 0.231373
0.333333 0.188235 0.250980
0.368627 0.188235 0.262745
0.407843 0.180392 0.286275
0.439216 0.176471 0.298039
0.474510 0.172549 0.313725
0.509804 0.168627 0.329412
0.541176 0.160784 0.349020
0.584314 0.156863 0.364706
0.627451 0.156863 0.376471
0.662745 0.145098 0.392157
0.698039 0.137255 0.411765
0.741176 0.133333 0.423529
0.776471 0.133333 0.439216
0.815686 0.125490 0.458824
0.850980 0.121569 0.474510
0.890196 0.113725 0.494118
0.925490 0.109804 0.505882
0.960784 0.109804 0.521569
0.996078 0.105882 0.529412
0.996078 0.105882 0.549020
0.996078 0.094118 0.564706
0.137255 0.172549 0.109804
0.149020 0.184314 0.121569
0.156863 0.188235 0.125490
0.164706 0.196078 0.137255
0.168627 0.207843 0.149020
0.188235 0.215686 0.156863
0.192157 0.219608 0.164706
0.200000 0.227451 0.176471
0.231373 0.219608 0.188235
0.266667 0.219608 0.207843
0.305882 0.219608 0.219608
0.345098 0.215686 0.243137
0.376471 0.207843 0.254902
0.415686 0.207843 0.270588
0.447059 0.196078 0.286275
0.482353 0.196078 0.305882
0.517647 0.188235 0.313725
0.552941 0.188235 0.329412
0.592157 0.184314 0.345098
0.627451 0.176471 0.368627
0.662745 0.172549 0.380392
0.705882 0.168627 0.392157
0.749020 0.156863 0.415686
0.776471 0.156863 0.431373
0.819608 0.152941 0.443137
0.862745 0.145098 0.458824
0.894118 0.137255 0.482353
0.929412 0.133333 0.490196
0.960784 0.133333 0.501961
0.996078 0.125490 0.521569
0.996078 0.125490 0.537255
0.996078 0.121569 0.549020
0.145098 0.200000 0.094118
0.152941 0.211765 0.105882
0.160784 0.211765 0.113725
0.168627 0.227451 0.125490
0.184314 0.231373 0.133333
0.188235 0.243137 0.145098
0.196078 0.250980 0.152941
0.211765 0.254902 0.160784
0.247059 0.250980 0.180392
0.282353 0.247059 0.188235
0.313725 0.243137 0.207843
0.352941 0.243137 0.219608
0.384314 0.231373 0.239216
0.423529 0.231373 0.250980
0.450980 0.227451 0.266667
0.490196 0.219608 0.286275
0.525490 0.215686 0.301961
0.556863 0.215686 0.313725
0.600000 0.211765 0.329412
0.639216 0.200000 0.349020
0.674510 0.192157 0.364706
0.713725 0.192157 0.376471
0.752941 0.188235 0.396078
0.788235 0.180392 0.411765
0.831373 0.176471 0.427451
0.874510 0.172549 0.439216
0.901961 0.160784 0.458824
0.945098 0.160784 0.478431
0.976471 0.156863 0.494118
0.996078 0.156863 0.501961
0.996078 0.156863 0.513725
0.996078 0.149020 0.529412
0.152941 0.219608 0.078431
0.156863 0.231373 0.094118
0.164706 0.243137 0.105882
0.180392 0.247059 0.109804
0.188235 0.254902 0.121569
0.196078 0.262745 0.125490
0.207843 0.270588 0.137255
0.219608 0.282353 0.149020
0.254902 0.282353 0.160784
0.294118 0.270588 0.180392
0.321569 0.270588 0.192157
0.356863 0.262745 0.211765
0.392157 0.262745 0.223529
0.431373 0.258824 0.231373
0.458824 0.250980 0.254902
0.501961 0.247059 0.266667
0.529412 0.243137 0.286275
0.568627 0.239216 0.301961
0.607843 0.239216 0.317647
0.639216 0.227451 0.329412
0.678431 0.227451 0.352941
0.725490 0.215686 0.364706
0.760784 0.215686 0.380392
0.800000 0.211765 0.396078
0.843137 0.192157 0.419608
0.874510 0.192157 0.427451
0.909804 0.188235 0.443137
0.945098 0.188235 0.454902
0.984314 0.184314 0.474510
0.996078 0.180392 0.490196
0.996078 0.176471 0.501961
0.996078 0.176471 0.521569
0.156863 0.250980 0.062745
0.164706 0.258824 0.074510
0.176471 0.262745 0.082353
0.184314 0.270588 0.094118
0.192157 0.286275 0.098039
0.200000 0.290196 0.109804
0.215686 0.301961 0.121569
0.219608 0.309804 0.129412
0.258824 0.305882 0.145098
0.294118 0.301961 0.160784
0.325490 0.294118 0.176471
0.368627 0.290196 0.188235
0.396078 0.290196 0.207843
0.435294 0.290196 0.219608
0.478431 0.274510 0.243137
0.505882 0.274510 0.254902
0.541176 0.266667 0.270588
0.580392 0.266667 0.286275
0.615686 0.258824 0.305882
0.650980 0.254902 0.313725
0.694118 0.250980 0.329412
0.729412 0.247059 0.349020
0.764706 0.239216 0.368627
0.807843 0.239216 0.376471
0.847059 0.227451 0.396078
0.882353 0.219608 0.419608
0.913725 0.215686 0.427451
0.956863 0.211765 0.447059
0.988235 0.207843 0.458824
0.996078 0.200000 0.478431
0.996078 0.200000 0.494118
0.996078 0.192157 0.501961
0.168627 0.282353 0.047059
0.176471 0.290196 0.054902
0.188235 0.294118 0.066667
0.192157 0.305882 0.078431
0.200000 0.313725 0.082353
0.215686 0.317647 0.094118
0.219608 0.329412 0.105882
0.239216 0.337255 0.113725
0.266667 0.329412 0.129412
0.305882 0.329412 0.149020
0.337255 0.321569 0.160784
0.376471 0.321569 0.180392
0.411765 0.313725 0.192157
0.439216 0.313725 0.211765
0.482353 0.305882 0.223529
0.509804 0.305882 0.243137
0.545098 0.294118 0.254902
0.584314 0.294118 0.270588
0.623529 0.290196 0.290196
0.658824 0.282353 0.305882
0.698039 0.270588 0.317647
0.737255 0.266667 0.337255
0.772549 0.262745 0.352941
0.815686 0.254902 0.368627
0.858824 0.250980 0.376471
0.886275 0.247059 0.400000
0.925490 0.239216 0.415686
0.964706 0.239216 0.431373
0.996078 0.239216 0.443137
0.996078 0.227451 0.454902
0.996078 0.227451 0.482353
0.996078 0.219608 0.494118
0.180392 0.305882 0.039216
0.184314 0.313725 0.047059
0.188235 0.317647 0.054902
0.207843 0.329412 0.066667
0.215686 0.337255 0.078431
0.223529 0.349020 0.090196
0.231373 0.356863 0.094118
0.243137 0.364706 0.105882
0.274510 0.360784 0.121569
0.313725 0.352941 0.133333
0.349020 0.352941 0.152941
0.380392 0.349020 0.168627
0.419608 0.337255 0.188235
0.447059 0.337255 0.192157
0.490196 0.329412 0.211765
0.517647 0.325490 0.227451
0.556863 0.321569 0.247059
0.588235 0.317647 0.258824
0.627451 0.313725 0.262745
0.662745 0.309804 0.290196
0.701961 0.305882 0.309804
0.749020 0.298039 0.317647
0.780392 0.290196 0.337255
0.823529 0.286275 0.360784
0.862745 0.274510 0.368627
0.898039 0.270588 0.384314
0.933333 0.262745 0.400000
0.972549 0.262745 0.415686
0.996078 0.262745 0.431373
0.996078 0.254902 0.447059
0.996078 0.250980 0.470588
0.996078 0.250980 0.478431
0.188235 0.329412 0.023529
0.192157 0.337255 0.031373
0.200000 0.349020 0.039216
0.215686 0.356863 0.047059
0.219608 0.364706 0.062745
0.231373 0.376471 0.066667
0.243137 0.380392 0.078431
0.250980 0.384314 0.090196
0.282353 0.384314 0.105882
0.317647 0.384314 0.125490
0.352941 0.380392 0.137255
0.388235 0.376471 0.156863
0.427451 0.372549 0.164706
0.454902 0.368627 0.188235
0.498039 0.364706 0.200000
0.525490 0.356863 0.219608
0.564706 0.352941 0.227451
0.600000 0.349020 0.247059
0.635294 0.337255 0.254902
0.670588 0.337255 0.270588
0.721569 0.325490 0.298039
0.752941 0.325490 0.305882
0.788235 0.313725 0.321569
0.831373 0.313725 0.337255
0.870588 0.305882 0.356863
0.901961 0.301961 0.372549
0.945098 0.298039 0.384314
0.976471 0.294118 0.407843
0.996078 0.286275 0.423529
0.996078 0.286275 0.439216
0.996078 0.282353 0.454902
0.996078 0.282353 0.470588
0.192157 0.360784 0.011765
0.200000 0.368627 0.023529
0.211765 0.376471 0.031373
0.219608 0.384314 0.039216
0.227451 0.388235 0.054902
0.243137 0.400000 0.062745
0.250980 0.411765 0.066667
0.254902 0.423529 0.078431
0.290196 0.415686 0.094118
0.325490 0.411765 0.109804
0.364706 0.400000 0.125490
0.396078 0.400000 0.145098
0.435294 0.396078 0.156863
0.470588 0.388235 0.176471
0.501961 0.384314 0.188235
0.537255 0.384314 0.200000
0.576471 0.380392 0.219608
0.611765 0.376471 0.231373
0.643137 0.372549 0.250980
0.682353 0.368627 0.262745
0.725490 0.356863 0.282353
0.760784 0.352941 0.298039
0.796078 0.349020 0.313725
0.843137 0.337255 0.329412
0.874510 0.329412 0.345098
0.909804 0.325490 0.360784
0.952941 0.321569 0.376471
0.984314 0.313725 0.392157
0.996078 0.313725 0.407843
0.996078 0.309804 0.427451
0.996078 0.305882 0.443137
0.996078 0.301961 0.458824
0.196078 0.384314 0.000000
0.211765 0.396078 0.011765
0.219608 0.400000 0.007843
0.227451 0.415686 0.023529
0.239216 0.423529 0.039216
0.247059 0.431373 0.047059
0.254902 0.439216 0.062745
0.262745 0.450980 0.062745
0.301961 0.447059 0.074510
0.337255 0.439216 0.094118
0.376471 0.439216 0.109804
0.407843 0.435294 0.125490
0.439216 0.431373 0.133333
0.478431 0.423529 0.156863
0.505882 0.419608 0.168627
0.541176 0.415686 0.188235
0.576471 0.403922 0.200000
0.615686 0.400000 0.219608
0.647059 0.396078 0.239216
0.694118 0.388235 0.250980
0.737255 0.384314 0.266667
0.764706 0.376471 0.286275
0.803922 0.376471 0.301961
0.850980 0.368627 0.313725
0.882353 0.364706 0.329412
0.925490 0.356863 0.349020
0.960784 0.352941 0.364706
0.996078 0.341176 0.376471
0.996078 0.341176 0.392157
0.996078 0.329412 0.415686
0.996078 0.329412 0.439216
0.996078 0.329412 0.443137
0.211765 0.415686 0.000000
0.219608 0.427451 0.000000
0.223529 0.435294 0.000000
0.231373 0.443137 0.007843
0.247059 0.450980 0.023529
0.254902 0.458824 0.031373
0.262745 0.470588 0.039216
0.266667 0.482353 0.047059
0.309804 0.474510 0.062745
0.349020 0.466667 0.082353
0.376471 0.466667 0.094118
0.415686 0.462745 0.109804
0.443137 0.454902 0.125490
0.486275 0.450980 0.137255
0.513725 0.447059 0.156863
0.549020 0.439216 0.168627
0.592157 0.439216 0.188235
0.623529 0.435294 0.200000
0.658824 0.431373 0.219608
0.701961 0.419608 0.239216
0.737255 0.415686 0.250980
0.772549 0.411765 0.262745
0.819608 0.396078 0.286275
0.854902 0.396078 0.301961
0.886275 0.388235 0.313725
0.925490 0.384314 0.325490
0.968627 0.376471 0.349020
0.996078 0.376471 0.360784
0.996078 0.368627 0.380392
0.996078 0.364706 0.396078
0.996078 0.360784 0.423529
0.996078 0.360784 0.431373
0.215686 0.447059 0.000000
0.219608 0.454902 0.000000
0.231373 0.462745 0.000000
0.243137 0.474510 0.000000
0.250980 0.478431 0.000000
0.258824 0.494118 0.011765
0.266667 0.509804 0.027451
0.282353 0.521569 0.031373
0.317647 0.513725 0.047059
0.352941 0.505882 0.062745
0.380392 0.498039 0.078431
0.419608 0.494118 0.094118
0.454902 0.482353 0.109804
0.494118 0.482353 0.125490
0.521569 0.474510 0.137255
0.564706 0.470588 0.156863
0.596078 0.462745 0.168627
0.623529 0.462745 0.188235
0.666667 0.454902 0.207843
0.713725 0.450980 0.219608
0.749020 0.443137 0.239216
0.780392 0.439216 0.250980
0.823529 0.431373 0.266667
0.862745 0.427451 0.282353
0.894118 0.423529 0.301961
0.933333 0.415686 0.313725
0.976471 0.403922 0.329412
0.996078 0.400000 0.349020
0.996078 0.396078 0.368627
0.996078 0.388235 0.388235
0.996078 0.384314 0.407843
0.996078 0.384314 0.415686
0.223529 0.474510 0.000000
0.231373 0.490196 0.000000
0.239216 0.498039 0.000000
0.250980 0.509804 0.000000
0.254902 0.521569 0.000000
0.266667 0.525490 0.000000
0.274510 0.533333 0.003922
0.286275 0.545098 0.011765
0.321569 0.541176 0.031373
0.356863 0.537255 0.047059
0.392157 0.533333 0.062745
0.427451 0.525490 0.078431
0.462745 0.521569 0.094118
0.498039 0.521569 0.109804
0.529412 0.513725 0.125490
0.572549 0.513725 0.137255
0.603922 0.505882 0.152941
0.635294 0.505882 0.164706
0.674510 0.482353 0.188235
0.713725 0.482353 0.200000
0.749020 0.474510 0.219608
0.792157 0.462745 0.231373
0.835294 0.458824 0.250980
0.870588 0.454902 0.266667
0.905882 0.443137 0.286275
0.949020 0.439216 0.298039
0.980392 0.439216 0.313725
0.996078 0.431373 0.333333
0.996078 0.431373 0.356863
0.996078 0.423529 0.376471
0.996078 0.419608 0.392157
0.996078 0.415686 0.396078
0.239216 0.509804 0.000000
0.239216 0.517647 0.000000
0.250980 0.525490 0.000000
0.254902 0.537255 0.000000
0.266667 0.545098 0.000000
0.274510 0.560784 0.000000
0.282353 0.576471 0.000000
0.294118 0.580392 0.000000
0.329412 0.580392 0.011765
0.364706 0.568627 0.031373
0.396078 0.568627 0.047059
0.439216 0.560784 0.062745
0.470588 0.552941 0.078431
0.501961 0.549020 0.094118
0.541176 0.541176 0.109804
0.576471 0.537255 0.125490
0.611765 0.533333 0.137255
0.639216 0.525490 0.156863
0.682353 0.525490 0.176471
0.725490 0.521569 0.188235
0.752941 0.513725 0.200000
0.796078 0.505882 0.219608
0.839216 0.494118 0.239216
0.874510 0.490196 0.250980
0.909804 0.474510 0.266667
0.949020 0.470588 0.282353
0.988235 0.466667 0.301961
0.996078 0.458824 0.317647
0.996078 0.447059 0.337255
0.996078 0.447059 0.364706
0.996078 0.443137 0.376471
0.996078 0.439216 0.384314
0.247059 0.537255 0.000000
0.250980 0.545098 0.000000
0.258824 0.560784 0.000000
0.270588 0.572549 0.000000
0.274510 0.584314 0.000000
0.286275 0.592157 0.000000
0.298039 0.603922 0.000000
0.305882 0.615686 0.000000
0.333333 0.611765 0.000000
0.372549 0.603922 0.011765
0.407843 0.603922 0.031373
0.439216 0.592157 0.039216
0.474510 0.592157 0.054902
0.513725 0.588235 0.074510
0.549020 0.576471 0.094118
0.588235 0.576471 0.105882
0.619608 0.568627 0.121569
0.650980 0.568627 0.133333
0.690196 0.552941 0.152941
0.725490 0.549020 0.168627
0.764706 0.537255 0.184314
0.807843 0.533333 0.200000
0.843137 0.525490 0.219608
0.882353 0.525490 0.231373
0.917647 0.513725 0.250980
0.960784 0.509804 0.262745
0.992157 0.498039 0.286275
0.996078 0.498039 0.305882
0.996078 0.494118 0.329412
0.996078 0.478431 0.352941
0.996078 0.478431 0.364706
0.996078 0.474510 0.376471
0.250980 0.568627 0.000000
0.254902 0.584314 0.000000
0.266667 0.588235 0.000000
0.274510 0.603922 0.000000
0.282353 0.615686 0.000000
0.294118 0.627451 0.000000
0.301961 0.643137 0.000000
0.313725 0.650980 0.000000
0.345098 0.647059 0.000000
0.376471 0.643137 0.000000
0.415686 0.635294 0.011765
0.447059 0.627451 0.031373
0.482353 0.619608 0.047059
0.517647 0.619608 0.062745
0.552941 0.611765 0.078431
0.592157 0.611765 0.094118
0.623529 0.600000 0.109804
0.658824 0.600000 0.125490
0.698039 0.592157 0.145098
0.733333 0.584314 0.156863
0.768627 0.576471 0.168627
0.807843 0.576471 0.188235
0.850980 0.560784 0.200000
0.886275 0.549020 0.219608
0.929412 0.545098 0.239216
0.964706 0.537255 0.250980
0.988235 0.529412 0.270588
0.988235 0.525490 0.294118
0.992157 0.521569 0.313725
0.996078 0.517647 0.333333
0.996078 0.517647 0.352941
0.996078 0.509804 0.360784
0.258824 0.603922 0.000000
0.270588 0.611765 0.000000
0.274510 0.619608 0.000000
0.286275 0.635294 0.000000
0.298039 0.647059 0.000000
0.301961 0.658824 0.000000
0.313725 0.670588 0.000000
0.317647 0.678431 0.000000
0.352941 0.678431 0.000000
0.384314 0.670588 0.000000
0.423529 0.670588 0.000000
0.450980 0.658824 0.011765
0.490196 0.658824 0.027451
0.525490 0.654902 0.047059
0.564706 0.647059 0.062745
0.600000 0.643137 0.078431
0.635294 0.635294 0.094118
0.666667 0.631373 0.109804
0.705882 0.627451 0.121569
0.745098 0.615686 0.137255
0.780392 0.607843 0.156863
0.823529 0.600000 0.164706
0.862745 0.592157 0.188235
0.894118 0.588235 0.207843
0.929412 0.580392 0.219608
0.976471 0.576471 0.243137
0.980392 0.568627 0.258824
0.984314 0.560784 0.274510
0.988235 0.552941 0.305882
0.988235 0.545098 0.325490
0.992157 0.537255 0.345098
0.992157 0.541176 0.345098
0.266667 0.635294 0.000000
0.282353 0.647059 0.000000
0.286275 0.658824 0.000000
0.294118 0.670588 0.000000
0.305882 0.678431 0.000000
0.309804 0.694118 0.000000
0.313725 0.705882 0.000000
0.329412 0.721569 0.000000
0.360784 0.717647 0.000000
0.396078 0.713725 0.000000
0.431373 0.713725 0.000000
0.462745 0.694118 0.000000
0.498039 0.690196 0.011765
0.529412 0.690196 0.031373
0.568627 0.674510 0.047059
0.600000 0.674510 0.062745
0.639216 0.666667 0.078431
0.670588 0.658824 0.094118
0.713725 0.654902 0.109804
0.749020 0.654902 0.129412
0.788235 0.635294 0.145098
0.827451 0.635294 0.156863
0.870588 0.627451 0.180392
0.905882 0.627451 0.188235
0.945098 0.607843 0.207843
0.972549 0.603922 0.223529
0.976471 0.600000 0.247059
0.976471 0.588235 0.266667
0.980392 0.588235 0.290196
0.984314 0.580392 0.313725
0.984314 0.580392 0.321569
0.984314 0.584314 0.325490
0.282353 0.670588 0.000000
0.294118 0.678431 0.000000
0.298039 0.694118 0.000000
0.305882 0.705882 0.000000
0.313725 0.713725 0.000000
0.317647 0.733333 0.000000
0.329412 0.737255 0.000000
0.337255 0.752941 0.000000
0.372549 0.749020 0.000000
0.400000 0.741176 0.000000
0.435294 0.733333 0.000000
0.470588 0.737255 0.000000
0.505882 0.725490 0.003922
0.537255 0.721569 0.023529
0.576471 0.713725 0.031373
0.611765 0.713725 0.047059
0.643137 0.698039 0.066667
0.678431 0.698039 0.082353
0.721569 0.694118 0.094118
0.756863 0.690196 0.113725
0.796078 0.674510 0.129412
0.831373 0.670588 0.149020
