LUTs/Artistic/LUT_MAGENTA/Neon.cube
#Generated by wwww.onlinelutcreator.com 
LUT_3D_SIZE 8 
DOMAIN_MIN 0.000000 0.000000 0.000000
DOMAIN_MAX 0.903226 0.903226 0.903226
0.000000 0.000000 0.027451
0.023529 0.031373 0.054902
0.082353 0.047059 0.098039
0.223529 0.031373 0.156863
0.368627 0.011765 0.219608
0.513725 0.000000 0.294118
0.666667 0.000000 0.356863
0.807843 0.000000 0.415686
0.054902 0.058824 0.094118
0.094118 0.090196 0.129412
0.156863 0.105882 0.176471
0.301961 0.090196 0.231373
0.439216 0.074510 0.301961
0.592157 0.054902 0.364706
0.745098 0.031373 0.431373
0.890196 0.019608 0.490196
0.121569 0.121569 0.137255
0.156863 0.152941 0.176471
0.219608 0.172549 0.219608
0.364706 0.156863 0.274510
0.501961 0.137255 0.345098
0.654902 0.125490 0.407843
0.803922 0.105882 0.478431
0.952941 0.090196 0.533333
0.152941 0.219608 0.078431
0.188235 0.254902 0.121569
0.254902 0.282353 0.160784
0.392157 0.262745 0.223529
0.529412 0.243137 0.286275
0.678431 0.227451 0.352941
0.843137 0.192157 0.419608
0.984314 0.184314 0.474510
0.188235 0.329412 0.023529
0.219608 0.364706 0.062745
0.282353 0.384314 0.105882
0.427451 0.372549 0.164706
0.564706 0.352941 0.227451
0.721569 0.325490 0.298039
0.870588 0.305882 0.356863
0.996078 0.286275 0.423529
0.215686 0.447059 0.000000
0.250980 0.478431 0.000000
0.317647 0.513725 0.047059
0.454902 0.482353 0.109804
0.596078 0.462745 0.168627
0.749020 0.443137 0.239216
0.894118 0.423529 0.301961
0.996078 0.396078 0.368627
0.250980 0.568627 0.000000
0.282353 0.615686 0.000000
0.345098 0.647059 0.000000
0.482353 0.619608 0.047059
0.623529 0.600000 0.109804
0.768627 0.576471 0.168627
0.929412 0.545098 0.239216
0.992157 0.521569 0.313725
0.290196 0.698039 0.000000
0.321569 0.741176 0.000000
0.376471 0.788235 0.000000
0.513725 0.756863 0.000000
0.654902 0.737255 0.054902
0.803922 0.713725 0.113725
0.956863 0.678431 0.188235
0.972549 0.650980 0.270588
0.003922 0.023529 0.133333
0.003922 0.054902 0.164706
0.039216 0.062745 0.215686
0.176471 0.054902 0.274510
0.313725 0.039216 0.337255
0.462745 0.019608 0.400000
0.623529 0.000000 0.470588
0.760784 0.000000 0.525490
0.007843 0.078431 0.207843
0.047059 0.109804 0.247059
0.113725 0.125490 0.290196
0.250980 0.109804 0.352941
0.388235 0.094118 0.415686
0.533333 0.078431 0.478431
0.701961 0.054902 0.541176
0.843137 0.039216 0.600000
0.074510 0.152941 0.250980
0.109804 0.176471 0.294118
0.176471 0.192157 0.333333
0.313725 0.180392 0.400000
0.454902 0.160784 0.454902
0.603922 0.145098 0.521569
0.756863 0.125490 0.592157
0.901961 0.105882 0.647059
0.105882 0.250980 0.192157
0.137255 0.286275 0.231373
0.207843 0.305882 0.274510
0.349020 0.290196 0.337255
0.486275 0.266667 0.396078
0.635294 0.250980 0.462745
0.788235 0.219608 0.525490
0.941176 0.207843 0.592157
0.137255 0.360784 0.133333
0.168627 0.388235 0.180392
0.227451 0.415686 0.219608
0.376471 0.396078 0.282353
0.513725 0.376471 0.349020
0.662745 0.356863 0.407843
0.823529 0.329412 0.470588
0.964706 0.309804 0.533333
0.164706 0.474510 0.082353
0.207843 0.517647 0.113725
0.266667 0.541176 0.156863
0.407843 0.517647 0.219608
0.541176 0.494118 0.286275
0.701961 0.466667 0.349020
0.850980 0.443137 0.415686
0.996078 0.427451 0.470588
0.188235 0.607843 0.011765
0.231373 0.654902 0.054902
0.301961 0.674510 0.094118
0.439216 0.654902 0.156863
0.576471 0.631373 0.219608
0.721569 0.603922 0.290196
0.882353 0.576471 0.352941
0.996078 0.549020 0.419608
0.227451 0.741176 0.000000
0.266667 0.792157 0.000000
0.325490 0.819608 0.039216
0.462745 0.792157 0.109804
0.607843 0.764706 0.164706
0.756863 0.737255 0.227451
0.909804 0.709804 0.301961
0.976471 0.678431 0.372549
0.011765 0.039216 0.247059
0.007843 0.074510 0.266667
0.011765 0.090196 0.317647
0.129412 0.074510 0.384314
0.270588 0.058824 0.443137
0.423529 0.039216 0.505882
0.580392 0.019608 0.580392
0.725490 0.000000 0.631373
0.007843 0.098039 0.309804
0.007843 0.129412 0.356863
0.066667 0.152941 0.396078
0.207843 0.133333 0.458824
0.345098 0.121569 0.517647
0.498039 0.094118 0.588235
0.650980 0.074510 0.643137
0.796078 0.058824 0.709804
0.027451 0.168627 0.360784
0.062745 0.192157 0.400000
0.129412 0.219608 0.439216
0.270588 0.200000 0.501961
0.411765 0.184314 0.568627
0.556863 0.164706 0.623529
0.717647 0.145098 0.698039
0.858824 0.125490 0.749020
0.062745 0.266667 0.305882
0.094118 0.305882 0.345098
0.156863 0.329412 0.384314
0.301961 0.309804 0.447059
0.439216 0.290196 0.501961
0.592157 0.266667 0.576471
0.745098 0.243137 0.631373
0.886275 0.227451 0.701961
0.094118 0.380392 0.247059
0.125490 0.415686 0.282353
0.196078 0.439216 0.325490
0.333333 0.423529 0.392157
0.474510 0.396078 0.447059
0.623529 0.376471 0.513725
0.776471 0.352941 0.584314
0.921569 0.329412 0.639216
0.121569 0.505882 0.188235
0.160784 0.537255 0.223529
0.219608 0.576471 0.266667
0.360784 0.549020 0.329412
0.501961 0.525490 0.388235
0.650980 0.505882 0.454902
0.803922 0.466667 0.521569
0.949020 0.447059 0.580392
0.152941 0.635294 0.125490
0.188235 0.678431 0.164706
0.250980 0.709804 0.207843
0.392157 0.682353 0.266667
0.525490 0.658824 0.329412
0.678431 0.631373 0.392157
0.839216 0.603922 0.458824
0.984314 0.580392 0.517647
0.184314 0.780392 0.078431
0.219608 0.823529 0.109804
0.286275 0.850980 0.152941
0.423529 0.831373 0.211765
0.564706 0.807843 0.274510
0.717647 0.780392 0.337255
0.870588 0.737255 0.407843
0.984314 0.713725 0.470588
0.023529 0.054902 0.337255
0.019608 0.090196 0.368627
0.019608 0.109804 0.415686
0.094118 0.094118 0.490196
0.227451 0.078431 0.549020
0.376471 0.058824 0.615686
0.537255 0.039216 0.674510
0.678431 0.027451 0.741176
0.011765 0.121569 0.400000
0.011765 0.156863 0.443137
0.027451 0.168627 0.501961
0.168627 0.152941 0.556863
0.305882 0.137255 0.623529
0.454902 0.121569 0.682353
0.611765 0.098039 0.749020
0.749020 0.078431 0.819608
0.007843 0.188235 0.458824
0.027451 0.219608 0.501961
0.094118 0.239216 0.545098
0.227451 0.227451 0.607843
0.368627 0.211765 0.662745
0.517647 0.188235 0.733333
0.674510 0.160784 0.792157
0.823529 0.145098 0.862745
0.019608 0.294118 0.400000
0.054902 0.325490 0.439216
0.113725 0.349020 0.486275
0.258824 0.329412 0.545098
0.400000 0.313725 0.615686
0.549020 0.290196 0.670588
0.705882 0.262745 0.737255
0.850980 0.247059 0.796078
0.047059 0.400000 0.352941
0.094118 0.439216 0.384314
0.156863 0.458824 0.427451
0.294118 0.443137 0.494118
0.431373 0.431373 0.549020
0.588235 0.400000 0.619608
0.737255 0.376471 0.678431
0.878431 0.356863 0.741176
0.082353 0.525490 0.294118
0.113725 0.572549 0.325490
0.184314 0.592157 0.376471
0.317647 0.576471 0.435294
0.462745 0.549020 0.498039
0.611765 0.525490 0.556863
0.760784 0.505882 0.619608
0.901961 0.470588 0.682353
0.109804 0.666667 0.227451
0.149020 0.705882 0.262745
0.211765 0.733333 0.309804
0.356863 0.717647 0.368627
0.490196 0.694118 0.431373
0.639216 0.666667 0.490196
0.792157 0.631373 0.552941
0.933333 0.603922 0.623529
0.145098 0.800000 0.176471
0.180392 0.850980 0.211765
0.247059 0.874510 0.254902
0.376471 0.858824 0.313725
0.521569 0.835294 0.376471
0.670588 0.807843 0.439216
0.831373 0.772549 0.501961
0.972549 0.737255 0.572549
0.031373 0.074510 0.443137
0.027451 0.109804 0.478431
0.027451 0.129412 0.505882
0.047059 0.121569 0.596078
0.188235 0.098039 0.650980
0.333333 0.078431 0.721569
0.498039 0.054902 0.776471
0.635294 0.039216 0.847059
0.023529 0.145098 0.501961
0.019608 0.172549 0.537255
0.023529 0.188235 0.596078
0.125490 0.172549 0.658824
0.258824 0.156863 0.725490
0.411765 0.137255 0.784314
0.568627 0.113725 0.862745
0.713725 0.098039 0.913725
0.011765 0.215686 0.552941
0.011765 0.243137 0.603922
0.047059 0.262745 0.650980
0.184314 0.247059 0.713725
0.321569 0.227451 0.768627
0.482353 0.207843 0.839216
0.631373 0.188235 0.898039
0.772549 0.160784 0.968627
0.000000 0.317647 0.501961
0.007843 0.352941 0.545098
0.074510 0.372549 0.592157
0.219608 0.352941 0.650980
0.360784 0.329412 0.717647
0.505882 0.313725 0.772549
0.654902 0.290196 0.839216
0.803922 0.270588 0.901961
0.007843 0.435294 0.450980
0.047059 0.466667 0.494118
0.109804 0.490196 0.533333
0.247059 0.466667 0.600000
0.388235 0.447059 0.654902
0.541176 0.427451 0.721569
0.694118 0.400000 0.780392
0.839216 0.380392 0.847059
0.039216 0.552941 0.392157
0.074510 0.600000 0.427451
0.137255 0.619608 0.478431
0.274510 0.600000 0.537255
0.423529 0.580392 0.596078
0.568627 0.549020 0.654902
0.733333 0.525490 0.725490
0.874510 0.505882 0.788235
0.066667 0.694118 0.333333
0.105882 0.737255 0.368627
0.168627 0.764706 0.411765
0.313725 0.741176 0.474510
0.443137 0.721569 0.529412
0.603922 0.694118 0.600000
0.749020 0.658824 0.666667
0.894118 0.635294 0.729412
0.098039 0.839216 0.282353
0.137255 0.878431 0.313725
0.196078 0.901961 0.364706
0.337255 0.890196 0.423529
0.482353 0.858824 0.478431
0.623529 0.835294 0.545098
0.784314 0.800000 0.611765
0.925490 0.780392 0.674510
0.039216 0.105882 0.603922
0.039216 0.133333 0.635294
0.031373 0.156863 0.658824
0.047059 0.145098 0.741176
0.109804 0.125490 0.815686
0.258824 0.105882 0.878431
0.415686 0.078431 0.949020
0.556863 0.062745 0.996078
0.031373 0.164706 0.658824
0.031373 0.200000 0.694118
0.031373 0.219608 0.745098
0.039216 0.207843 0.831373
0.184314 0.188235 0.890196
0.329412 0.164706 0.952941
0.490196 0.137255 0.996078
0.623529 0.125490 0.996078
0.023529 0.243137 0.701961
0.023529 0.266667 0.749020
0.027451 0.294118 0.800000
0.109804 0.266667 0.874510
0.250980 0.250980 0.933333
0.396078 0.231373 0.996078
0.549020 0.215686 0.996078
0.682353 0.200000 0.996078
0.000000 0.352941 0.650980
0.000000 0.380392 0.698039
0.000000 0.403922 0.749020
0.145098 0.384314 0.807843
0.282353 0.368627 0.874510
0.431373 0.341176 0.933333
0.584314 0.313725 0.996078
0.729412 0.305882 0.996078
0.000000 0.458824 0.611765
0.000000 0.498039 0.647059
0.031373 0.525490 0.698039
0.176471 0.509804 0.752941
0.309804 0.478431 0.819608
0.462745 0.454902 0.878431
0.619608 0.431373 0.949020
0.752941 0.411765 0.996078
0.000000 0.588235 0.552941
0.000000 0.631373 0.596078
0.054902 0.666667 0.635294
0.196078 0.643137 0.701961
0.337255 0.615686 0.764706
0.490196 0.588235 0.831373
0.643137 0.552941 0.890196
0.788235 0.533333 0.952941
0.000000 0.733333 0.498039
0.031373 0.780392 0.533333
0.094118 0.807843 0.576471
0.227451 0.784314 0.635294
0.368627 0.756863 0.701961
0.517647 0.733333 0.760784
0.674510 0.705882 0.831373
0.819608 0.670588 0.886275
0.023529 0.874510 0.439216
0.062745 0.917647 0.478431
0.113725 0.952941 0.521569
0.254902 0.925490 0.584314
0.396078 0.898039 0.643137
0.552941 0.866667 0.709804
0.705882 0.843137 0.772549
0.854902 0.815686 0.839216
0.047059 0.137255 0.788235
0.047059 0.156863 0.827451
0.047059 0.188235 0.854902
0.054902 0.172549 0.905882
0.066667 0.156863 0.996078
0.160784 0.133333 0.996078
0.321569 0.109804 0.996078
0.458824 0.094118 0.996078
0.047059 0.192157 0.850980
0.039216 0.227451 0.874510
0.039216 0.250980 0.878431
0.054902 0.227451 0.968627
0.105882 0.211765 0.996078
0.254902 0.188235 0.996078
0.411765 0.164706 0.996078
0.556863 0.152941 0.996078
0.031373 0.262745 0.862745
0.031373 0.298039 0.858824
0.031373 0.313725 0.894118
0.047059 0.294118 0.980392
0.188235 0.270588 0.996078
0.349020 0.250980 0.996078
0.501961 0.219608 0.996078
0.635294 0.211765 0.996078
0.011765 0.380392 0.815686
0.007843 0.411765 0.823529
0.007843 0.423529 0.854902
0.078431 0.400000 0.925490
0.215686 0.380392 0.992157
0.372549 0.364706 0.996078
0.521569 0.337255 0.996078
0.666667 0.317647 0.996078
0.000000 0.498039 0.768627
0.000000 0.533333 0.768627
0.000000 0.545098 0.815686
0.105882 0.525490 0.874510
0.247059 0.513725 0.941176
0.388235 0.478431 0.996078
0.549020 0.447059 0.996078
0.701961 0.435294 0.996078
0.000000 0.635294 0.717647
0.000000 0.666667 0.737255
0.000000 0.682353 0.756863
0.133333 0.666667 0.823529
0.270588 0.647059 0.878431
0.427451 0.611765 0.952941
0.576471 0.584314 0.996078
0.725490 0.552941 0.996078
0.000000 0.784314 0.666667
0.000000 0.807843 0.690196
0.011765 0.835294 0.709804
0.156863 0.807843 0.760784
0.305882 0.788235 0.831373
0.447059 0.752941 0.894118
0.603922 0.725490 0.968627
0.745098 0.698039 0.996078
0.000000 0.917647 0.627451
0.000000 0.956863 0.631373
0.047059 0.984314 0.650980
0.192157 0.956863 0.721569
0.329412 0.933333 0.776471
0.478431 0.901961 0.847059
0.623529 0.874510 0.913725
0.768627 0.850980 0.980392
0.054902 0.156863 0.874510
0.054902 0.172549 0.886275
0.047059 0.192157 0.886275
0.054902 0.184314 0.941176
0.066667 0.164706 0.996078
0.156863 0.137255 0.996078
0.317647 0.121569 0.996078
0.458824 0.105882 0.996078
0.047059 0.200000 0.878431
0.039216 0.227451 0.874510
0.039216 0.250980 0.878431
0.054902 0.231373 0.968627
0.113725 0.215686 0.996078
0.262745 0.192157 0.996078
0.419608 0.164706 0.996078
0.564706 0.152941 0.996078
0.031373 0.262745 0.862745
0.031373 0.301961 0.866667
0.031373 0.309804 0.898039
0.054902 0.294118 0.984314
0.192157 0.270588 0.996078
0.352941 0.250980 0.996078
0.501961 0.227451 0.996078
0.643137 0.215686 0.996078
0.011765 0.380392 0.815686
0.007843 0.411765 0.823529
0.007843 0.427451 0.854902
0.078431 0.403922 0.925490
0.219608 0.384314 0.996078
0.376471 0.368627 0.996078
0.525490 0.337255 0.996078
0.670588 0.317647 0.996078
0.000000 0.505882 0.764706
0.000000 0.529412 0.772549
0.000000 0.549020 0.815686
0.109804 0.529412 0.874510
0.250980 0.513725 0.941176
0.392157 0.482353 0.996078
0.556863 0.454902 0.996078
0.705882 0.435294 0.996078
0.000000 0.643137 0.721569
0.000000 0.670588 0.741176
0.000000 0.690196 0.756863
0.145098 0.666667 0.827451
0.286275 0.647059 0.882353
0.431373 0.615686 0.952941
0.584314 0.588235 0.996078
0.729412 0.568627 0.996078
0.000000 0.784314 0.670588
0.000000 0.815686 0.690196
0.023529 0.835294 0.709804
0.160784 0.815686 0.764706
0.309804 0.792157 0.831373
0.450980 0.756863 0.894118
0.607843 0.733333 0.968627
0.749020 0.705882 0.996078
0.000000 0.925490 0.631373
0.000000 0.964706 0.631373
0.054902 0.988235 0.650980
0.192157 0.964706 0.721569
0.337255 0.933333 0.776471
0.486275 0.901961 0.847059
0.631373 0.874510 0.913725
0.772549 0.854902 0.980392
