LUTs/Artistic/LUT_OTHER/DESERT_GOLD__37.DJI_0021.cube
TITLE "Generated by Resolve"
LUT_3D_SIZE 5
0 0 0
0.0570382 0 0
0.229297 0 0
0.50341 0 0
0.809018 0 0
0 0.0526741 0
0.0554665 0.0552834 0
0.214984 0.0352178 0
0.471534 0 0
0.778592 0 0
0 0.166155 0
0.0336004 0.196933 0
0.217105 0.215991 0.0059205
0.518502 0.210056 0
0.890898 0.191638 0
0 0.43093 0
0.00314336 0.492241 0
0.192599 0.533974 0
0.541344 0.538552 0
0.990662 0.520134 0
0 0.828153 0
0 0.90779 0
0.0845655 0.954116 0
0.479423 0.956863 0
0.944259 0.940124 0
0 0 0.0539254
0.0559701 0 0.046952
0.230228 0 0.0122988
0.503243 0 0
0.805356 0 0
0 0.0534218 0.0453803
0.0574807 0.0571603 0.0496834
0.222019 0.0378424 0.0307317
0.48011 0.0019379 0
0.795666 0 0
0 0.174411 0.00131228
0.0449378 0.211322 0.0379797
0.233066 0.231495 0.0605478
0.542626 0.225284 0.0553445
0.924132 0.206088 0.0316472
0 0.450324 0
0.0134585 0.514534 0.00527962
0.203738 0.557733 0.0153353
0.563912 0.560327 0
1 0.540505 0
0 0.854749 0
0 0.93344 0
0.102434 0.979477 0
0.502708 0.981292 0
0.968277 0.963302 0
0 0 0.209461
0.0459602 0 0.202579
0.219303 0 0.16199
0.492714 0 0.0947433
0.793225 0 0.0231479
0 0.0472419 0.187137
0.0528267 0.0523995 0.190814
0.217502 0.0358434 0.165377
0.48275 0.00402838 0.122805
0.807218 0 0.0899214
0 0.177691 0.129625
0.0535592 0.219104 0.170703
0.243458 0.241398 0.192828
0.565408 0.233951 0.184466
0.954711 0.214405 0.162203
0 0.464439 0.0961929
0.0185092 0.530892 0.1364
0.206088 0.577188 0.147143
0.581003 0.57673 0.124132
1 0.55436 0.0964523
0 0.874464 0
0 0.952087 0.0118257
0.114534 0.999298 0.0474556
0.518914 1 0.0614633
0.986816 0.981537 0.0996872
0 0 0.49012
0.0274968 0 0.479973
0.197269 0 0.435904
0.469505 0 0.360739
0.769497 0 0.278782
0 0.0321965 0.446281
0.0400702 0.0395056 0.440787
0.201022 0.0274205 0.414466
0.473228 0 0.372839
0.807431 0 0.341283
0 0.17438 0.379278
0.055314 0.217517 0.427558
0.243397 0.240833 0.462104
0.569833 0.23357 0.461311
0.973022 0.212039 0.442771
0 0.468223 0.363287
0.0144045 0.535286 0.42298
0.202792 0.580301 0.459586
0.583719 0.578393 0.45211
1 0.553414 0.424491
0 0.879973 0.279484
0 0.956451 0.340215
0.116655 1 0.379721
0.51928 1 0.388449
0.993713 0.98793 0.408118
0 0 0.830777
0.00509651 0 0.814298
0.172152 0 0.763912
0.441596 0 0.680262
0.740581 0 0.588342
0 0.013611 0.757382
0.0241245 0.0234226 0.741115
0.184314 0.0152743 0.711971
0.461173 0 0.67953
0.801205 0 0.653178
0 0.168017 0.685054
0.051957 0.212711 0.739132
0.240391 0.237324 0.78172
0.56318 0.23122 0.801419
0.978561 0.205341 0.806287
0 0.467018 0.704387
0.00460822 0.533486 0.790951
0.200992 0.575097 0.856245
0.578943 0.572702 0.878477
1 0.547692 0.8589
0 0.878202 0.685481
0 0.953079 0.757
0.120592 0.998611 0.80267
0.524285 1 0.813138
0.993835 0.986847 0.809079
