LUTs/Artistic/LUT_OTHER/DESERT_GOLD__37.DJI_0021.cube
TITLE "Generated by Resolve"
LUT_3D_SIZE 9
0 0 0
0.022385 0 0
0.0570382 0 0
0.118639 0 0
0.229297 0 0
0.35874 0 0
0.50341 0 0
0.656245 0 0
0.809018 0 0
0 0.0202029 0
0.021149 0.0210727 0
0.0584726 0.0193942 0
0.117784 0.0122683 0
0.224506 0 0
0.348516 0 0
0.485832 0 0
0.63061 0 0
0.776547 0 0
0 0.0526741 0
0.018555 0.0553292 0
0.0554665 0.0552834 0
0.111879 0.0509957 0
0.214984 0.0352178 0
0.335729 0.0164492 0
0.471534 0 0
0.620157 0 0
0.778592 0 0
0 0.0955215 0
0.010071 0.100725 0
0.0490425 0.104585 0
0.106737 0.10634 0.002121
0.213382 0.0992752 0
0.344167 0.0911421 0
0.495857 0.0828565 0
0.662043 0.0725261 0
0.837156 0.0617838 0
0 0.166155 0
0 0.180255 0
0.0336004 0.196933 0
0.100908 0.211948 0.000686656
0.217105 0.215991 0.0059205
0.357641 0.215091 0.00546273
0.518502 0.210056 0
0.697612 0.201785 0
0.890898 0.191638 0
0 0.282353 0
0 0.307286 0
0.028275 0.330617 0
0.0974289 0.351431 0
0.216541 0.360113 0.00166323
0.364492 0.362997 0
0.539101 0.36025 0
0.738354 0.352438 0
0.956542 0.341039 0
0 0.43093 0
0 0.462257 0
0.00314336 0.492241 0
0.070161 0.519585 0
0.192599 0.533974 0
0.350866 0.540017 0
0.541344 0.538552 0
0.758434 0.530968 0
0.990662 0.520134 0
0 0.612573 0
0 0.652018 0
0 0.689326 0
0.00389105 0.722026 0
0.136324 0.738231 0
0.309117 0.744244 0
0.512352 0.742702 0
0.738994 0.735409 0
0.975448 0.725597 0
0 0.828153 0
0 0.870253 0
0 0.90779 0
0 0.93933 0
0.0845655 0.954116 0
0.269017 0.95903 0
0.479423 0.956863 0
0.709651 0.949523 0
0.944259 0.940124 0
0 0 0.0221866
0.0216831 0 0.0181582
0.0574502 0 0.0129549
0.12018 0 0.002533
0.230732 0 0
0.359991 0 0
0.504082 0 0
0.656046 0 0
0.807797 0 0
0 0.0204776 0.0172732
0.0216678 0.0215457 0.0184482
0.0605325 0.0197604 0.0167239
0.120439 0.012665 0.00970474
0.227115 0 0
0.350469 0 0
0.486931 0 0
0.631266 0 0
0.777173 0 0
0 0.0536049 0.0131228
0.0188296 0.0567788 0.0158846
0.0569619 0.0567025 0.0170138
0.114992 0.052369 0.014847
0.218753 0.0369421 0.000946059
0.339467 0.0188144 0
0.47599 0 0
0.626169 0 0
0.787305 0 0
0 0.0972763 0.0015259
0.0119783 0.103212 0.0089723
0.0514687 0.107866 0.0159304
0.110704 0.110185 0.0211337
0.219898 0.103929 0.0174258
0.353246 0.0974899 0.0124208
0.506111 0.0894484 0.00526436
0.673381 0.0795453 0
0.849622 0.068986 0
0 0.170581 0
0 0.186236 0
0.0396124 0.204334 0.00560006
0.107637 0.220005 0.0224308
0.225452 0.224109 0.0280156
0.367605 0.222995 0.0276188
0.530632 0.218143 0.0221256
0.711879 0.209751 0.011902
0.907668 0.199451 0
0 0.29041 0
0 0.315984 0
0.0350805 0.339895 0.000839246
0.104234 0.361303 0.0190433
0.224475 0.370199 0.0237278
0.374548 0.372747 0.0200656
0.552209 0.369833 0.00889601
0.754665 0.361639 0
0.975677 0.349889 0
0 0.44097 0
0 0.473075 0
0.00875868 0.503746 0
0.0755932 0.531716 0
0.198795 0.546059 0
0.359487 0.551736 0
0.552926 0.549737 0
0.772519 0.541726 0
1 0.530694 0
0 0.625467 0
0 0.665446 0
0 0.702907 0
0.00894179 0.735729 0
0.142962 0.75172 0
0.317998 0.757305 0
0.523476 0.755306 0
0.751324 0.747433 0
0.989242 0.737758 0
0 0.841962 0
0 0.883741 0
0 0.921035 0
0 0.952773 0
0.0940719 0.967468 0
0.279545 0.971817 0
0.491493 0.969619 0
0.72256 0.961837 0
0.956664 0.952102 0
0 0 0.0539254
0.019379 0 0.0517891
0.0559701 0 0.046952
0.119173 0 0.0356603
0.230228 0 0.0122988
0.359533 0 0
0.503243 0 0
0.654475 0 0
0.805356 0 0
0 0.0198215 0.0511025
0.0213321 0.021149 0.0535592
0.0601205 0.0196078 0.0512245
0.121218 0.0124056 0.041886
0.228046 0 0.0215
0.350912 0 0
0.487083 0 0
0.63093 0 0
0.777127 0 0
0 0.0534218 0.0453803
0.0192416 0.0568093 0.0489204
0.0574807 0.0571603 0.0496834
0.118441 0.0524605 0.0452125
0.222019 0.0378424 0.0307317
0.342916 0.0205692 0.0135958
0.48011 0.0019379 0
0.631937 0 0
0.795666 0 0
0 0.0980697 0.0321813
0.0135195 0.104677 0.0395056
0.0527047 0.110658 0.0456855
0.114412 0.113756 0.0511177
0.226947 0.108064 0.0483101
0.362554 0.102861 0.0445258
0.515984 0.0952773 0.0376745
0.68426 0.0857862 0.0283665
0.86183 0.0753643 0.0179141
0 0.174411 0.00131228
0 0.19202 0.0189364
0.0449378 0.211322 0.0379797
0.113024 0.227527 0.0546578
0.233066 0.231495 0.0605478
0.377676 0.230106 0.0605173
0.542626 0.225284 0.0553445
0.725963 0.216815 0.045304
0.924132 0.206088 0.0316472
0 0.297719 0
0 0.323888 0.0124971
0.0410468 0.348455 0.033753
0.109499 0.370275 0.0516365
0.231006 0.37969 0.0567483
0.384024 0.381903 0.0532387
0.564569 0.378317 0.0422217
0.770169 0.369604 0.024094
0.994247 0.357641 0.00178531
0 0.450324 0
0 0.48307 0
0.0134585 0.514534 0.00527962
0.0796063 0.543191 0.0178225
0.203738 0.557733 0.0153353
0.367132 0.562997 0.0043183
0.563912 0.560327 0
0.786084 0.551797 0
1 0.540505 0
0 0.637507 0
0 0.677958 0
0 0.715572 0
0.0131991 0.748455 0
0.148394 0.76434 0
0.325292 0.769223 0
0.533257 0.766674 0
0.763119 0.758785 0
1 0.748913 0
0 0.854749 0
0 0.896361 0
0 0.93344 0
0 0.965103 0
0.102434 0.979477 0
0.288975 0.984039 0
0.502708 0.981292 0
0.734249 0.9729 0
0.968277 0.963302 0
0 0 0.105013
0.016495 0 0.103334
0.052842 0 0.0983139
0.115557 0 0.086244
0.227192 0 0.0609598
0.356817 0 0.0316625
0.500359 0 0
0.651194 0 0
0.801404 0 0
0 0.0179599 0.100618
0.0198672 0.0196231 0.102632
0.0571298 0.018616 0.100649
0.118044 0.0118257 0.0903182
0.225986 0 0.0675669
0.349279 0 0.0419471
0.485512 0 0.0143282
0.629557 0 0
0.776211 0 0
0 0.0522316 0.0918593
0.0197452 0.0555123 0.0956588
0.0568704 0.0564889 0.0979782
0.117556 0.0523537 0.0921645
0.223148 0.0381018 0.0741894
0.345037 0.0218051 0.055787
0.483299 0.00434882 0.0369116
0.637308 0 0.0192416
0.803189 0 0.00538643
0 0.0979324 0.0755322
0.0154879 0.104997 0.0832074
0.0546273 0.111849 0.0905623
0.117479 0.116518 0.0960708
0.235706 0.111482 0.0919814
0.371725 0.107378 0.0880293
0.525567 0.100389 0.0809186
0.694636 0.0912337 0.0717021
0.87332 0.0808118 0.0611276
0 0.177447 0.0439918
0.000396735 0.197086 0.0632334
0.0500801 0.217136 0.0820172
0.116487 0.234714 0.097612
0.240085 0.238285 0.102602
0.388418 0.236225 0.103273
0.55523 0.231357 0.0986496
0.740383 0.222858 0.0889143
0.940734 0.211887 0.0754559
0 0.30425 0.0327611
0 0.3308 0.056199
0.0467536 0.356237 0.0773632
0.11397 0.379019 0.0945754
0.235691 0.388968 0.0991989
0.392874 0.390448 0.0959335
0.5776 0.386038 0.0857404
0.786419 0.376761 0.0687114
1 0.364355 0.0475319
0 0.458976 0.0104524
0 0.492164 0.0316167
0.0174563 0.52459 0.0490272
0.0827192 0.554055 0.0616312
0.206943 0.569039 0.0595407
0.373663 0.573663 0.0497292
0.574105 0.570199 0.0352026
0.799512 0.560922 0.0181735
1 0.549432 0.00109865
0 0.648432 0
0 0.689189 0
0 0.726909 0
0.0169375 0.759838 0
0.152605 0.775891 0
0.331502 0.780835 0
0.542107 0.777722 0
0.773983 0.769207 0
1 0.758877 0
0 0.866514 0
0 0.907897 0
0 0.944808 0
0 0.976135 0
0.110018 0.991058 0
0.297353 0.99559 0
0.512383 0.992065 0
0.745357 0.983444 0
0.978927 0.973571 0.00367742
0 0 0.209461
0.00970474 0 0.20766
0.0459602 0 0.202579
0.107408 0 0.189441
0.219303 0 0.16199
0.348989 0 0.130129
0.492714 0 0.0947433
0.643366 0 0.0584268
0.793225 0 0.0231479
0 0.0121767 0.201755
0.0144808 0.0141756 0.202777
0.0509804 0.0135958 0.199786
0.110445 0.00758373 0.188708
0.218372 0 0.163485
0.342657 0 0.134295
0.479347 0 0.103578
0.624094 0 0.0730907
0.771862 0 0.0453498
0 0.0472419 0.187137
0.0161135 0.0507668 0.189929
0.0528267 0.0523995 0.190814
0.110674 0.0496529 0.185367
0.217502 0.0358434 0.165377
0.341878 0.0201877 0.143481
0.48275 0.00402838 0.122805
0.639582 0 0.104402
0.807218 0 0.0899214
0 0.0944228 0.163989
0.0145571 0.102113 0.171725
0.0547951 0.109514 0.180407
0.116808 0.115694 0.189853
0.236789 0.112764 0.185657
0.375814 0.109148 0.176761
0.531334 0.102495 0.167193
0.701595 0.0936141 0.156985
0.881682 0.0832532 0.145876
0 0.177691 0.129625
0.00341802 0.198734 0.15053
0.0535592 0.219104 0.170703
0.119356 0.237369 0.188495
0.243458 0.241398 0.192828
0.398016 0.238468 0.189609
0.565408 0.233951 0.184466
0.752148 0.225589 0.174914
0.954711 0.214405 0.162203
0 0.307561 0.11812
0 0.334478 0.142061
0.0500954 0.36054 0.163745
0.116182 0.384207 0.181033
0.235142 0.39556 0.182803
0.39881 0.396063 0.178088
0.589227 0.390143 0.171206
0.800534 0.380316 0.157031
1 0.367636 0.138857
0 0.464439 0.0961929
0 0.498222 0.118257
0.0185092 0.530892 0.1364
0.0829023 0.56109 0.149554
0.206088 0.577188 0.147143
0.375189 0.581704 0.136797
0.581003 0.57673 0.124132
0.810193 0.566201 0.110414
1 0.55436 0.0964523
0 0.656199 0.0408789
0 0.697078 0.0582742
0 0.734798 0.0738842
0.0182803 0.767819 0.0876783
0.15378 0.784344 0.0889448
0.333669 0.789487 0.0841535
0.546654 0.785855 0.0776684
0.781735 0.776516 0.0706188
1 0.765866 0.066041
0 0.874464 0
0 0.915251 0
0 0.952087 0.0118257
0 0.983886 0.0358587
0.114534 0.999298 0.0474556
0.301946 1 0.0536812
0.518914 1 0.0614633
0.753124 0.99089 0.0764172
0.986816 0.981537 0.0996872
0 0 0.340124
0.00128176 0 0.337896
0.0372931 0 0.332006
0.0977035 0 0.318364
0.208881 0 0.290028
0.338445 0 0.256397
0.482033 0 0.218753
0.632578 0 0.179919
0.782269 0 0.142107
0 0.00459297 0.328695
0.00726329 0.00691234 0.327977
0.0433661 0.00660716 0.3234
0.101366 0.00131228 0.311589
0.208362 0 0.285512
0.332845 0 0.254398
0.470085 0 0.221363
0.615808 0 0.188571
0.765087 0 0.159167
0 0.0403449 0.308263
0.0105135 0.0443732 0.309026
0.0469978 0.0465095 0.307652
0.103761 0.0448615 0.301472
0.20943 0.0321508 0.282399
0.335042 0.0171359 0.260258
0.478752 0.00195315 0.238819
0.639094 0 0.221073
0.808362 0 0.206119
0 0.0889448 0.279408
0.0115969 0.0975204 0.286763
0.0527657 0.106065 0.295537
0.115023 0.113771 0.305257
0.232258 0.113313 0.305837
0.373983 0.109514 0.29865
0.532296 0.102724 0.288029
0.704829 0.0938125 0.276875
0.887022 0.0833906 0.265629
0 0.17644 0.245609
0.0043946 0.198184 0.268452
0.0551156 0.21883 0.290822
0.122835 0.236698 0.31223
0.243671 0.241352 0.323247
0.399161 0.238788 0.321263
0.570611 0.233783 0.311681
0.760037 0.225513 0.301762
0.965423 0.213931 0.290059
0 0.308415 0.236286
0 0.335576 0.262501
0.0514076 0.361822 0.287495
0.117906 0.385412 0.309453
0.235447 0.39675 0.31899
0.400244 0.39704 0.31722
0.599573 0.389578 0.307622
0.811719 0.379873 0.294865
1 0.367132 0.279255
0 0.46717 0.218967
0 0.501198 0.244785
0.0171054 0.534035 0.267445
0.0812238 0.564218 0.285893
0.203082 0.580423 0.288258
0.369635 0.586084 0.278447
0.583932 0.579248 0.265736
0.81886 0.567193 0.256123
1 0.555184 0.245029
0 0.660594 0.17409
0 0.701259 0.196338
0 0.738659 0.216739
0.0167697 0.77145 0.23476
0.151858 0.788251 0.238346
0.330282 0.793759 0.233463
0.545098 0.79028 0.225055
0.785519 0.779858 0.218524
1 0.76817 0.215076
0 0.878141 0.10779
0 0.918853 0.135698
0 0.955428 0.162661
0 0.987121 0.187701
0.115419 1 0.199557
0.303059 1 0.204974
0.520058 1 0.211353
0.756466 0.994888 0.224567
0.99086 0.985397 0.24329
0 0 0.49012
0 0 0.4869
0.0274968 0 0.479973
0.0870069 0 0.4654
0.197269 0 0.435904
0.32639 0 0.400519
0.469505 0 0.360739
0.619852 0 0.319173
0.769497 0 0.278782
0 0 0.473854
0 0 0.471046
0.0346532 0 0.464469
0.0916304 0 0.450996
0.197726 0 0.423514
0.321508 0 0.390951
0.459174 0 0.355947
0.605859 0 0.321553
0.756893 0 0.290532
0 0.0321965 0.446281
0.00347906 0.036759 0.444526
0.0400702 0.0395056 0.440787
0.0962997 0.0387579 0.433204
0.201022 0.0274205 0.414466
0.327352 0.013489 0.393103
0.473228 0 0.372839
0.63653 0 0.356191
0.807431 0 0.341283
0 0.082475 0.411048
0.00723278 0.0919051 0.417655
0.0496071 0.101976 0.426749
0.112764 0.111376 0.437491
0.228626 0.112444 0.440253
0.369436 0.109041 0.436347
0.529778 0.102251 0.427512
0.705013 0.0930953 0.416724
0.889906 0.0823377 0.406271
0 0.17438 0.379278
0.00392157 0.196674 0.403464
0.055314 0.217517 0.427558
0.123949 0.235508 0.450217
0.243397 0.240833 0.462104
0.39443 0.239689 0.466224
0.569833 0.23357 0.461311
0.763409 0.22414 0.452354
0.973022 0.212039 0.442771
0 0.308003 0.373251
0 0.335348 0.402213
0.0514687 0.361654 0.43093
0.119005 0.38497 0.457938
0.23917 0.395361 0.474205
0.399741 0.395987 0.484413
0.600351 0.387945 0.479377
0.818128 0.377371 0.463996
1 0.364523 0.449027
0 0.468223 0.363287
0 0.502541 0.394202
0.0144045 0.535286 0.42298
0.0792706 0.565026 0.448432
0.202792 0.580301 0.459586
0.367956 0.585611 0.461372
0.583719 0.578393 0.45211
0.828168 0.564523 0.436988
1 0.553414 0.424491
0 0.66305 0.33225
0 0.703319 0.360708
0 0.740139 0.386618
0.0146029 0.772198 0.409262
0.150469 0.788632 0.417762
0.327413 0.795041 0.415763
0.538231 0.793378 0.404349
0.786938 0.780819 0.393225
1 0.768109 0.392111
0 0.879973 0.279484
0 0.920241 0.310796
0 0.956451 0.340215
0 0.987808 0.366751
0.116655 1 0.379721
0.303044 1 0.384634
0.51928 1 0.388449
0.75613 0.997269 0.395483
0.993713 0.98793 0.408118
0 0 0.655634
0 0 0.651102
0.016556 0 0.642695
0.0754101 0 0.626963
0.184771 0 0.595956
0.313222 0 0.558541
0.455711 0 0.516793
0.605737 0 0.472633
0.755383 0 0.429618
0 0 0.633814
0 0 0.628565
0.0248722 0 0.619501
0.0812695 0 0.603845
0.186389 0 0.57438
0.309483 0 0.540383
0.447395 0 0.503853
0.59501 0 0.468467
0.747906 0 0.436942
0 0.0231327 0.597955
0 0.0282139 0.593362
0.0323033 0.0316777 0.587167
0.088365 0.0317388 0.578042
0.192538 0.0216068 0.559258
0.319387 0.00921645 0.539498
0.467109 0 0.521645
0.632181 0 0.506279
0.804807 0 0.492103
0 0.075349 0.556085
0.00187686 0.0856641 0.561852
0.0453651 0.0970932 0.571557
0.109987 0.108446 0.584588
0.225132 0.110445 0.588647
0.365286 0.107622 0.587381
0.525902 0.100923 0.581292
0.702754 0.0914015 0.572747
0.890623 0.080293 0.564477
0 0.17145 0.527276
0.00234989 0.194247 0.552819
0.054078 0.215412 0.578378
0.123186 0.233646 0.602777
0.242237 0.239429 0.61648
0.391073 0.239063 0.624552
0.566232 0.232898 0.625971
0.76347 0.222339 0.622415
0.976699 0.208865 0.617014
0 0.306371 0.525933
0 0.334081 0.558145
0.049897 0.360235 0.59057
0.118288 0.383673 0.62266
0.239811 0.393668 0.6439
0.398871 0.394766 0.659144
0.594064 0.387732 0.664424
0.816678 0.375341 0.657404
1 0.361395 0.6448
0 0.467964 0.526513
0 0.502327 0.563424
0.010193 0.535058 0.599374
0.0763409 0.564141 0.632425
0.202823 0.578195 0.651484
0.37145 0.581979 0.66212
0.581277 0.575479 0.666773
0.826185 0.561196 0.653819
1 0.549859 0.633646
0 0.663447 0.512825
0 0.703273 0.547448
0 0.739528 0.579782
0.0122835 0.771054 0.608103
0.150546 0.786664 0.621424
0.328466 0.792447 0.625788
0.536004 0.790646 0.623377
0.785229 0.778607 0.612238
1 0.76463 0.600214
0 0.879911 0.474357
0 0.919417 0.508354
0 0.955291 0.540459
0 0.986557 0.569467
0.117952 1 0.58349
0.305257 1 0.590036
0.518883 1 0.592599
0.750744 0.999115 0.590539
0.99472 0.988663 0.592096
0 0 0.830777
0 0 0.824582
0.00509651 0 0.814298
0.0634775 0 0.796536
0.172152 0 0.763912
0.299611 0 0.724559
0.441596 0 0.680262
0.591012 0 0.633997
0.740581 0 0.588342
0 0 0.802289
0 0 0.794308
0.0145876 0 0.782467
0.0707408 0 0.764218
0.174945 0 0.732616
0.297642 0 0.696681
0.435203 0 0.659419
0.58378 0 0.623331
0.738781 0 0.592569
0 0.013611 0.757382
0 0.0191653 0.749737
0.0241245 0.0234226 0.741115
0.0803693 0.0243839 0.73051
0.184314 0.0152743 0.711971
0.311666 0.00433356 0.694163
0.461173 0 0.67953
0.627222 0 0.665888
0.801205 0 0.653178
0 0.0679484 0.709102
0 0.0793622 0.714839
0.0406806 0.0919661 0.725948
0.106676 0.104997 0.740978
0.221607 0.107744 0.746441
0.361044 0.105303 0.747173
0.521767 0.09897 0.744335
0.699916 0.089128 0.73933
0.890074 0.0776074 0.734768
0 0.168017 0.685054
0 0.191043 0.711833
0.051957 0.212711 0.739132
0.121416 0.231205 0.765454
0.240391 0.237324 0.78172
0.388342 0.237278 0.793729
0.56318 0.23122 0.801419
0.761898 0.220035 0.804898
0.978561 0.205341 0.806287
0 0.304097 0.689982
0 0.332128 0.725811
0.0473182 0.358404 0.7626
0.115908 0.381491 0.799374
0.238529 0.391485 0.826474
0.397131 0.39266 0.847349
0.58999 0.386023 0.86038
0.812329 0.373251 0.862287
1 0.358312 0.856077
0 0.467018 0.704387
0 0.501167 0.747814
0.00460822 0.533486 0.790951
0.0720226 0.561929 0.831189
0.200992 0.575097 0.856245
0.371771 0.578195 0.871885
0.578943 0.572702 0.878477
0.816205 0.560571 0.874174
1 0.547692 0.8589
0 0.662989 0.710536
0 0.702205 0.751629
0 0.737865 0.789258
0.00955215 0.768719 0.822217
0.150774 0.783383 0.839414
0.330755 0.788037 0.847608
0.541405 0.785458 0.850568
0.782345 0.774929 0.850278
1 0.761273 0.835721
0 0.878202 0.685481
0 0.917556 0.722713
0 0.953079 0.757
0 0.983642 0.787106
0.120592 0.998611 0.80267
0.310216 1 0.810193
0.524285 1 0.813138
0.750469 0.996551 0.813458
0.993835 0.986847 0.809079
