LUTs/Artistic/LUT_OTHER/DESERT_GOLD__37.DJI_0021.cube
TITLE "Generated by Resolve"
LUT_3D_SIZE 33
0 0 0
0.00296025 0 0
0.00859083 0 0
0.0150759 0 0
0.022385 0 0
0.0301518 0 0
0.0383154 0 0
0.0471809 0 0
0.0570382 0 0
0.0681621 0 0
0.0813306 0 0
0.0977646 0 0
0.118639 0 0
0.144183 0 0
0.171313 0 0
0.199771 0 0
0.229297 0 0
0.260014 0 0
0.291997 0 0
0.324819 0 0
0.35874 0 0
0.393835 0 0
0.429618 0 0
0.466178 0 0
0.50341 0 0
0.541192 0 0
0.5794 0 0
0.617868 0 0
0.656245 0 0
0.694759 0 0
0.732982 0 0
0.77084 0 0
0.809018 0 0
0 0.00166323 0
0.00161746 0.00161746 0
0.0080415 0.000946059 0
0.0155184 0.000228885 0
0.0232547 0 0
0.0314641 0 0
0.0399481 0 0
0.0490578 0 0
0.0589151 0 0
0.0702525 0 0
0.0834211 0 0
0.0996109 0 0
0.120317 0 0
0.145586 0 0
0.172595 0 0
0.200748 0 0
0.230167 0 0
0.260487 0 0
0.292195 0 0
0.324666 0 0
0.358434 0 0
0.392874 0 0
0.428199 0 0
0.464271 0 0
0.500999 0 0
0.538247 0 0
0.575891 0 0
0.613764 0 0
0.65153 0 0
0.689433 0 0
0.727153 0 0
0.76434 0 0
0.801831 0 0
0 0.00656138 0
0.000366217 0.00703441 0
0.00677501 0.00675975 0
0.0148165 0.00628672 0
0.0230259 0.00587472 0
0.0315251 0.0053254 0
0.0403449 0.00491341 0
0.0495766 0.00430304 0
0.0596475 0.00361639 0
0.0709239 0.00263981 0
0.0839857 0.00106813 0
0.0999313 0 0
0.120226 0 0
0.145388 0 0
0.172137 0 0
0.200168 0 0
0.229252 0 0
0.259327 0 0
0.290623 0 0
0.322789 0 0
0.3561 0 0
0.390127 0 0
0.424994 0 0
0.460594 0 0
0.496803 0 0
0.533532 0 0
0.570611 0 0
0.607935 0 0
0.645319 0 0
0.682521 0 0
0.719676 0 0
0.756329 0 0
0.793301 0 0
0 0.0129549 0
0 0.0137026 0
0.00556954 0.0138552 0
0.0136721 0.0136263 0
0.0221103 0.0131991 0
0.0308537 0.0128634 0
0.0397803 0.0124666 0
0.0490883 0.0119478 0
0.0591897 0.0113069 0
0.0702831 0.0103304 0
0.0833143 0.00898756 0
0.0990158 0.00686656 0
0.119066 0.00364691 0
0.143969 0 0
0.170565 0 0
0.198276 0 0
0.2271 0 0
0.257069 0 0
0.287816 0 0
0.319814 0 0
0.352529 0 0
0.38613 0 0
0.420539 0 0
0.455695 0 0
0.491386 0 0
0.527581 0 0
0.564172 0 0
0.600992 0 0
0.637934 0 0
0.674632 0 0
0.71136 0 0
0.747662 0 0
0.78439 0 0
0 0.0202029 0
0 0.0210269 0
0.00494392 0.0214542 0
0.0126345 0.0213016 0
0.021149 0.0210727 0
0.0298619 0.0206912 0
0.0388952 0.0203861 0
0.0482795 0.019913 0
0.0584726 0.0193942 0
0.0696422 0.0185092 0
0.0824903 0.017319 0
0.0979171 0.0153201 0
0.117784 0.0122683 0
0.142367 0.0078584 0
0.168734 0.00311284 0
0.195972 0 0
0.224506 0 0
0.254154 0 0
0.284566 0 0
0.316213 0 0
0.348516 0 0
0.381674 0 0
0.415885 0 0
0.450553 0 0
0.485832 0 0
0.521492 0 0
0.557565 0 0
0.594018 0 0
0.63061 0 0
0.667201 0 0
0.703578 0 0
0.739788 0 0
0.776547 0 0
0 0.0277714 0
0 0.028748 0
0.00427253 0.029221 0
0.0119173 0.0293278 0
0.0201724 0.0291752 0
0.0290837 0.0290074 0
0.0380865 0.0287022 0
0.0476081 0.028397 0
0.0575875 0.027863 0
0.0687572 0.0271305 0
0.0813916 0.0259556 0
0.0967269 0.0240787 0
0.116136 0.0212558 0
0.140429 0.0170291 0
0.166598 0.0124666 0
0.19379 0.00753796 0
0.221836 0.00241093 0
0.251179 0 0
0.281346 0 0
0.312505 0 0
0.344488 0 0
0.37734 0 0
0.411139 0 0
0.445457 0 0
0.4804 0 0
0.515877 0 0
0.551812 0 0
0.587839 0 0
0.62443 0 0
0.661082 0 0
0.69752 0 0
0.734112 0 0
0.770962 0 0
0 0.0356909 0
0 0.0367285 0
0.00383001 0.0373541 0
0.011368 0.0375982 0
0.0196536 0.0375525 0
0.0283818 0.0374456 0
0.0373236 0.0372168 0
0.0468299 0.0370031 0
0.0568704 0.0365454 0
0.0679026 0.0359808 0
0.0805219 0.0349126 0
0.0955367 0.0332494 0
0.114595 0.0306401 0
0.138552 0.026627 0
0.164446 0.0222324 0
0.191379 0.0175174 0
0.219348 0.0125734 0
0.248219 0.00759899 0
0.278233 0.00227359 0
0.308995 0 0
0.340703 0 0
0.373434 0 0
0.406775 0 0
0.440925 0 0
0.475715 0 0
0.511193 0 0
0.547097 0 0
0.583337 0 0
0.619944 0 0
0.656901 0 0
0.693843 0 0
0.731029 0 0
0.768551 0 0
0 0.0440528 0
0 0.0450294 0
0.00355535 0.0458839 0
0.0108644 0.0461128 0
0.0191196 0.0462348 0
0.0277104 0.0462043 0
0.0366522 0.0460975 0
0.0461433 0.0460059 0
0.0561532 0.0456855 0
0.067155 0.0452583 0
0.0796216 0.044358 0
0.0943923 0.0428626 0
0.113069 0.0404974 0
0.136675 0.0367437 0
0.162341 0.0325322 0
0.189197 0.0281987 0
0.216983 0.0235294 0
0.245579 0.0186923 0
0.275425 0.0137331 0
0.306004 0.00856031 0
0.337743 0.00323491 0
0.37026 0 0
0.403601 0 0
0.43769 0 0
0.472572 0 0
0.508202 0 0
0.544427 0 0
0.581201 0 0
0.61828 0 0
0.655848 0 0
0.693675 0 0
0.731823 0 0
0.770855 0 0
0 0.0526741 0
0 0.0536965 0
0.0030518 0.0546883 0
0.0102998 0.0550546 0
0.018555 0.0553292 0
0.0271 0.0554208 0
0.0360113 0.0554513 0
0.0454871 0.0554818 0
0.0554665 0.0552834 0
0.0663767 0.054902 0
0.0787976 0.0543221 0
0.0934462 0.0530861 0
0.111879 0.0509957 0
0.135241 0.0475929 0
0.160616 0.0436255 0
0.187228 0.0394293 0
0.214984 0.0352178 0
0.243732 0.0307317 0
0.27335 0.0261387 0
0.304143 0.0214389 0
0.335729 0.0164492 0
0.368246 0.0113985 0
0.401816 0.00648508 0
0.436255 0.00140383 0
0.471534 0 0
0.507561 0 0
0.544381 0 0
0.581994 0 0
0.620157 0 0
0.658976 0 0
0.698299 0 0
0.737957 0 0
0.778592 0 0
0 0.0618296 0
0 0.0629129 0
0.00233463 0.0640574 0
0.00952163 0.0645762 0
0.0177005 0.0648966 0
0.0262913 0.0651865 0
0.0352789 0.0653544 0
0.0448157 0.0655833 0
0.0547646 0.0656291 0
0.0657054 0.0654917 0
0.0780804 0.0651255 0.000137331
0.0926986 0.0641031 0
0.110842 0.0622263 0
0.13402 0.0592813 0
0.159487 0.0557259 0
0.185992 0.0519722 0
0.213642 0.0479896 0
0.242481 0.043946 0
0.27216 0.0397345 0
0.303136 0.0354314 0
0.335088 0.03122 0
0.368017 0.0267796 0
0.401892 0.0221256 0
0.437018 0.0174258 0
0.473136 0.0131075 0
0.51014 0.00877394 0
0.54815 0.00437934 0
0.586923 0 0
0.62652 0 0
0.667094 0 0
0.708385 0 0
0.749859 0 0
0.791974 0 0
0 0.0717784 0
0 0.0729229 0
0.000915541 0.0741894 0
0.00820935 0.0748455 0
0.016434 0.0753185 0
0.0252232 0.0758526 0
0.0342565 0.0762493 0
0.0437018 0.0765545 0
0.0538643 0.0768902 0
0.0647288 0.0770428 0.000549325
0.0771496 0.0769055 0.00103761
0.0918746 0.0764172 0.00123598
0.109911 0.0749828 0.000396735
0.132769 0.0722972 0
0.158236 0.0690623 0
0.185122 0.0658579 0
0.212924 0.0624857 0
0.242023 0.0589456 0
0.272282 0.0552529 0
0.303517 0.0515145 0
0.335927 0.0476997 0
0.369696 0.043946 0
0.404822 0.0402838 0
0.441001 0.0365911 0
0.478111 0.0326696 0
0.516426 0.0288548 0
0.555856 0.0253758 0
0.596719 0.0223087 0
0.638056 0.0191348 0
0.679591 0.0159609 0
0.721675 0.0127871 0
0.763836 0.00978103 0
0.806806 0.0068513 0
0 0.0827955 0
0 0.0840772 0
0 0.0854658 0
0.00582895 0.0864271 0
0.0141146 0.0870832 0
0.0228885 0.0876936 0
0.0321813 0.0884413 0
0.0418708 0.0890974 0
0.0521553 0.0896925 0
0.0633555 0.0902571 0.000686656
0.0758984 0.0903944 0.00154116
0.0905165 0.0901503 0.00199893
0.10869 0.0892958 0.00183108
0.131731 0.0873732 0.000579843
0.157504 0.0847486 0
0.184558 0.0818799 0
0.212802 0.0789197 0
0.24239 0.0762341 0
0.273426 0.0733806 0
0.305592 0.0705119 0
0.33904 0.0674144 0
0.373968 0.0644541 0
0.410101 0.0614633 0
0.447715 0.0586709 0
0.48658 0.0560006 0
0.52636 0.0532387 0
0.567193 0.0506294 0
0.608331 0.047776 0
0.650309 0.0448615 0
0.692836 0.0419776 0
0.73547 0.0391089 0
0.778607 0.0362554 0
0.822263 0.0336004 0
0 0.0955215 0
0 0.0969711 0
0 0.0985275 0
0.00141909 0.0997177 0
0.010071 0.100725 0
0.0191196 0.101686 0
0.0285039 0.102602 0
0.0384985 0.103639 0
0.0490425 0.104585 0
0.0605631 0.105516 0
0.0735332 0.106294 0.000747692
0.0885481 0.106752 0.00190738
0.106737 0.10634 0.002121
0.129824 0.104891 0.00135805
0.156146 0.10309 0.000198367
0.184192 0.101289 0
0.213382 0.0992752 0
0.243687 0.0970779 0
0.275517 0.0948501 0
0.309087 0.0930495 0
0.344167 0.0911421 0
0.380407 0.08925 0
0.417731 0.0871748 0
0.456138 0.084947 0
0.495857 0.0828565 0
0.536309 0.0804303 0
0.577585 0.0778821 0
0.619608 0.075227 0
0.662043 0.0725261 0
0.705257 0.0697642 0
0.748913 0.0672618 0
0.792874 0.0645609 0
0.837156 0.0617838 0
0 0.11043 0
0 0.11223 0
0 0.114122 0
0 0.115496 0
0.00309758 0.116747 0
0.0126497 0.118212 0
0.0225223 0.119661 0
0.0329137 0.121157 0
0.0438392 0.122576 0
0.055787 0.124117 0
0.0691081 0.12546 0
0.0847791 0.126604 0
0.103792 0.127184 0.000885023
0.127611 0.126864 0.0012665
0.154589 0.125673 0.000686656
0.183124 0.124514 7.62951e-05
0.213474 0.123507 0
0.245487 0.122667 0
0.278752 0.121828 0
0.313237 0.120546 0
0.348806 0.119127 0
0.385595 0.117571 0
0.42356 0.115846 0
0.462867 0.114183 0
0.502892 0.112093 0
0.543893 0.10985 0
0.585794 0.107485 0
0.628534 0.104982 0
0.671763 0.102434 0
0.715801 0.0997787 0
0.760601 0.097322 0
0.80531 0.0946975 0
0.850675 0.0919814 0
0 0.127123 0
0 0.129122 0
0 0.131441 0
0 0.133532 0
0 0.135363 0
0.00569161 0.137179 0
0.0158846 0.139086 0
0.0269017 0.141421 0
0.0385138 0.143816 0
0.0512093 0.146197 0
0.065156 0.148363 0
0.0813916 0.150332 0
0.101015 0.151919 0
0.125505 0.152712 0.000640879
0.153765 0.152895 0.00132753
0.183566 0.152819 0.00172427
0.214633 0.152697 0.00204471
0.247135 0.152285 0.00204471
0.28069 0.151644 0.00178531
0.315709 0.150759 0.00122072
0.351781 0.14966 0.000427253
0.389029 0.148348 0
0.427787 0.147066 0
0.467353 0.145373 0
0.50811 0.14345 0
0.549599 0.14139 0
0.592218 0.139116 0
0.635721 0.136751 0
0.680079 0.134325 0
0.725078 0.132021 0
0.770596 0.129381 0
0.816388 0.126787 0
0.862943 0.124102 0
0 0.145541 0
0 0.148196 0
0 0.150973 0
0 0.153445 0
0 0.156039 0
0.00015259 0.159045 0
0.0110933 0.161944 0
0.0225528 0.164858 0
0.0345922 0.168032 0
0.048127 0.171588 0
0.0633402 0.175158 0
0.0805066 0.178408 0
0.100755 0.180941 0
0.125536 0.182391 0.00180056
0.154208 0.183093 0.00294499
0.184543 0.183566 0.00381476
0.216052 0.183642 0.00427253
0.248661 0.183505 0.00447089
0.282765 0.183078 0.0043183
0.317998 0.182467 0.00395209
0.354559 0.181643 0.00332647
0.392767 0.180713 0.00251774
0.431693 0.1794 0.00117494
0.471809 0.177859 0
0.513146 0.176135 0
0.555596 0.174197 0
0.598825 0.172122 0
0.643198 0.169818 0
0.688716 0.16762 0
0.73463 0.165255 0
0.781323 0.162661 0
0.828336 0.160067 0
0.876234 0.157351 0
0 0.166155 0
0 0.169528 0
0 0.173327 0
0 0.176867 0
0 0.180255 0
0 0.183917 0
0.00755322 0.187961 0
0.0201572 0.192309 0
0.0336004 0.196933 0
0.0477302 0.201175 0
0.0631266 0.205234 0
0.0804761 0.208942 0
0.100908 0.211948 0.000686656
0.125872 0.213947 0.00303655
0.154849 0.21503 0.00444038
0.18529 0.215641 0.0053254
0.217105 0.215991 0.0059205
0.250065 0.216129 0.00627146
0.28455 0.21593 0.00622568
0.32018 0.215534 0.00590524
0.357641 0.215091 0.00546273
0.395987 0.214206 0.00454719
0.435615 0.213062 0.00328069
0.476463 0.211658 0.00170901
0.518502 0.210056 0
0.561715 0.20827 0
0.606073 0.206287 0
0.651255 0.20415 0
0.697612 0.201785 0
0.745174 0.199557 0
0.793011 0.19704 0
0.841688 0.194369 0
0.890898 0.191638 0
0 0.190036 0
0 0.194141 0
0 0.19913 0
0 0.203815 0
0 0.208576 0
0 0.213367 0
0.0062562 0.218112 0
0.0193942 0.223148 0
0.0329595 0.227955 0
0.0473487 0.232639 0
0.0630503 0.237049 0
0.0805524 0.241077 0
0.101335 0.244678 0.00144961
0.126253 0.246952 0.0037995
0.155138 0.248249 0.00511177
0.185718 0.249134 0.00610361
0.217807 0.249729 0.00675975
0.251316 0.250065 0.00708019
0.286046 0.250202 0.00714122
0.322316 0.250095 0.00688182
0.360113 0.249775 0.00633249
0.399039 0.249073 0.00531014
0.439353 0.248112 0.00395209
0.480995 0.246876 0.00224308
0.523934 0.24538 0.000167849
0.568124 0.243656 0
0.61355 0.241703 0
0.660121 0.239582 0
0.707546 0.237308 0
0.756069 0.234836 0
0.805646 0.232547 0
0.855894 0.229847 0
0.906844 0.227054 0
0 0.21799 0
0 0.223453 0
0 0.229191 0
0 0.234485 0
0 0.239704 0
0 0.245197 0
0.00523384 0.250385 0
0.0183413 0.255543 0
0.0320439 0.260655 0
0.0465705 0.26566 0
0.0624094 0.27042 0
0.0801251 0.274922 0
0.100862 0.278691 0.00103761
0.12578 0.28127 0.00358587
0.155001 0.282826 0.00502022
0.185977 0.284016 0.00604257
0.218235 0.284916 0.00669871
0.252094 0.285496 0.00695811
0.28716 0.285908 0.0068513
0.324086 0.286137 0.00646983
0.362264 0.285969 0.00572213
0.401831 0.285435 0.00448615
0.442863 0.284611 0.0028687
0.485359 0.283513 0.000885023
0.529259 0.282155 0
0.574517 0.280507 0
0.621103 0.278599 0
0.66894 0.276493 0
0.717891 0.274205 0
0.767849 0.271702 0
0.818845 0.269017 0
0.870954 0.266407 0
0.923751 0.263554 0
0 0.249256 0
0 0.255131 0
0 0.261326 0
0 0.267033 0
0 0.272786 0
0 0.278355 0
0.00361639 0.283879 0
0.0168765 0.289372 0
0.0306859 0.294804 0
0.0453498 0.300099 0
0.061326 0.305409 0
0.0790723 0.310231 0
0.0995956 0.31429 0
0.124498 0.31722 0.00218204
0.153887 0.319066 0.00355535
0.185153 0.320516 0.00447089
0.217746 0.321736 0.00505074
0.252003 0.322576 0.00515755
0.287755 0.32311 0.00486763
0.325154 0.323598 0.00436408
0.363973 0.323644 0.00332647
0.404425 0.323247 0.00173953
0.446342 0.32256 0
0.489754 0.321569 0
0.534691 0.320302 0
0.581003 0.318791 0
0.62858 0.316991 0
0.677791 0.31487 0
0.728298 0.31252 0
0.779736 0.310018 0
0.832471 0.307256 0
0.885908 0.304387 0
0.940322 0.301381 0
0 0.282353 0
0 0.288563 0
0 0.295216 0
0 0.301411 0
0 0.307286 0
0 0.313146 0
0.00103761 0.318975 0
0.0143587 0.324819 0
0.028275 0.330617 0
0.0429999 0.336263 0
0.0589761 0.341817 0
0.0768902 0.347021 0
0.0974289 0.351431 0
0.122347 0.354772 0
0.151919 0.356939 0.000701915
0.183444 0.358679 0.00138857
0.216541 0.360113 0.00166323
0.251057 0.361288 0.00155642
0.287251 0.362097 0.000823987
0.324895 0.362631 0
0.364492 0.362997 0
0.40589 0.362875 0
0.448661 0.362341 0
0.493065 0.361456 0
0.539101 0.36025 0
0.58677 0.35874 0
0.635889 0.356924 0
0.686351 0.354833 0
0.738354 0.352438 0
0.791394 0.349844 0
0.84564 0.347051 0
0.900649 0.344121 0
0.956542 0.341039 0
0 0.316976 0
0 0.323491 0
0 0.330571 0
0 0.336996 0
0 0.343236 0
0 0.349477 0
0 0.355657 0
0.0109102 0.361852 0
0.0248112 0.367987 0
0.0395972 0.374075 0
0.0556039 0.380102 0
0.0733349 0.385595 0
0.0937209 0.390433 0
0.118578 0.394186 0
0.148333 0.396704 0
0.180133 0.398749 0
0.21355 0.400458 0
0.248493 0.401892 0
0.285328 0.402945 0
0.32369 0.403662 0
0.364004 0.403952 0
0.405905 0.403937 0
0.449668 0.403601 0
0.495171 0.402869 0
0.542397 0.401755 0
0.591501 0.400443 0
0.642023 0.398642 0
0.693782 0.396582 0
0.747051 0.394186 0
0.801556 0.391577 0
0.856977 0.388815 0
0.913497 0.385824 0
0.970336 0.382788 0
0 0.35317 0
0 0.360311 0
0 0.367575 0
0 0.374334 0
0 0.380926 0
0 0.387549 0
0 0.394156 0
0.00593576 0.400778 0
0.0196536 0.407355 0
0.0343175 0.413825 0
0.050248 0.420233 0
0.0679637 0.4262 0
0.0883497 0.431403 0
0.113146 0.435523 0
0.143053 0.438392 0
0.175143 0.440787 0
0.208942 0.442802 0
0.244511 0.44445 0
0.281712 0.445792 0
0.320912 0.446677 0
0.361837 0.447196 0
0.404593 0.447333 0
0.449149 0.447105 0
0.495628 0.446464 0
0.543938 0.44538 0
0.593988 0.443915 0
0.645716 0.442115 0
0.698955 0.440009 0
0.753292 0.437675 0
0.809018 0.435004 0
0.865446 0.432242 0
0.922927 0.429282 0
0.980621 0.426322 0
0 0.391073 0
0 0.398627 0
0 0.406317 0
0 0.413535 0
0 0.420569 0
0 0.427604 0
0 0.434653 0
0 0.441703 0
0.0126497 0.448692 0
0.0271305 0.455543 0
0.0428168 0.462242 0
0.0603037 0.468666 0
0.0806287 0.474403 0
0.105501 0.478996 0
0.135592 0.482246 0
0.167849 0.484993 0
0.202075 0.487297 0
0.238132 0.489204 0
0.275914 0.490761 0
0.315801 0.491875 0
0.357397 0.492622 0
0.401038 0.492882 0
0.446754 0.492653 0
0.494377 0.492027 0
0.543694 0.491051 0
0.594842 0.489616 0
0.647639 0.487816 0
0.701885 0.485695 0
0.757259 0.483375 0
0.81384 0.480766 0
0.871336 0.477958 0
0.929259 0.47512 0
0.987533 0.472251 0
0 0.43093 0
0 0.438819 0
0 0.447059 0
0 0.454749 0
0 0.462257 0
0 0.469718 0
0 0.477211 0
0 0.484733 0
0.00314336 0.492241 0
0.01738 0.499565 0
0.0328222 0.506691 0
0.0500191 0.513481 0
0.070161 0.519585 0
0.0949874 0.524514 0
0.125216 0.528069 0
0.158083 0.531334 0
0.192599 0.533974 0
0.229267 0.53611 0
0.267704 0.537835 0
0.308293 0.539208 0
0.350866 0.540017 0
0.395483 0.540352 0
0.442329 0.540139 0
0.490898 0.539544 0
0.541344 0.538552 0
0.593317 0.537179 0
0.646937 0.535424 0
0.702068 0.533318 0
0.758434 0.530968 0
0.815518 0.528466 0
0.873549 0.525658 0
0.932036 0.522957 0
0.990662 0.520134 0
0 0.472847 0
0 0.481163 0
0 0.489891 0
0 0.498131 0
0 0.506142 0
0 0.514153 0
0 0.522133 0
0 0.530144 0
0 0.538125 0
0.00466926 0.545968 0
0.019852 0.553582 0
0.0368505 0.5608 0
0.0569772 0.5673 0
0.0817273 0.572656 0
0.112276 0.576501 0
0.14548 0.579736 0
0.180591 0.582559 0
0.217929 0.584863 0
0.257298 0.586694 0
0.298543 0.588067 0
0.342016 0.588937 0
0.387808 0.589242 0
0.43537 0.589136 0
0.484871 0.58854 0
0.536187 0.587518 0
0.589181 0.586114 0
0.643687 0.58436 0
0.69929 0.582345 0
0.756268 0.580011 0
0.814145 0.577508 0
0.872496 0.574899 0
0.931273 0.572213 0
0.990234 0.569528 0
0 0.516945 0
0 0.525719 0
0 0.53489 0
0 0.543679 0
0 0.552438 0
0 0.560998 0
0 0.569512 0
0 0.578027 0
0 0.58648 0
0 0.594781 0
0.00381476 0.602838 0
0.0207828 0.610452 0
0.0409705 0.617273 0
0.0659342 0.622919 0
0.0969863 0.627008 0
0.130877 0.630381 0
0.166934 0.633204 0
0.204883 0.635645 0
0.245151 0.637537 0
0.287404 0.638911 0
0.332052 0.639689 0
0.378531 0.64004 0
0.426993 0.639918 0
0.477363 0.639307 0
0.529488 0.638285 0
0.583246 0.636881 0
0.638453 0.635126 0
0.694713 0.633112 0
0.752148 0.630838 0
0.810513 0.628351 0
0.869184 0.625849 0
0.928405 0.623087 0
0.987396 0.620661 0
0 0.563439 0
0 0.572747 0
0 0.582528 0
0 0.591806 0
0 0.6009 0
0 0.609964 0
0 0.618997 0
0 0.627955 0
0 0.63679 0
