LUTs/Damaging/LUT_SATURATION/desaturated.cube
#Generated by lutCreator.js
#Coded by SirSerch
#https://github.com/SirSerch/LutCreatorJs
TITLE lutCreatorJs_25
LUT_3D_SIZE 25
0.000000 0.000000 0.000000
0.027451 0.003922 0.003922
0.062745 0.007843 0.007843
0.098039 0.015686 0.015686
0.133333 0.027451 0.027451
0.168627 0.043137 0.043137
0.203922 0.058824 0.058824
0.235294 0.074510 0.074510
0.274510 0.090196 0.090196
0.309804 0.105882 0.105882
0.345098 0.121569 0.121569
0.380392 0.137255 0.137255
0.415686 0.152941 0.152941
0.450980 0.168627 0.168627
0.486275 0.184314 0.184314
0.517647 0.200000 0.200000
0.556863 0.215686 0.215686
0.592157 0.231373 0.231373
0.627451 0.247059 0.247059
0.662745 0.262745 0.262745
0.698039 0.278431 0.278431
0.733333 0.294118 0.294118
0.768627 0.309804 0.309804
0.800000 0.321569 0.321569
0.839216 0.341176 0.341176
0.011765 0.039216 0.011765
0.043137 0.043137 0.015686
0.070588 0.047059 0.023529
0.105882 0.054902 0.031373
0.137255 0.062745 0.043137
0.172549 0.074510 0.054902
0.207843 0.086275 0.070588
0.239216 0.094118 0.082353
0.274510 0.109804 0.098039
0.313725 0.121569 0.113725
0.345098 0.137255 0.125490
0.380392 0.149020 0.141176
0.419608 0.164706 0.156863
0.450980 0.180392 0.172549
0.486275 0.192157 0.188235
0.521569 0.207843 0.203922
0.556863 0.223529 0.219608
0.592157 0.239216 0.235294
0.627451 0.254902 0.247059
0.662745 0.270588 0.262745
0.698039 0.286275 0.278431
0.733333 0.298039 0.294118
0.768627 0.313725 0.309804
0.803922 0.329412 0.325490
0.839216 0.345098 0.341176
0.027451 0.074510 0.027451
0.054902 0.078431 0.035294
0.082353 0.082353 0.039216
0.113725 0.086275 0.047059
0.145098 0.094118 0.054902
0.176471 0.098039 0.066667
0.211765 0.109804 0.078431
0.243137 0.117647 0.090196
0.278431 0.129412 0.105882
0.313725 0.141176 0.117647
0.349020 0.152941 0.133333
0.384314 0.164706 0.149020
0.419608 0.180392 0.160784
0.450980 0.192157 0.176471
0.490196 0.203922 0.192157
0.521569 0.219608 0.207843
0.556863 0.235294 0.219608
0.596078 0.247059 0.235294
0.627451 0.262745 0.250980
0.662745 0.278431 0.266667
0.701961 0.290196 0.282353
0.733333 0.305882 0.298039
0.768627 0.321569 0.313725
0.803922 0.333333 0.329412
0.839216 0.349020 0.345098
0.054902 0.117647 0.054902
0.074510 0.117647 0.058824
0.094118 0.121569 0.062745
0.121569 0.121569 0.066667
0.152941 0.129412 0.074510
0.184314 0.133333 0.082353
0.215686 0.141176 0.094118
0.247059 0.149020 0.105882
0.282353 0.156863 0.117647
0.317647 0.168627 0.129412
0.349020 0.176471 0.141176
0.388235 0.188235 0.156863
0.423529 0.200000 0.172549
0.454902 0.211765 0.184314
0.490196 0.223529 0.200000
0.525490 0.235294 0.211765
0.560784 0.250980 0.227451
0.596078 0.262745 0.243137
0.627451 0.274510 0.254902
0.666667 0.290196 0.270588
0.701961 0.305882 0.286275
0.733333 0.317647 0.301961
0.772549 0.333333 0.317647
0.803922 0.345098 0.329412
0.839216 0.360784 0.345098
0.082353 0.156863 0.082353
0.098039 0.156863 0.082353
0.113725 0.160784 0.086275
0.137255 0.160784 0.090196
0.164706 0.164706 0.098039
0.192157 0.168627 0.105882
0.227451 0.176471 0.113725
0.254902 0.180392 0.121569
0.290196 0.188235 0.133333
0.325490 0.196078 0.145098
0.356863 0.203922 0.156863
0.392157 0.215686 0.168627
0.427451 0.227451 0.180392
0.458824 0.235294 0.196078
0.494118 0.247059 0.207843
0.525490 0.258824 0.219608
0.564706 0.270588 0.235294
0.600000 0.282353 0.250980
0.631373 0.294118 0.262745
0.666667 0.305882 0.278431
0.701961 0.321569 0.294118
0.737255 0.333333 0.305882
0.772549 0.349020 0.321569
0.803922 0.360784 0.337255
0.843137 0.372549 0.352941
0.105882 0.196078 0.105882
0.117647 0.196078 0.105882
0.133333 0.196078 0.109804
0.152941 0.200000 0.113725
0.180392 0.200000 0.117647
0.203922 0.203922 0.125490
0.235294 0.207843 0.133333
0.262745 0.215686 0.141176
0.298039 0.219608 0.149020
0.329412 0.227451 0.160784
0.360784 0.235294 0.168627
0.396078 0.243137 0.180392
0.431373 0.250980 0.192157
0.462745 0.258824 0.203922
0.498039 0.270588 0.219608
0.529412 0.282353 0.231373
0.564706 0.290196 0.243137
0.600000 0.301961 0.258824
0.635294 0.313725 0.270588
0.670588 0.325490 0.286275
0.705882 0.337255 0.301961
0.737255 0.349020 0.313725
0.776471 0.364706 0.329412
0.807843 0.376471 0.341176
0.843137 0.388235 0.356863
0.129412 0.235294 0.129412
0.141176 0.235294 0.133333
0.152941 0.235294 0.133333
0.172549 0.239216 0.137255
0.196078 0.239216 0.141176
0.219608 0.243137 0.145098
0.247059 0.247059 0.152941
0.274510 0.250980 0.160784
0.305882 0.258824 0.168627
0.337255 0.262745 0.176471
0.368627 0.270588 0.188235
0.403922 0.274510 0.196078
0.435294 0.282353 0.207843
0.466667 0.290196 0.219608
0.501961 0.301961 0.231373
0.533333 0.309804 0.243137
0.568627 0.317647 0.254902
0.603922 0.329412 0.270588
0.639216 0.341176 0.282353
0.674510 0.349020 0.294118
0.709804 0.360784 0.309804
0.741176 0.372549 0.321569
0.776471 0.384314 0.337255
0.811765 0.396078 0.349020
0.847059 0.407843 0.364706
0.156863 0.270588 0.156863
0.164706 0.274510 0.156863
0.176471 0.274510 0.156863
0.192157 0.274510 0.160784
0.211765 0.278431 0.164706
0.235294 0.278431 0.168627
0.258824 0.282353 0.172549
0.286275 0.286275 0.180392
0.317647 0.290196 0.188235
0.349020 0.294118 0.196078
0.376471 0.301961 0.203922
0.411765 0.305882 0.215686
0.443137 0.313725 0.223529
0.474510 0.321569 0.235294
0.509804 0.329412 0.247059
0.541176 0.337255 0.254902
0.576471 0.345098 0.270588
0.611765 0.356863 0.282353
0.643137 0.364706 0.294118
0.678431 0.376471 0.305882
0.713725 0.384314 0.321569
0.745098 0.396078 0.333333
0.780392 0.407843 0.345098
0.811765 0.419608 0.360784
0.850980 0.431373 0.372549
0.180392 0.313725 0.180392
0.188235 0.313725 0.184314
0.200000 0.313725 0.184314
0.211765 0.317647 0.184314
0.231373 0.317647 0.188235
0.250980 0.317647 0.192157
0.274510 0.321569 0.196078
0.301961 0.325490 0.203922
0.329412 0.329412 0.207843
0.360784 0.333333 0.215686
0.388235 0.337255 0.223529
0.419608 0.345098 0.231373
0.450980 0.349020 0.243137
0.482353 0.356863 0.250980
0.517647 0.364706 0.262745
0.545098 0.368627 0.270588
0.580392 0.376471 0.282353
0.615686 0.388235 0.294118
0.647059 0.396078 0.305882
0.682353 0.403922 0.321569
0.717647 0.415686 0.333333
0.749020 0.423529 0.345098
0.784314 0.435294 0.356863
0.815686 0.443137 0.368627
0.854902 0.454902 0.384314
0.207843 0.352941 0.207843
0.215686 0.352941 0.207843
0.223529 0.356863 0.211765
0.235294 0.356863 0.211765
0.250980 0.356863 0.215686
0.270588 0.360784 0.219608
0.294118 0.360784 0.223529
0.317647 0.364706 0.227451
0.345098 0.368627 0.231373
0.372549 0.372549 0.239216
0.400000 0.376471 0.247059
0.431373 0.380392 0.254902
0.462745 0.384314 0.262745
0.490196 0.392157 0.270588
0.525490 0.396078 0.282353
0.552941 0.403922 0.290196
0.588235 0.411765 0.301961
0.623529 0.419608 0.309804
0.654902 0.427451 0.321569
0.690196 0.435294 0.333333
0.721569 0.443137 0.345098
0.756863 0.450980 0.356863
0.788235 0.462745 0.368627
0.823529 0.470588 0.384314
0.858824 0.482353 0.396078
0.231373 0.392157 0.231373
0.239216 0.392157 0.231373
0.243137 0.392157 0.235294
0.254902 0.392157 0.235294
0.270588 0.396078 0.239216
0.290196 0.396078 0.239216
0.309804 0.400000 0.243137
0.329412 0.400000 0.247059
0.356863 0.403922 0.254902
0.384314 0.407843 0.258824
0.411765 0.411765 0.266667
0.439216 0.415686 0.274510
0.470588 0.419608 0.282353
0.501961 0.423529 0.290196
0.533333 0.431373 0.298039
0.560784 0.435294 0.305882
0.596078 0.443137 0.317647
0.627451 0.450980 0.325490
0.658824 0.454902 0.337255
0.694118 0.462745 0.349020
0.729412 0.474510 0.360784
0.760784 0.482353 0.372549
0.796078 0.490196 0.384314
0.827451 0.498039 0.396078
0.862745 0.505882 0.407843
0.258824 0.431373 0.258824
0.262745 0.431373 0.258824
0.270588 0.431373 0.258824
0.278431 0.435294 0.262745
0.294118 0.435294 0.262745
0.309804 0.435294 0.266667
0.329412 0.439216 0.270588
0.349020 0.439216 0.274510
0.372549 0.443137 0.278431
0.400000 0.447059 0.282353
0.423529 0.450980 0.290196
0.454902 0.454902 0.294118
0.482353 0.458824 0.301961
0.509804 0.462745 0.309804
0.541176 0.466667 0.317647
0.572549 0.470588 0.325490
0.603922 0.478431 0.337255
0.639216 0.486275 0.345098
0.666667 0.490196 0.352941
0.701961 0.498039 0.364706
0.737255 0.505882 0.376471
0.764706 0.513725 0.388235
0.800000 0.521569 0.400000
0.831373 0.529412 0.407843
0.866667 0.537255 0.419608
0.282353 0.474510 0.282353
0.290196 0.474510 0.286275
0.294118 0.474510 0.286275
0.305882 0.474510 0.286275
0.317647 0.474510 0.290196
0.329412 0.478431 0.290196
0.349020 0.478431 0.294118
0.368627 0.482353 0.298039
0.392157 0.482353 0.301961
0.415686 0.486275 0.305882
0.439216 0.490196 0.313725
0.466667 0.490196 0.317647
0.494118 0.494118 0.325490
0.521569 0.498039 0.329412
0.552941 0.505882 0.337255
0.580392 0.509804 0.345098
0.615686 0.513725 0.356863
0.647059 0.521569 0.364706
0.674510 0.525490 0.372549
0.709804 0.533333 0.384314
0.741176 0.541176 0.392157
0.772549 0.545098 0.403922
0.807843 0.552941 0.415686
0.839216 0.560784 0.423529
0.874510 0.568627 0.435294
0.309804 0.509804 0.309804
0.313725 0.509804 0.309804
0.317647 0.509804 0.309804
0.325490 0.509804 0.309804
0.337255 0.513725 0.313725
0.352941 0.513725 0.313725
0.368627 0.513725 0.317647
0.384314 0.517647 0.321569
0.407843 0.517647 0.325490
0.431373 0.521569 0.329412
0.454902 0.525490 0.333333
0.482353 0.529412 0.337255
0.509804 0.529412 0.345098
0.533333 0.533333 0.352941
0.564706 0.537255 0.356863
0.592157 0.545098 0.364706
0.623529 0.549020 0.372549
0.654902 0.552941 0.384314
0.686275 0.560784 0.392157
0.717647 0.564706 0.400000
0.749020 0.572549 0.411765
0.780392 0.576471 0.419608
0.815686 0.584314 0.431373
0.847059 0.592157 0.439216
0.878431 0.600000 0.450980
0.333333 0.552941 0.333333
0.337255 0.552941 0.333333
0.341176 0.552941 0.337255
0.349020 0.552941 0.337255
0.360784 0.552941 0.337255
0.372549 0.552941 0.341176
0.388235 0.556863 0.341176
0.407843 0.556863 0.345098
0.427451 0.560784 0.349020
0.447059 0.560784 0.352941
0.470588 0.564706 0.356863
0.498039 0.568627 0.360784
0.521569 0.568627 0.368627
0.549020 0.572549 0.372549
0.576471 0.576471 0.380392
0.603922 0.580392 0.388235
0.635294 0.584314 0.396078
0.666667 0.592157 0.403922
0.694118 0.596078 0.411765
0.725490 0.600000 0.419608
0.760784 0.607843 0.427451
0.788235 0.611765 0.439216
0.823529 0.619608 0.447059
0.854902 0.627451 0.458824
0.886275 0.631373 0.466667
0.356863 0.588235 0.356863
0.360784 0.588235 0.356863
0.364706 0.588235 0.360784
0.372549 0.588235 0.360784
0.384314 0.592157 0.360784
0.396078 0.592157 0.364706
0.407843 0.592157 0.364706
0.423529 0.592157 0.368627
0.443137 0.596078 0.372549
0.466667 0.596078 0.376471
0.486275 0.600000 0.380392
0.509804 0.603922 0.384314
0.537255 0.603922 0.388235
0.560784 0.607843 0.396078
0.588235 0.611765 0.400000
0.615686 0.615686 0.407843
0.647059 0.619608 0.415686
0.674510 0.623529 0.423529
0.705882 0.631373 0.431373
0.737255 0.635294 0.439216
0.768627 0.639216 0.447059
0.796078 0.647059 0.454902
0.831373 0.650980 0.466667
0.858824 0.658824 0.474510
0.894118 0.666667 0.482353
0.384314 0.627451 0.384314
0.388235 0.631373 0.384314
0.392157 0.631373 0.384314
0.400000 0.631373 0.388235
0.407843 0.631373 0.388235
0.419608 0.631373 0.388235
0.431373 0.631373 0.392157
0.447059 0.635294 0.392157
0.466667 0.635294 0.396078
0.486275 0.639216 0.400000
0.505882 0.639216 0.403922
0.529412 0.643137 0.407843
0.552941 0.647059 0.411765
0.576471 0.647059 0.419608
0.603922 0.650980 0.423529
0.631373 0.654902 0.431373
0.658824 0.658824 0.435294
0.690196 0.662745 0.443137
0.717647 0.666667 0.450980
0.749020 0.670588 0.458824
0.780392 0.678431 0.466667
0.807843 0.682353 0.474510
0.839216 0.686275 0.482353
0.870588 0.694118 0.494118
0.901961 0.701961 0.501961
0.411765 0.670588 0.411765
0.415686 0.670588 0.411765
0.415686 0.670588 0.411765
0.423529 0.670588 0.411765
0.431373 0.670588 0.415686
0.443137 0.674510 0.415686
0.454902 0.674510 0.415686
0.470588 0.674510 0.419608
0.486275 0.674510 0.423529
0.505882 0.678431 0.427451
0.525490 0.678431 0.427451
0.545098 0.682353 0.431373
0.568627 0.686275 0.439216
0.592157 0.686275 0.443137
0.619608 0.690196 0.447059
0.643137 0.694118 0.454902
0.674510 0.698039 0.458824
0.701961 0.701961 0.466667
0.729412 0.705882 0.474510
0.756863 0.709804 0.478431
0.788235 0.713725 0.486275
0.819608 0.717647 0.494118
0.850980 0.725490 0.505882
0.878431 0.729412 0.513725
0.909804 0.737255 0.521569
0.435294 0.705882 0.435294
0.439216 0.705882 0.435294
0.439216 0.705882 0.435294
0.447059 0.709804 0.435294
0.454902 0.709804 0.439216
0.462745 0.709804 0.439216
0.474510 0.709804 0.439216
0.490196 0.709804 0.443137
0.505882 0.713725 0.447059
0.525490 0.713725 0.447059
0.541176 0.717647 0.450980
0.564706 0.717647 0.454902
0.588235 0.721569 0.458824
0.607843 0.725490 0.462745
0.635294 0.725490 0.470588
0.658824 0.729412 0.474510
0.686275 0.733333 0.478431
0.713725 0.737255 0.486275
0.741176 0.741176 0.494118
0.768627 0.745098 0.501961
0.800000 0.749020 0.505882
0.827451 0.752941 0.513725
0.858824 0.756863 0.521569
0.890196 0.764706 0.529412
0.921569 0.768627 0.541176
0.462745 0.749020 0.462745
0.462745 0.749020 0.462745
0.466667 0.749020 0.462745
0.470588 0.749020 0.462745
0.478431 0.749020 0.462745
0.490196 0.749020 0.466667
0.498039 0.752941 0.466667
0.513725 0.752941 0.466667
0.529412 0.752941 0.470588
0.545098 0.756863 0.474510
0.560784 0.756863 0.478431
0.584314 0.760784 0.478431
0.603922 0.760784 0.486275
0.627451 0.764706 0.490196
0.650980 0.764706 0.494118
0.674510 0.768627 0.498039
0.701961 0.772549 0.501961
0.729412 0.776471 0.509804
0.752941 0.780392 0.513725
0.784314 0.784314 0.521569
0.811765 0.788235 0.529412
0.839216 0.792157 0.537255
0.870588 0.796078 0.545098
0.898039 0.800000 0.552941
0.929412 0.807843 0.560784
0.486275 0.788235 0.486275
0.490196 0.788235 0.486275
0.494118 0.788235 0.486275
0.498039 0.788235 0.490196
0.505882 0.792157 0.490196
0.513725 0.792157 0.490196
0.525490 0.792157 0.494118
0.533333 0.792157 0.494118
0.549020 0.796078 0.498039
0.564706 0.796078 0.498039
0.584314 0.796078 0.501961
0.603922 0.800000 0.505882
0.623529 0.800000 0.509804
0.643137 0.803922 0.513725
0.666667 0.807843 0.517647
0.690196 0.807843 0.521569
0.717647 0.811765 0.525490
0.745098 0.815686 0.533333
0.768627 0.819608 0.537255
0.796078 0.823529 0.545098
0.827451 0.827451 0.552941
0.850980 0.831373 0.556863
0.882353 0.835294 0.564706
0.909804 0.839216 0.572549
0.941176 0.843137 0.580392
0.509804 0.827451 0.509804
0.513725 0.827451 0.509804
0.517647 0.827451 0.509804
0.521569 0.827451 0.513725
0.529412 0.827451 0.513725
0.533333 0.827451 0.513725
0.545098 0.827451 0.517647
0.556863 0.831373 0.517647
0.568627 0.831373 0.521569
0.584314 0.831373 0.521569
0.603922 0.835294 0.525490
0.619608 0.835294 0.529412
0.643137 0.839216 0.533333
0.662745 0.839216 0.537255
0.682353 0.843137 0.541176
0.705882 0.843137 0.545098
0.729412 0.847059 0.549020
0.756863 0.850980 0.552941
0.780392 0.854902 0.560784
0.807843 0.858824 0.564706
0.839216 0.862745 0.572549
0.862745 0.862745 0.576471
0.894118 0.870588 0.584314
0.921569 0.874510 0.592157
0.952941 0.878431 0.600000
0.537255 0.866667 0.537255
0.541176 0.866667 0.537255
0.541176 0.866667 0.537255
0.545098 0.866667 0.537255
0.552941 0.866667 0.541176
0.560784 0.870588 0.541176
0.568627 0.870588 0.541176
0.580392 0.870588 0.545098
0.592157 0.870588 0.545098
0.607843 0.874510 0.549020
0.623529 0.874510 0.549020
0.643137 0.874510 0.552941
0.662745 0.878431 0.556863
0.678431 0.878431 0.560784
0.701961 0.882353 0.564706
0.725490 0.882353 0.568627
0.749020 0.886275 0.572549
0.772549 0.890196 0.576471
0.796078 0.894118 0.584314
0.823529 0.898039 0.588235
0.850980 0.898039 0.596078
0.878431 0.901961 0.600000
0.905882 0.905882 0.607843
0.933333 0.909804 0.615686
0.964706 0.913725 0.623529
0.560784 0.905882 0.560784
0.564706 0.905882 0.560784
0.564706 0.905882 0.560784
0.568627 0.905882 0.560784
0.576471 0.905882 0.564706
0.584314 0.905882 0.564706
0.592157 0.905882 0.564706
0.603922 0.905882 0.568627
0.615686 0.909804 0.568627
0.627451 0.909804 0.572549
0.643137 0.909804 0.572549
0.662745 0.913725 0.576471
0.678431 0.913725 0.580392
0.698039 0.917647 0.584314
0.721569 0.917647 0.588235
0.741176 0.921569 0.592157
0.764706 0.921569 0.596078
0.788235 0.925490 0.600000
0.811765 0.929412 0.603922
0.839216 0.933333 0.611765
0.866667 0.933333 0.615686
0.890196 0.937255 0.623529
0.917647 0.941176 0.627451
0.945098 0.945098 0.635294
0.976471 0.949020 0.643137
0.588235 0.945098 0.588235
0.588235 0.945098 0.588235
0.592157 0.945098 0.588235
0.596078 0.945098 0.588235
0.600000 0.945098 0.588235
0.607843 0.945098 0.592157
0.615686 0.949020 0.592157
0.627451 0.949020 0.592157
0.639216 0.949020 0.596078
0.650980 0.949020 0.596078
0.666667 0.952941 0.600000
0.682353 0.952941 0.600000
0.701961 0.952941 0.603922
0.717647 0.956863 0.607843
0.737255 0.956863 0.611765
0.756863 0.960784 0.615686
0.780392 0.964706 0.619608
0.803922 0.964706 0.623529
0.827451 0.968627 0.627451
0.854902 0.972549 0.635294
0.882353 0.972549 0.639216
0.905882 0.976471 0.643137
0.933333 0.980392 0.650980
0.960784 0.984314 0.658824
0.988235 0.988235 0.662745
0.000000 0.000000 0.027451
0.031373 0.003922 0.031373
0.062745 0.011765 0.035294
0.098039 0.019608 0.043137
0.133333 0.031373 0.054902
0.168627 0.043137 0.062745
0.203922 0.058824 0.078431
0.239216 0.074510 0.090196
0.274510 0.090196 0.101961
0.309804 0.105882 0.117647
0.345098 0.121569 0.133333
0.380392 0.137255 0.145098
0.415686 0.152941 0.160784
0.450980 0.168627 0.176471
0.486275 0.184314 0.192157
0.517647 0.200000 0.203922
0.556863 0.215686 0.219608
0.592157 0.231373 0.235294
0.627451 0.247059 0.250980
0.662745 0.262745 0.266667
0.698039 0.278431 0.282353
0.733333 0.294118 0.298039
0.768627 0.309804 0.313725
0.800000 0.321569 0.325490
0.839216 0.341176 0.341176
0.015686 0.039216 0.039216
0.043137 0.043137 0.043137
0.070588 0.047059 0.047059
0.105882 0.054902 0.054902
0.141176 0.062745 0.062745
0.172549 0.074510 0.074510
0.207843 0.086275 0.086275
0.239216 0.098039 0.098039
0.274510 0.109804 0.109804
0.313725 0.121569 0.121569
0.345098 0.137255 0.137255
0.380392 0.149020 0.149020
0.419608 0.164706 0.164706
0.450980 0.180392 0.180392
0.486275 0.196078 0.196078
0.521569 0.207843 0.207843
0.556863 0.223529 0.223529
0.592157 0.239216 0.239216
0.627451 0.254902 0.254902
0.662745 0.270588 0.270588
0.698039 0.286275 0.286275
0.733333 0.298039 0.298039
0.768627 0.313725 0.313725
0.803922 0.329412 0.329412
0.839216 0.345098 0.345098
0.031373 0.074510 0.054902
0.058824 0.078431 0.058824
0.082353 0.082353 0.062745
0.113725 0.086275 0.066667
0.145098 0.094118 0.074510
0.176471 0.101961 0.082353
0.211765 0.109804 0.094118
0.243137 0.117647 0.105882
0.278431 0.129412 0.117647
0.313725 0.141176 0.129412
0.349020 0.152941 0.141176
0.384314 0.164706 0.156863
0.419608 0.180392 0.168627
0.450980 0.192157 0.184314
0.490196 0.207843 0.200000
0.521569 0.219608 0.211765
0.556863 0.235294 0.227451
0.596078 0.247059 0.243137
0.627451 0.262745 0.254902
0.662745 0.278431 0.270588
0.701961 0.294118 0.286275
0.733333 0.305882 0.301961
0.768627 0.321569 0.317647
0.803922 0.337255 0.329412
0.839216 0.349020 0.345098
0.054902 0.117647 0.074510
0.074510 0.117647 0.074510
0.098039 0.121569 0.078431
0.125490 0.125490 0.086275
0.152941 0.129412 0.090196
0.184314 0.133333 0.098039
0.215686 0.141176 0.105882
0.247059 0.149020 0.117647
0.282353 0.156863 0.129412
0.317647 0.168627 0.141176
0.352941 0.176471 0.152941
0.388235 0.188235 0.164706
0.423529 0.200000 0.176471
0.454902 0.211765 0.192157
0.490196 0.223529 0.203922
0.525490 0.235294 0.219608
0.560784 0.250980 0.231373
0.596078 0.262745 0.247059
0.627451 0.274510 0.262745
0.666667 0.290196 0.274510
0.701961 0.305882 0.290196
0.733333 0.317647 0.305882
0.772549 0.333333 0.321569
0.803922 0.345098 0.333333
0.839216 0.360784 0.349020
0.082353 0.156863 0.094118
0.098039 0.156863 0.098039
0.113725 0.160784 0.101961
0.137255 0.164706 0.105882
0.164706 0.164706 0.109804
0.192157 0.172549 0.117647
0.227451 0.176471 0.125490
0.254902 0.180392 0.133333
0.290196 0.188235 0.141176
0.325490 0.196078 0.152941
0.356863 0.203922 0.164706
0.392157 0.215686 0.176471
0.427451 0.227451 0.188235
0.458824 0.235294 0.200000
0.494118 0.247059 0.215686
0.525490 0.258824 0.227451
0.564706 0.270588 0.239216
0.600000 0.282353 0.254902
0.631373 0.294118 0.266667
0.666667 0.305882 0.282353
0.701961 0.321569 0.298039
0.737255 0.333333 0.309804
0.772549 0.349020 0.325490
0.807843 0.360784 0.341176
0.843137 0.372549 0.356863
0.105882 0.196078 0.117647
0.117647 0.196078 0.117647
0.133333 0.196078 0.121569
0.152941 0.200000 0.125490
0.180392 0.200000 0.129412
0.203922 0.203922 0.133333
0.235294 0.211765 0.141176
0.262745 0.215686 0.149020
0.298039 0.219608 0.156863
0.329412 0.227451 0.168627
0.360784 0.235294 0.176471
0.396078 0.243137 0.188235
0.431373 0.250980 0.200000
0.462745 0.262745 0.211765
0.498039 0.270588 0.223529
0.529412 0.282353 0.235294
0.564706 0.290196 0.250980
0.600000 0.301961 0.262745
0.635294 0.313725 0.274510
0.670588 0.325490 0.290196
0.705882 0.337255 0.305882
0.737255 0.349020 0.317647
0.776471 0.364706 0.333333
0.807843 0.376471 0.345098
0.843137 0.388235 0.360784
0.133333 0.235294 0.141176
0.141176 0.235294 0.141176
0.152941 0.235294 0.145098
0.172549 0.239216 0.149020
0.196078 0.243137 0.152941
0.219608 0.243137 0.156863
0.247059 0.247059 0.160784
0.274510 0.250980 0.168627
0.305882 0.258824 0.176471
0.337255 0.262745 0.184314
0.368627 0.270588 0.192157
0.403922 0.274510 0.203922
0.435294 0.282353 0.215686
0.466667 0.290196 0.223529
0.501961 0.301961 0.239216
0.533333 0.309804 0.247059
0.568627 0.317647 0.262745
0.603922 0.329412 0.274510
0.639216 0.341176 0.286275
0.674510 0.349020 0.301961
0.709804 0.360784 0.313725
0.741176 0.372549 0.325490
0.776471 0.384314 0.341176
0.811765 0.396078 0.352941
0.847059 0.407843 0.368627
0.156863 0.270588 0.164706
0.164706 0.274510 0.164706
0.176471 0.274510 0.164706
0.192157 0.274510 0.168627
0.211765 0.278431 0.172549
0.235294 0.278431 0.176471
0.258824 0.282353 0.180392
0.286275 0.286275 0.188235
0.317647 0.290196 0.196078
0.349020 0.298039 0.203922
0.376471 0.301961 0.211765
0.411765 0.305882 0.219608
0.443137 0.313725 0.231373
0.474510 0.321569 0.239216
0.509804 0.329412 0.250980
0.541176 0.337255 0.262745
0.576471 0.345098 0.274510
0.611765 0.356863 0.286275
0.643137 0.364706 0.298039
0.678431 0.376471 0.309804
0.713725 0.384314 0.325490
0.745098 0.396078 0.337255
0.780392 0.407843 0.349020
0.811765 0.419608 0.360784
0.850980 0.431373 0.376471
0.180392 0.313725 0.188235
0.188235 0.313725 0.188235
0.200000 0.313725 0.192157
0.211765 0.317647 0.192157
0.231373 0.317647 0.196078
0.250980 0.321569 0.200000
0.274510 0.321569 0.203922
0.301961 0.325490 0.207843
0.329412 0.329412 0.215686
0.360784 0.333333 0.223529
0.388235 0.337255 0.231373
0.419608 0.345098 0.239216
0.450980 0.349020 0.247059
0.482353 0.356863 0.254902
0.517647 0.364706 0.266667
0.545098 0.368627 0.278431
0.580392 0.376471 0.290196
0.615686 0.388235 0.298039
0.647059 0.396078 0.309804
0.682353 0.403922 0.321569
0.717647 0.415686 0.337255
0.749020 0.423529 0.349020
0.784314 0.435294 0.360784
0.815686 0.443137 0.372549
0.854902 0.454902 0.388235
0.207843 0.352941 0.215686
0.215686 0.352941 0.215686
0.223529 0.356863 0.215686
0.235294 0.356863 0.219608
0.250980 0.356863 0.219608
0.270588 0.360784 0.223529
0.294118 0.360784 0.227451
0.317647 0.364706 0.231373
0.345098 0.368627 0.239216
0.372549 0.372549 0.243137
0.400000 0.376471 0.250980
0.431373 0.380392 0.258824
0.462745 0.384314 0.266667
0.490196 0.392157 0.274510
0.525490 0.396078 0.286275
0.552941 0.403922 0.294118
0.588235 0.411765 0.305882
0.623529 0.419608 0.313725
0.654902 0.427451 0.325490
0.690196 0.435294 0.337255
0.721569 0.443137 0.349020
0.756863 0.450980 0.360784
0.788235 0.462745 0.372549
0.823529 0.470588 0.384314
0.858824 0.482353 0.400000
0.231373 0.392157 0.235294
0.239216 0.392157 0.239216
0.243137 0.392157 0.239216
0.254902 0.392157 0.239216
0.270588 0.396078 0.243137
0.290196 0.396078 0.247059
0.309804 0.400000 0.250980
0.333333 0.400000 0.254902
0.356863 0.403922 0.258824
