LUTs/Damaging/LUT_SATURATION/desaturated.cube
#Generated by lutCreator.js
#Coded by SirSerch
#https://github.com/SirSerch/LutCreatorJs
TITLE lutCreatorJs_25
LUT_3D_SIZE 9
0.000000 0.000000 0.000000
0.098039 0.015686 0.015686
0.203922 0.058824 0.058824
0.309804 0.105882 0.105882
0.415686 0.152941 0.152941
0.517647 0.200000 0.200000
0.627451 0.247059 0.247059
0.733333 0.294118 0.294118
0.839216 0.341176 0.341176
0.054902 0.117647 0.054902
0.121569 0.121569 0.066667
0.215686 0.141176 0.094118
0.317647 0.168627 0.129412
0.423529 0.200000 0.172549
0.525490 0.235294 0.211765
0.627451 0.274510 0.254902
0.733333 0.317647 0.301961
0.839216 0.360784 0.345098
0.129412 0.235294 0.129412
0.172549 0.239216 0.137255
0.247059 0.247059 0.152941
0.337255 0.262745 0.176471
0.435294 0.282353 0.207843
0.533333 0.309804 0.243137
0.639216 0.341176 0.282353
0.741176 0.372549 0.321569
0.847059 0.407843 0.364706
0.207843 0.352941 0.207843
0.235294 0.356863 0.211765
0.294118 0.360784 0.223529
0.372549 0.372549 0.239216
0.462745 0.384314 0.262745
0.552941 0.403922 0.290196
0.654902 0.427451 0.321569
0.756863 0.450980 0.356863
0.858824 0.482353 0.396078
0.282353 0.474510 0.282353
0.305882 0.474510 0.286275
0.349020 0.478431 0.294118
0.415686 0.486275 0.305882
0.494118 0.494118 0.325490
0.580392 0.509804 0.345098
0.674510 0.525490 0.372549
0.772549 0.545098 0.403922
0.874510 0.568627 0.435294
0.356863 0.588235 0.356863
0.372549 0.588235 0.360784
0.407843 0.592157 0.364706
0.466667 0.596078 0.376471
0.537255 0.603922 0.388235
0.615686 0.615686 0.407843
0.705882 0.631373 0.431373
0.796078 0.647059 0.454902
0.894118 0.666667 0.482353
0.435294 0.705882 0.435294
0.447059 0.709804 0.435294
0.474510 0.709804 0.439216
0.525490 0.713725 0.447059
0.588235 0.721569 0.458824
0.658824 0.729412 0.474510
0.741176 0.741176 0.494118
0.827451 0.752941 0.513725
0.921569 0.768627 0.541176
0.509804 0.827451 0.509804
0.521569 0.827451 0.513725
0.545098 0.827451 0.517647
0.584314 0.831373 0.521569
0.643137 0.839216 0.533333
0.705882 0.843137 0.545098
0.780392 0.854902 0.560784
0.862745 0.862745 0.576471
0.952941 0.878431 0.600000
0.588235 0.945098 0.588235
0.596078 0.945098 0.588235
0.615686 0.949020 0.592157
0.650980 0.949020 0.596078
0.701961 0.952941 0.603922
0.756863 0.960784 0.615686
0.827451 0.968627 0.627451
0.905882 0.976471 0.643137
0.988235 0.988235 0.662745
0.003922 0.003922 0.090196
0.101961 0.023529 0.101961
0.203922 0.062745 0.121569
0.309804 0.109804 0.149020
0.415686 0.152941 0.188235
0.521569 0.200000 0.223529
0.627451 0.247059 0.266667
0.733333 0.294118 0.309804
0.839216 0.341176 0.352941
0.058824 0.117647 0.117647
0.125490 0.125490 0.125490
0.219608 0.141176 0.141176
0.317647 0.168627 0.168627
0.423529 0.200000 0.200000
0.525490 0.235294 0.235294
0.631373 0.278431 0.278431
0.733333 0.317647 0.317647
0.839216 0.360784 0.360784
0.133333 0.235294 0.168627
0.172549 0.239216 0.172549
0.247059 0.247059 0.188235
0.341176 0.262745 0.207843
0.439216 0.286275 0.235294
0.537255 0.309804 0.266667
0.639216 0.341176 0.301961
0.741176 0.372549 0.337255
0.847059 0.407843 0.380392
0.207843 0.352941 0.231373
0.235294 0.356863 0.235294
0.294118 0.360784 0.247059
0.372549 0.372549 0.258824
0.462745 0.388235 0.282353
0.552941 0.403922 0.305882
0.654902 0.427451 0.337255
0.756863 0.450980 0.372549
0.858824 0.482353 0.407843
0.286275 0.474510 0.301961
0.305882 0.474510 0.305882
0.349020 0.478431 0.309804
0.415686 0.486275 0.321569
0.498039 0.498039 0.341176
0.584314 0.509804 0.360784
0.678431 0.525490 0.388235
0.772549 0.545098 0.415686
0.874510 0.568627 0.447059
0.356863 0.588235 0.372549
0.372549 0.588235 0.372549
0.411765 0.592157 0.380392
0.466667 0.600000 0.388235
0.537255 0.607843 0.403922
0.615686 0.615686 0.419608
0.705882 0.631373 0.439216
0.796078 0.647059 0.466667
0.894118 0.666667 0.494118
0.435294 0.705882 0.447059
0.447059 0.709804 0.447059
0.478431 0.709804 0.450980
0.525490 0.713725 0.458824
0.588235 0.721569 0.470588
0.658824 0.729412 0.482353
0.741176 0.741176 0.501961
0.827451 0.752941 0.525490
0.921569 0.768627 0.549020
0.509804 0.827451 0.521569
0.521569 0.827451 0.521569
0.545098 0.827451 0.525490
0.588235 0.831373 0.529412
0.643137 0.839216 0.541176
0.705882 0.843137 0.552941
0.780392 0.854902 0.568627
0.862745 0.862745 0.584314
0.952941 0.878431 0.607843
0.588235 0.945098 0.596078
0.596078 0.945098 0.596078
0.615686 0.949020 0.600000
0.650980 0.949020 0.603922
0.701961 0.956863 0.611765
0.760784 0.960784 0.623529
0.827451 0.968627 0.635294
0.905882 0.976471 0.650980
0.988235 0.988235 0.670588
0.015686 0.015686 0.192157
0.105882 0.035294 0.196078
0.207843 0.070588 0.207843
0.313725 0.113725 0.227451
0.419608 0.156863 0.250980
0.521569 0.203922 0.278431
0.627451 0.247059 0.313725
0.733333 0.294118 0.349020
0.839216 0.341176 0.388235
0.066667 0.121569 0.207843
0.129412 0.129412 0.211765
0.219608 0.145098 0.219608
0.321569 0.172549 0.239216
0.423529 0.203922 0.262745
0.525490 0.239216 0.290196
0.631373 0.278431 0.321569
0.737255 0.321569 0.356863
0.843137 0.364706 0.396078
0.137255 0.239216 0.239216
0.176471 0.243137 0.243137
0.250980 0.250980 0.250980
0.341176 0.266667 0.266667
0.439216 0.286275 0.286275
0.537255 0.309804 0.309804
0.639216 0.341176 0.341176
0.741176 0.376471 0.376471
0.847059 0.411765 0.411765
0.211765 0.356863 0.286275
0.239216 0.356863 0.290196
0.294118 0.364706 0.294118
0.372549 0.372549 0.309804
0.462745 0.388235 0.325490
0.556863 0.403922 0.349020
0.654902 0.427451 0.372549
0.756863 0.454902 0.403922
0.858824 0.482353 0.439216
0.286275 0.474510 0.345098
0.305882 0.474510 0.345098
0.352941 0.478431 0.352941
0.415686 0.486275 0.360784
0.498039 0.498039 0.376471
0.584314 0.509804 0.396078
0.678431 0.529412 0.419608
0.776471 0.549020 0.443137
0.874510 0.572549 0.474510
0.360784 0.588235 0.403922
0.376471 0.592157 0.407843
0.411765 0.592157 0.411765
0.466667 0.600000 0.419608
0.537255 0.607843 0.431373
0.615686 0.615686 0.447059
0.705882 0.631373 0.466667
0.800000 0.647059 0.490196
0.894118 0.666667 0.517647
0.435294 0.709804 0.470588
0.447059 0.709804 0.474510
0.478431 0.709804 0.478431
0.525490 0.717647 0.486275
0.588235 0.721569 0.494118
0.658824 0.729412 0.509804
0.741176 0.741176 0.525490
0.827451 0.752941 0.545098
0.921569 0.768627 0.568627
0.513725 0.827451 0.541176
0.521569 0.827451 0.545098
0.545098 0.831373 0.545098
0.588235 0.831373 0.552941
0.643137 0.839216 0.560784
0.705882 0.847059 0.572549
0.784314 0.854902 0.588235
0.866667 0.866667 0.603922
0.952941 0.878431 0.627451
0.588235 0.945098 0.615686
0.596078 0.945098 0.615686
0.619608 0.949020 0.619608
0.650980 0.952941 0.623529
0.701961 0.956863 0.631373
0.760784 0.960784 0.639216
0.827451 0.968627 0.654902
0.905882 0.976471 0.666667
0.988235 0.988235 0.686275
0.039216 0.039216 0.294118
0.117647 0.054902 0.298039
0.211765 0.086275 0.305882
0.317647 0.121569 0.317647
0.419608 0.164706 0.333333
0.521569 0.207843 0.352941
0.627451 0.254902 0.380392
0.733333 0.298039 0.411765
0.839216 0.345098 0.443137
0.082353 0.133333 0.301961
0.137255 0.137255 0.305882
0.227451 0.152941 0.313725
0.325490 0.176471 0.325490
0.427451 0.207843 0.341176
0.525490 0.243137 0.360784
0.631373 0.282353 0.388235
0.737255 0.321569 0.415686
0.843137 0.364706 0.447059
0.145098 0.243137 0.325490
0.184314 0.247059 0.325490
0.254902 0.254902 0.333333
0.345098 0.270588 0.345098
0.439216 0.290196 0.360784
0.537255 0.313725 0.380392
0.639216 0.345098 0.403922
0.745098 0.376471 0.431373
0.847059 0.411765 0.462745
0.215686 0.360784 0.360784
0.243137 0.360784 0.360784
0.298039 0.368627 0.368627
0.376471 0.376471 0.376471
0.466667 0.392157 0.392157
0.556863 0.407843 0.407843
0.654902 0.431373 0.431373
0.756863 0.454902 0.454902
0.858824 0.486275 0.486275
0.290196 0.478431 0.403922
0.309804 0.478431 0.407843
0.352941 0.482353 0.411765
0.419608 0.490196 0.419608
0.498039 0.498039 0.431373
0.584314 0.513725 0.447059
0.678431 0.529412 0.466667
0.776471 0.549020 0.490196
0.874510 0.572549 0.517647
0.364706 0.592157 0.454902
0.376471 0.592157 0.458824
0.415686 0.596078 0.462745
0.470588 0.600000 0.470588
0.541176 0.607843 0.478431
0.619608 0.619608 0.494118
0.705882 0.631373 0.509804
0.800000 0.647059 0.533333
0.894118 0.666667 0.556863
0.439216 0.709804 0.513725
0.450980 0.709804 0.517647
0.478431 0.713725 0.521569
0.525490 0.717647 0.525490
0.588235 0.721569 0.537255
0.658824 0.733333 0.549020
0.741176 0.741176 0.564706
0.831373 0.756863 0.584314
0.921569 0.772549 0.603922
0.513725 0.827451 0.580392
0.525490 0.827451 0.580392
0.549020 0.831373 0.584314
0.588235 0.835294 0.588235
0.643137 0.839216 0.596078
0.709804 0.847059 0.607843
0.784314 0.854902 0.619608
0.866667 0.866667 0.639216
0.952941 0.878431 0.658824
0.588235 0.945098 0.647059
0.600000 0.949020 0.647059
0.619608 0.949020 0.650980
0.654902 0.952941 0.654902
0.701961 0.956863 0.662745
0.760784 0.960784 0.670588
0.831373 0.968627 0.682353
0.905882 0.980392 0.698039
0.988235 0.988235 0.713725
0.066667 0.066667 0.396078
0.129412 0.078431 0.396078
0.219608 0.101961 0.403922
0.321569 0.137255 0.411765
0.423529 0.176471 0.423529
0.525490 0.215686 0.439216
0.631373 0.258824 0.458824
0.737255 0.301961 0.482353
0.839216 0.349020 0.509804
0.098039 0.145098 0.403922
0.149020 0.149020 0.403922
0.231373 0.164706 0.407843
0.329412 0.188235 0.415686
0.431373 0.215686 0.431373
0.529412 0.250980 0.447059
0.635294 0.286275 0.466667
0.737255 0.329412 0.490196
0.843137 0.368627 0.513725
0.156863 0.250980 0.415686
0.192157 0.250980 0.419608
0.262745 0.262745 0.423529
0.349020 0.274510 0.431373
0.443137 0.294118 0.443137
0.541176 0.321569 0.458824
0.643137 0.349020 0.478431
0.745098 0.380392 0.501961
0.850980 0.415686 0.525490
0.223529 0.364706 0.443137
0.250980 0.364706 0.447059
0.305882 0.372549 0.450980
0.380392 0.380392 0.458824
0.466667 0.396078 0.466667
0.560784 0.411765 0.482353
0.658824 0.435294 0.501961
0.756863 0.458824 0.521569
0.858824 0.486275 0.545098
0.294118 0.478431 0.478431
0.313725 0.482353 0.482353
0.356863 0.486275 0.486275
0.423529 0.490196 0.490196
0.501961 0.501961 0.501961
0.588235 0.513725 0.513725
0.678431 0.533333 0.533333
0.776471 0.552941 0.552941
0.874510 0.576471 0.576471
0.368627 0.592157 0.521569
0.380392 0.596078 0.525490
0.415686 0.596078 0.525490
0.470588 0.603922 0.533333
0.541176 0.611765 0.541176
0.619608 0.619608 0.552941
0.709804 0.635294 0.568627
0.800000 0.650980 0.588235
0.898039 0.670588 0.607843
0.443137 0.709804 0.572549
0.454902 0.713725 0.576471
0.482353 0.713725 0.576471
0.529412 0.717647 0.584314
0.592157 0.725490 0.592157
0.662745 0.733333 0.603922
0.745098 0.745098 0.615686
0.831373 0.756863 0.631373
0.921569 0.772549 0.650980
0.517647 0.831373 0.631373
0.525490 0.831373 0.631373
0.549020 0.831373 0.635294
0.592157 0.835294 0.639216
0.647059 0.839216 0.647059
0.709804 0.847059 0.654902
0.784314 0.854902 0.666667
0.866667 0.866667 0.682353
0.952941 0.882353 0.701961
0.592157 0.949020 0.690196
0.600000 0.949020 0.690196
0.619608 0.949020 0.694118
0.654902 0.952941 0.698039
0.705882 0.956863 0.705882
0.760784 0.964706 0.713725
0.831373 0.972549 0.725490
0.909804 0.980392 0.737255
0.992157 0.992157 0.752941
0.094118 0.094118 0.494118
0.145098 0.101961 0.494118
0.231373 0.121569 0.498039
0.325490 0.152941 0.505882
0.427451 0.188235 0.517647
0.529412 0.227451 0.529412
0.631373 0.266667 0.545098
0.737255 0.309804 0.564706
0.843137 0.352941 0.588235
0.117647 0.156863 0.498039
0.164706 0.164706 0.501961
0.243137 0.176471 0.505882
0.333333 0.200000 0.509804
0.435294 0.227451 0.521569
0.533333 0.258824 0.533333
0.635294 0.294118 0.549020
0.741176 0.333333 0.568627
0.847059 0.376471 0.592157
0.168627 0.258824 0.509804
0.203922 0.262745 0.513725
0.270588 0.270588 0.517647
0.352941 0.282353 0.521569
0.447059 0.301961 0.533333
0.545098 0.325490 0.545098
0.643137 0.352941 0.560784
0.749020 0.388235 0.576471
0.850980 0.419608 0.600000
0.235294 0.368627 0.529412
0.258824 0.372549 0.533333
0.309804 0.376471 0.537255
0.384314 0.384314 0.541176
0.470588 0.400000 0.552941
0.564706 0.415686 0.564706
0.658824 0.439216 0.576471
0.760784 0.462745 0.596078
0.862745 0.490196 0.615686
0.301961 0.482353 0.560784
0.321569 0.486275 0.560784
0.364706 0.490196 0.564706
0.427451 0.494118 0.568627
0.505882 0.505882 0.580392
0.588235 0.517647 0.588235
0.682353 0.533333 0.603922
0.780392 0.556863 0.619608
0.878431 0.576471 0.639216
0.372549 0.596078 0.596078
0.388235 0.596078 0.596078
0.423529 0.600000 0.600000
0.474510 0.603922 0.603922
0.545098 0.611765 0.611765
0.623529 0.623529 0.623529
0.709804 0.635294 0.635294
0.803922 0.650980 0.650980
0.898039 0.670588 0.670588
0.447059 0.713725 0.639216
0.458824 0.713725 0.639216
0.486275 0.717647 0.643137
0.533333 0.721569 0.647059
0.596078 0.725490 0.654902
0.666667 0.737255 0.666667
0.745098 0.745098 0.678431
0.835294 0.760784 0.690196
0.925490 0.776471 0.709804
0.521569 0.831373 0.690196
0.529412 0.831373 0.690196
0.552941 0.835294 0.694118
0.592157 0.839216 0.698039
0.647059 0.843137 0.701961
0.713725 0.850980 0.713725
0.788235 0.858824 0.721569
0.870588 0.870588 0.737255
0.956863 0.882353 0.752941
0.596078 0.949020 0.745098
0.603922 0.949020 0.745098
0.623529 0.952941 0.745098
0.658824 0.952941 0.749020
0.705882 0.960784 0.756863
0.764706 0.964706 0.764706
0.835294 0.972549 0.776471
0.909804 0.980392 0.788235
0.992157 0.992157 0.800000
0.121569 0.121569 0.596078
0.164706 0.125490 0.596078
0.243137 0.145098 0.600000
0.333333 0.168627 0.603922
0.435294 0.203922 0.611765
0.533333 0.239216 0.623529
0.635294 0.278431 0.635294
0.741176 0.317647 0.650980
0.847059 0.360784 0.670588
0.141176 0.176471 0.600000
0.180392 0.180392 0.600000
0.254902 0.192157 0.603922
0.341176 0.211765 0.607843
0.439216 0.239216 0.615686
0.537255 0.270588 0.627451
0.639216 0.305882 0.639216
0.745098 0.341176 0.654902
0.847059 0.380392 0.674510
0.184314 0.266667 0.607843
0.215686 0.270588 0.611765
0.278431 0.278431 0.611765
0.360784 0.294118 0.619608
0.454902 0.309804 0.627451
0.549020 0.333333 0.635294
0.647059 0.360784 0.647059
0.749020 0.392157 0.662745
0.854902 0.427451 0.682353
0.247059 0.376471 0.623529
0.266667 0.376471 0.627451
0.317647 0.384314 0.627451
0.392157 0.392157 0.635294
0.478431 0.403922 0.643137
0.568627 0.423529 0.650980
0.662745 0.443137 0.662745
0.764706 0.466667 0.678431
0.862745 0.498039 0.698039
0.309804 0.490196 0.650980
0.329412 0.490196 0.650980
0.372549 0.494118 0.654902
0.431373 0.501961 0.658824
0.509804 0.509804 0.666667
0.592157 0.521569 0.674510
0.686275 0.541176 0.686275
0.780392 0.560784 0.701961
0.882353 0.580392 0.717647
0.380392 0.600000 0.678431
0.392157 0.600000 0.678431
0.427451 0.603922 0.682353
0.482353 0.607843 0.686275
0.549020 0.615686 0.694118
0.627451 0.627451 0.701961
0.713725 0.639216 0.713725
0.803922 0.654902 0.729412
0.901961 0.674510 0.745098
0.450980 0.717647 0.717647
0.462745 0.717647 0.717647
0.490196 0.721569 0.721569
0.537255 0.725490 0.725490
0.600000 0.729412 0.729412
0.666667 0.737255 0.737255
0.749020 0.749020 0.749020
0.835294 0.760784 0.760784
0.925490 0.776471 0.776471
0.525490 0.835294 0.760784
0.533333 0.835294 0.760784
0.556863 0.835294 0.764706
0.596078 0.839216 0.764706
0.650980 0.843137 0.772549
0.713725 0.850980 0.780392
0.788235 0.858824 0.788235
0.870588 0.870588 0.803922
0.956863 0.886275 0.815686
0.600000 0.952941 0.807843
0.607843 0.952941 0.807843
0.627451 0.952941 0.811765
0.662745 0.956863 0.815686
0.709804 0.960784 0.819608
0.768627 0.968627 0.827451
0.835294 0.972549 0.835294
0.913725 0.984314 0.847059
0.996078 0.996078 0.858824
0.149020 0.149020 0.698039
0.184314 0.152941 0.698039
0.254902 0.168627 0.701961
0.345098 0.188235 0.705882
0.443137 0.219608 0.709804
0.537255 0.250980 0.721569
0.639216 0.290196 0.729412
0.745098 0.329412 0.745098
0.847059 0.372549 0.760784
0.164706 0.196078 0.701961
0.200000 0.200000 0.701961
0.266667 0.211765 0.701961
0.352941 0.227451 0.709804
0.447059 0.250980 0.713725
0.541176 0.282353 0.721569
0.643137 0.313725 0.733333
0.749020 0.352941 0.749020
0.850980 0.388235 0.764706
0.203922 0.282353 0.709804
0.231373 0.282353 0.709804
0.290196 0.290196 0.709804
0.368627 0.301961 0.713725
0.458824 0.321569 0.721569
0.552941 0.345098 0.729412
0.650980 0.372549 0.741176
0.752941 0.400000 0.752941
0.858824 0.435294 0.768627
0.258824 0.384314 0.721569
0.282353 0.384314 0.721569
0.329412 0.392157 0.725490
0.400000 0.400000 0.729412
0.482353 0.411765 0.737255
0.572549 0.431373 0.745098
0.666667 0.450980 0.752941
0.768627 0.474510 0.768627
0.866667 0.501961 0.780392
0.321569 0.494118 0.741176
0.341176 0.494118 0.741176
0.380392 0.498039 0.745098
0.439216 0.505882 0.749020
0.517647 0.517647 0.752941
0.600000 0.529412 0.760784
0.690196 0.545098 0.772549
0.784314 0.564706 0.784314
0.882353 0.588235 0.800000
0.388235 0.603922 0.768627
0.400000 0.603922 0.768627
0.435294 0.607843 0.768627
0.486275 0.615686 0.772549
0.556863 0.623529 0.780392
0.631373 0.631373 0.788235
0.717647 0.643137 0.796078
0.807843 0.658824 0.807843
0.901961 0.678431 0.823529
0.458824 0.721569 0.800000
0.470588 0.721569 0.800000
0.498039 0.725490 0.803922
0.541176 0.729412 0.803922
0.603922 0.733333 0.811765
0.670588 0.741176 0.819608
0.752941 0.752941 0.827451
0.839216 0.764706 0.839216
0.929412 0.780392 0.850980
0.529412 0.835294 0.835294
0.541176 0.839216 0.839216
0.564706 0.839216 0.839216
0.603922 0.843137 0.843137
0.654902 0.847059 0.847059
0.717647 0.854902 0.854902
0.792157 0.862745 0.862745
0.874510 0.874510 0.874510
0.960784 0.886275 0.886275
0.603922 0.952941 0.878431
0.611765 0.952941 0.882353
0.631373 0.956863 0.882353
0.666667 0.960784 0.886275
0.713725 0.964706 0.890196
0.772549 0.968627 0.898039
0.839216 0.976471 0.905882
0.913725 0.984314 0.913725
0.996078 0.996078 0.925490
0.172549 0.172549 0.800000
0.207843 0.180392 0.800000
0.270588 0.192157 0.800000
0.356863 0.211765 0.803922
0.450980 0.239216 0.811765
0.545098 0.266667 0.819608
0.647059 0.301961 0.827451
0.749020 0.341176 0.839216
0.850980 0.380392 0.850980
0.188235 0.215686 0.800000
0.219608 0.219608 0.803922
0.282353 0.231373 0.803922
0.364706 0.247059 0.807843
0.454902 0.270588 0.811765
0.549020 0.294118 0.819608
0.650980 0.325490 0.831373
0.752941 0.360784 0.839216
0.854902 0.400000 0.854902
0.223529 0.294118 0.807843
0.250980 0.298039 0.807843
0.305882 0.305882 0.811765
0.380392 0.317647 0.815686
0.466667 0.333333 0.819608
0.560784 0.356863 0.827451
0.658824 0.380392 0.835294
0.756863 0.411765 0.847059
0.858824 0.443137 0.858824
0.274510 0.392157 0.819608
0.294118 0.396078 0.819608
0.341176 0.400000 0.823529
0.407843 0.407843 0.827451
0.490196 0.423529 0.831373
0.576471 0.439216 0.839216
0.674510 0.458824 0.847059
0.772549 0.482353 0.858824
0.870588 0.509804 0.870588
0.333333 0.501961 0.835294
0.349020 0.501961 0.835294
0.388235 0.505882 0.839216
0.447059 0.513725 0.843137
0.521569 0.521569 0.847059
0.603922 0.537255 0.854902
0.694118 0.552941 0.862745
0.788235 0.568627 0.874510
0.886275 0.592157 0.886275
0.396078 0.611765 0.858824
0.411765 0.611765 0.858824
0.443137 0.615686 0.858824
0.494118 0.619608 0.862745
0.560784 0.627451 0.870588
0.635294 0.635294 0.874510
0.721569 0.650980 0.882353
0.811765 0.666667 0.894118
0.905882 0.682353 0.905882
0.466667 0.725490 0.886275
0.478431 0.725490 0.886275
0.505882 0.729412 0.890196
0.549020 0.733333 0.890196
0.607843 0.737255 0.898039
0.678431 0.745098 0.901961
0.756863 0.756863 0.909804
0.843137 0.768627 0.921569
0.933333 0.784314 0.933333
0.537255 0.839216 0.917647
0.545098 0.843137 0.921569
0.568627 0.843137 0.921569
0.607843 0.847059 0.925490
0.662745 0.850980 0.929412
0.725490 0.858824 0.933333
0.796078 0.866667 0.941176
0.878431 0.878431 0.952941
0.964706 0.890196 0.964706
0.607843 0.956863 0.956863
0.615686 0.956863 0.956863
0.639216 0.960784 0.960784
0.670588 0.960784 0.960784
0.717647 0.968627 0.968627
0.776471 0.972549 0.972549
0.843137 0.980392 0.980392
0.917647 0.988235 0.988235
1.000000 1.000000 1.000000
