LUTs/Damaging/LUT_SATURATION/desaturated.cube
#Generated by lutCreator.js
#Coded by SirSerch
#https://github.com/SirSerch/LutCreatorJs
TITLE lutCreatorJs_25
LUT_3D_SIZE 5
0.000000 0.000000 0.000000
0.203922 0.058824 0.058824
0.415686 0.152941 0.152941
0.627451 0.247059 0.247059
0.839216 0.341176 0.341176
0.129412 0.235294 0.129412
0.247059 0.247059 0.152941
0.435294 0.282353 0.207843
0.639216 0.341176 0.282353
0.847059 0.407843 0.364706
0.282353 0.474510 0.282353
0.349020 0.478431 0.294118
0.494118 0.494118 0.325490
0.674510 0.525490 0.372549
0.874510 0.568627 0.435294
0.435294 0.705882 0.435294
0.474510 0.709804 0.439216
0.588235 0.721569 0.458824
0.741176 0.741176 0.494118
0.921569 0.768627 0.541176
0.588235 0.945098 0.588235
0.615686 0.949020 0.592157
0.701961 0.952941 0.603922
0.827451 0.968627 0.627451
0.988235 0.988235 0.662745
0.015686 0.015686 0.192157
0.207843 0.070588 0.207843
0.419608 0.156863 0.250980
0.627451 0.247059 0.313725
0.839216 0.341176 0.388235
0.137255 0.239216 0.239216
0.250980 0.250980 0.250980
0.439216 0.286275 0.286275
0.639216 0.341176 0.341176
0.847059 0.411765 0.411765
0.286275 0.474510 0.345098
0.352941 0.478431 0.352941
0.498039 0.498039 0.376471
0.678431 0.529412 0.419608
0.874510 0.572549 0.474510
0.435294 0.709804 0.470588
0.478431 0.709804 0.478431
0.588235 0.721569 0.494118
0.741176 0.741176 0.525490
0.921569 0.768627 0.568627
0.588235 0.945098 0.615686
0.619608 0.949020 0.619608
0.701961 0.956863 0.631373
0.827451 0.968627 0.654902
0.988235 0.988235 0.686275
0.066667 0.066667 0.396078
0.219608 0.101961 0.403922
0.423529 0.176471 0.423529
0.631373 0.258824 0.458824
0.839216 0.349020 0.509804
0.156863 0.250980 0.415686
0.262745 0.262745 0.423529
0.443137 0.294118 0.443137
0.643137 0.349020 0.478431
0.850980 0.415686 0.525490
0.294118 0.478431 0.478431
0.356863 0.486275 0.486275
0.501961 0.501961 0.501961
0.678431 0.533333 0.533333
0.874510 0.576471 0.576471
0.443137 0.709804 0.572549
0.482353 0.713725 0.576471
0.592157 0.725490 0.592157
0.745098 0.745098 0.615686
0.921569 0.772549 0.650980
0.592157 0.949020 0.690196
0.619608 0.949020 0.694118
0.705882 0.956863 0.705882
0.831373 0.972549 0.725490
0.992157 0.992157 0.752941
0.121569 0.121569 0.596078
0.243137 0.145098 0.600000
0.435294 0.203922 0.611765
0.635294 0.278431 0.635294
0.847059 0.360784 0.670588
0.184314 0.266667 0.607843
0.278431 0.278431 0.611765
0.454902 0.309804 0.627451
0.647059 0.360784 0.647059
0.854902 0.427451 0.682353
0.309804 0.490196 0.650980
0.372549 0.494118 0.654902
0.509804 0.509804 0.666667
0.686275 0.541176 0.686275
0.882353 0.580392 0.717647
0.450980 0.717647 0.717647
0.490196 0.721569 0.721569
0.600000 0.729412 0.729412
0.749020 0.749020 0.749020
0.925490 0.776471 0.776471
0.600000 0.952941 0.807843
0.627451 0.952941 0.811765
0.709804 0.960784 0.819608
0.835294 0.972549 0.835294
0.996078 0.996078 0.858824
0.172549 0.172549 0.800000
0.270588 0.192157 0.800000
0.450980 0.239216 0.811765
0.647059 0.301961 0.827451
0.850980 0.380392 0.850980
0.223529 0.294118 0.807843
0.305882 0.305882 0.811765
0.466667 0.333333 0.819608
0.658824 0.380392 0.835294
0.858824 0.443137 0.858824
0.333333 0.501961 0.835294
0.388235 0.505882 0.839216
0.521569 0.521569 0.847059
0.694118 0.552941 0.862745
0.886275 0.592157 0.886275
0.466667 0.725490 0.886275
0.505882 0.729412 0.890196
0.607843 0.737255 0.898039
0.756863 0.756863 0.909804
0.933333 0.784314 0.933333
0.607843 0.956863 0.956863
0.639216 0.960784 0.960784
0.717647 0.968627 0.968627
0.843137 0.980392 0.980392
1.000000 1.000000 1.000000
