LUTs/Damaging/LUT_SATURATION/technicolor.cube
#Generated by lutCreator.js
#Coded by SirSerch
#https://github.com/SirSerch/LutCreatorJs
TITLE lutCreatorJs_25
LUT_3D_SIZE 5
0.000000 0.000000 0.000000
0.341176 0.000000 0.000000
0.666667 0.000000 0.000000
0.988235 0.000000 0.000000
1.000000 0.000000 0.000000
0.000000 0.282353 0.000000
0.258824 0.258824 0.000000
0.643137 0.105882 0.000000
0.976471 0.000000 0.000000
1.000000 0.000000 0.000000
0.000000 0.564706 0.000000
0.000000 0.556863 0.000000
0.517647 0.517647 0.000000
0.909804 0.423529 0.000000
1.000000 0.254902 0.000000
0.000000 0.839216 0.000000
0.000000 0.835294 0.000000
0.000000 0.819608 0.000000
0.764706 0.764706 0.000000
1.000000 0.698039 0.000000
0.000000 1.000000 0.000000
0.000000 1.000000 0.000000
0.000000 1.000000 0.000000
0.447059 1.000000 0.000000
1.000000 1.000000 0.000000
0.000000 0.000000 0.360784
0.333333 0.000000 0.333333
0.666667 0.000000 0.227451
0.988235 0.000000 0.000000
1.000000 0.000000 0.000000
0.000000 0.274510 0.274510
0.250980 0.250980 0.250980
0.639216 0.090196 0.090196
0.976471 0.000000 0.000000
1.000000 0.000000 0.000000
0.000000 0.560784 0.000000
0.000000 0.556863 0.000000
0.513725 0.513725 0.000000
0.909804 0.419608 0.000000
1.000000 0.254902 0.000000
0.000000 0.839216 0.000000
0.000000 0.835294 0.000000
0.000000 0.815686 0.000000
0.764706 0.764706 0.000000
1.000000 0.698039 0.000000
0.000000 1.000000 0.000000
0.000000 1.000000 0.000000
0.000000 1.000000 0.000000
0.447059 1.000000 0.000000
1.000000 1.000000 0.000000
0.000000 0.000000 0.701961
0.313725 0.000000 0.690196
0.658824 0.000000 0.658824
0.984314 0.000000 0.580392
1.000000 0.000000 0.474510
0.000000 0.247059 0.670588
0.219608 0.219608 0.666667
0.627451 0.000000 0.627451
0.972549 0.000000 0.556863
1.000000 0.000000 0.443137
0.000000 0.549020 0.549020
0.000000 0.545098 0.545098
0.501961 0.501961 0.501961
0.901961 0.407843 0.407843
1.000000 0.227451 0.227451
0.000000 0.831373 0.000000
0.000000 0.827451 0.000000
0.000000 0.811765 0.000000
0.760784 0.760784 0.000000
1.000000 0.694118 0.000000
0.000000 1.000000 0.000000
0.000000 1.000000 0.000000
0.000000 1.000000 0.000000
0.439216 1.000000 0.000000
1.000000 1.000000 0.000000
0.000000 0.000000 1.000000
0.254902 0.000000 1.000000
0.635294 0.000000 1.000000
0.972549 0.000000 0.972549
1.000000 0.000000 0.925490
0.000000 0.184314 1.000000
0.145098 0.145098 1.000000
0.611765 0.000000 1.000000
0.960784 0.000000 0.960784
1.000000 0.000000 0.909804
0.000000 0.529412 0.956863
0.000000 0.521569 0.952941
0.478431 0.478431 0.933333
0.894118 0.372549 0.894118
1.000000 0.152941 0.847059
0.000000 0.819608 0.819608
0.000000 0.815686 0.815686
0.000000 0.796078 0.796078
0.749020 0.749020 0.749020
1.000000 0.674510 0.674510
0.000000 1.000000 0.545098
0.000000 1.000000 0.537255
0.000000 1.000000 0.513725
0.407843 1.000000 0.407843
1.000000 1.000000 0.000000
0.000000 0.000000 1.000000
0.180392 0.000000 1.000000
0.615686 0.000000 1.000000
0.960784 0.000000 1.000000
1.000000 0.000000 1.000000
0.000000 0.058824 1.000000
0.000000 0.000000 1.000000
0.592157 0.000000 1.000000
0.945098 0.000000 1.000000
1.000000 0.000000 1.000000
0.000000 0.501961 1.000000
0.000000 0.498039 1.000000
0.450980 0.450980 1.000000
0.882353 0.333333 1.000000
1.000000 0.000000 1.000000
0.000000 0.803922 1.000000
0.000000 0.800000 1.000000
0.000000 0.780392 1.000000
0.733333 0.733333 1.000000
1.000000 0.654902 1.000000
0.000000 1.000000 1.000000
0.000000 1.000000 1.000000
0.000000 1.000000 1.000000
0.349020 1.000000 1.000000
1.000000 1.000000 1.000000
