LUTs/Damaging/LUT_SATURATION/technicolor.cube
#Generated by lutCreator.js
#Coded by SirSerch
#https://github.com/SirSerch/LutCreatorJs
TITLE lutCreatorJs_25
LUT_3D_SIZE 9
0.000000 0.000000 0.000000
0.176471 0.000000 0.000000
0.341176 0.000000 0.000000
0.501961 0.000000 0.000000
0.666667 0.000000 0.000000
0.823529 0.000000 0.000000
0.988235 0.000000 0.000000
1.000000 0.000000 0.000000
1.000000 0.000000 0.000000
0.000000 0.145098 0.000000
0.133333 0.133333 0.000000
0.321569 0.066667 0.000000
0.498039 0.000000 0.000000
0.662745 0.000000 0.000000
0.819608 0.000000 0.000000
0.984314 0.000000 0.000000
1.000000 0.000000 0.000000
1.000000 0.000000 0.000000
0.000000 0.282353 0.000000
0.000000 0.278431 0.000000
0.258824 0.258824 0.000000
0.462745 0.207843 0.000000
0.643137 0.105882 0.000000
0.807843 0.000000 0.000000
0.976471 0.000000 0.000000
1.000000 0.000000 0.000000
1.000000 0.000000 0.000000
0.000000 0.423529 0.000000
0.000000 0.419608 0.000000
0.000000 0.411765 0.000000
0.384314 0.384314 0.000000
0.592157 0.345098 0.000000
0.772549 0.278431 0.000000
0.952941 0.145098 0.000000
1.000000 0.000000 0.000000
1.000000 0.000000 0.000000
0.000000 0.564706 0.000000
0.000000 0.560784 0.000000
0.000000 0.556863 0.000000
0.223529 0.541176 0.000000
0.517647 0.517647 0.000000
0.721569 0.478431 0.000000
0.909804 0.423529 0.000000
1.000000 0.337255 0.000000
1.000000 0.254902 0.000000
0.000000 0.698039 0.000000
0.000000 0.698039 0.000000
0.000000 0.694118 0.000000
0.000000 0.686275 0.000000
0.376471 0.666667 0.000000
0.639216 0.639216 0.000000
0.854902 0.600000 0.000000
1.000000 0.549020 0.000000
1.000000 0.505882 0.000000
0.000000 0.839216 0.000000
0.000000 0.839216 0.000000
0.000000 0.835294 0.000000
0.000000 0.827451 0.000000
0.000000 0.819608 0.000000
0.505882 0.796078 0.000000
0.764706 0.764706 0.000000
0.984314 0.733333 0.000000
1.000000 0.698039 0.000000
0.000000 0.976471 0.000000
0.000000 0.976471 0.000000
0.000000 0.972549 0.000000
0.000000 0.968627 0.000000
0.000000 0.964706 0.000000
0.207843 0.945098 0.000000
0.639216 0.925490 0.000000
0.898039 0.898039 0.000000
1.000000 0.866667 0.000000
0.000000 1.000000 0.000000
0.000000 1.000000 0.000000
0.000000 1.000000 0.000000
0.000000 1.000000 0.000000
0.000000 1.000000 0.000000
0.000000 1.000000 0.000000
0.447059 1.000000 0.000000
0.788235 1.000000 0.000000
1.000000 1.000000 0.000000
0.000000 0.000000 0.192157
0.176471 0.000000 0.176471
0.341176 0.000000 0.125490
0.501961 0.000000 0.000000
0.666667 0.000000 0.000000
0.823529 0.000000 0.000000
0.988235 0.000000 0.000000
1.000000 0.000000 0.000000
1.000000 0.000000 0.000000
0.000000 0.141176 0.141176
0.125490 0.125490 0.125490
0.321569 0.058824 0.058824
0.498039 0.000000 0.000000
0.662745 0.000000 0.000000
0.819608 0.000000 0.000000
0.984314 0.000000 0.000000
1.000000 0.000000 0.000000
1.000000 0.000000 0.000000
0.000000 0.282353 0.000000
0.000000 0.278431 0.000000
0.258824 0.258824 0.000000
0.458824 0.211765 0.000000
0.643137 0.098039 0.000000
0.807843 0.000000 0.000000
0.976471 0.000000 0.000000
1.000000 0.000000 0.000000
1.000000 0.000000 0.000000
0.000000 0.423529 0.000000
0.000000 0.419608 0.000000
0.000000 0.411765 0.000000
0.384314 0.384314 0.000000
0.592157 0.345098 0.000000
0.772549 0.278431 0.000000
0.952941 0.133333 0.000000
1.000000 0.000000 0.000000
1.000000 0.000000 0.000000
0.000000 0.564706 0.000000
0.000000 0.560784 0.000000
0.000000 0.556863 0.000000
0.223529 0.541176 0.000000
0.517647 0.517647 0.000000
0.721569 0.478431 0.000000
0.909804 0.419608 0.000000
1.000000 0.329412 0.000000
1.000000 0.254902 0.000000
0.000000 0.698039 0.000000
0.000000 0.698039 0.000000
0.000000 0.694118 0.000000
0.000000 0.686275 0.000000
0.376471 0.666667 0.000000
0.639216 0.639216 0.000000
0.854902 0.600000 0.000000
1.000000 0.549020 0.000000
1.000000 0.505882 0.000000
0.000000 0.839216 0.000000
0.000000 0.839216 0.000000
0.000000 0.835294 0.000000
0.000000 0.827451 0.000000
0.000000 0.819608 0.000000
0.505882 0.796078 0.000000
0.764706 0.764706 0.000000
0.984314 0.733333 0.000000
1.000000 0.698039 0.000000
0.000000 0.976471 0.000000
0.000000 0.976471 0.000000
0.000000 0.972549 0.000000
0.000000 0.968627 0.000000
0.000000 0.964706 0.000000
0.207843 0.945098 0.000000
0.639216 0.925490 0.000000
0.898039 0.898039 0.000000
1.000000 0.866667 0.000000
0.000000 1.000000 0.000000
0.000000 1.000000 0.000000
0.000000 1.000000 0.000000
0.000000 1.000000 0.000000
0.000000 1.000000 0.000000
0.000000 1.000000 0.000000
0.447059 1.000000 0.000000
0.788235 1.000000 0.000000
1.000000 1.000000 0.000000
0.000000 0.000000 0.360784
0.164706 0.000000 0.352941
0.333333 0.000000 0.333333
0.501961 0.000000 0.298039
0.666667 0.000000 0.227451
0.823529 0.000000 0.047059
0.988235 0.000000 0.000000
1.000000 0.000000 0.000000
1.000000 0.000000 0.000000
0.000000 0.129412 0.337255
0.113725 0.113725 0.337255
0.313725 0.035294 0.313725
0.490196 0.000000 0.282353
0.658824 0.000000 0.211765
0.819608 0.000000 0.000000
0.984314 0.000000 0.000000
1.000000 0.000000 0.000000
1.000000 0.000000 0.000000
0.000000 0.274510 0.274510
0.000000 0.270588 0.270588
0.250980 0.250980 0.250980
0.458824 0.200000 0.200000
0.639216 0.090196 0.090196
0.807843 0.000000 0.000000
0.976471 0.000000 0.000000
1.000000 0.000000 0.000000
1.000000 0.000000 0.000000
0.000000 0.419608 0.066667
0.000000 0.419608 0.047059
0.000000 0.407843 0.000000
0.384314 0.384314 0.000000
0.592157 0.345098 0.000000
0.772549 0.278431 0.000000
0.952941 0.133333 0.000000
1.000000 0.000000 0.000000
1.000000 0.000000 0.000000
0.000000 0.560784 0.000000
0.000000 0.560784 0.000000
0.000000 0.556863 0.000000
0.211765 0.541176 0.000000
0.513725 0.513725 0.000000
0.721569 0.474510 0.000000
0.909804 0.419608 0.000000
1.000000 0.329412 0.000000
1.000000 0.254902 0.000000
0.000000 0.698039 0.000000
0.000000 0.698039 0.000000
0.000000 0.694118 0.000000
0.000000 0.686275 0.000000
0.372549 0.666667 0.000000
0.639216 0.639216 0.000000
0.854902 0.600000 0.000000
1.000000 0.549020 0.000000
1.000000 0.505882 0.000000
0.000000 0.839216 0.000000
0.000000 0.839216 0.000000
0.000000 0.835294 0.000000
0.000000 0.827451 0.000000
0.000000 0.815686 0.000000
0.505882 0.796078 0.000000
0.764706 0.764706 0.000000
0.984314 0.729412 0.000000
1.000000 0.698039 0.000000
0.000000 0.976471 0.000000
0.000000 0.972549 0.000000
0.000000 0.972549 0.000000
0.000000 0.968627 0.000000
0.000000 0.964706 0.000000
0.207843 0.945098 0.000000
0.639216 0.925490 0.000000
0.898039 0.898039 0.000000
1.000000 0.866667 0.000000
0.000000 1.000000 0.000000
0.000000 1.000000 0.000000
0.000000 1.000000 0.000000
0.000000 1.000000 0.000000
0.000000 1.000000 0.000000
0.000000 1.000000 0.000000
0.447059 1.000000 0.000000
0.780392 1.000000 0.000000
1.000000 1.000000 0.000000
0.000000 0.000000 0.529412
0.145098 0.000000 0.529412
0.325490 0.000000 0.517647
0.494118 0.000000 0.494118
0.662745 0.000000 0.462745
0.823529 0.000000 0.411765
0.984314 0.000000 0.333333
1.000000 0.000000 0.176471
1.000000 0.000000 0.000000
0.000000 0.098039 0.521569
0.082353 0.082353 0.513725
0.305882 0.000000 0.505882
0.490196 0.000000 0.490196
0.654902 0.000000 0.454902
0.819608 0.000000 0.403922
0.984314 0.000000 0.321569
1.000000 0.000000 0.152941
1.000000 0.000000 0.000000
0.000000 0.266667 0.486275
0.000000 0.262745 0.482353
0.239216 0.239216 0.474510
0.450980 0.188235 0.450980
0.635294 0.047059 0.419608
0.807843 0.000000 0.368627
0.976471 0.000000 0.290196
1.000000 0.000000 0.043137
1.000000 0.000000 0.000000
0.000000 0.415686 0.415686
0.000000 0.411765 0.411765
0.000000 0.403922 0.403922
0.376471 0.376471 0.376471
0.592157 0.333333 0.333333
0.772549 0.266667 0.266667
0.949020 0.109804 0.109804
1.000000 0.000000 0.000000
1.000000 0.000000 0.000000
0.000000 0.556863 0.262745
0.000000 0.552941 0.258824
0.000000 0.549020 0.250980
0.196078 0.537255 0.196078
0.509804 0.509804 0.078431
0.717647 0.470588 0.000000
0.909804 0.415686 0.000000
1.000000 0.325490 0.000000
1.000000 0.243137 0.000000
0.000000 0.694118 0.000000
0.000000 0.690196 0.000000
0.000000 0.690196 0.000000
0.000000 0.682353 0.000000
0.372549 0.662745 0.000000
0.635294 0.635294 0.000000
0.850980 0.600000 0.000000
1.000000 0.549020 0.000000
1.000000 0.501961 0.000000
0.000000 0.839216 0.000000
0.000000 0.835294 0.000000
0.000000 0.835294 0.000000
0.000000 0.827451 0.000000
0.000000 0.815686 0.000000
0.498039 0.796078 0.000000
0.764706 0.764706 0.000000
0.984314 0.729412 0.000000
1.000000 0.694118 0.000000
0.000000 0.972549 0.000000
0.000000 0.972549 0.000000
0.000000 0.972549 0.000000
0.000000 0.968627 0.000000
0.000000 0.964706 0.000000
0.188235 0.945098 0.000000
0.635294 0.921569 0.000000
0.894118 0.894118 0.000000
1.000000 0.866667 0.000000
0.000000 1.000000 0.000000
0.000000 1.000000 0.000000
0.000000 1.000000 0.000000
0.000000 1.000000 0.000000
0.000000 1.000000 0.000000
0.000000 1.000000 0.000000
0.447059 1.000000 0.000000
0.780392 1.000000 0.000000
1.000000 1.000000 0.000000
0.000000 0.000000 0.701961
0.098039 0.000000 0.698039
0.313725 0.000000 0.690196
0.486275 0.000000 0.678431
0.658824 0.000000 0.658824
0.815686 0.000000 0.623529
0.984314 0.000000 0.580392
1.000000 0.000000 0.521569
1.000000 0.000000 0.474510
0.000000 0.035294 0.698039
0.000000 0.000000 0.690196
0.294118 0.000000 0.682353
0.482353 0.000000 0.674510
0.647059 0.000000 0.647059
0.811765 0.000000 0.619608
0.976471 0.000000 0.576471
1.000000 0.000000 0.513725
1.000000 0.000000 0.466667
0.000000 0.247059 0.670588
0.000000 0.243137 0.666667
0.219608 0.219608 0.666667
0.443137 0.160784 0.650980
0.627451 0.000000 0.627451
0.800000 0.000000 0.600000
0.972549 0.000000 0.556863
1.000000 0.000000 0.494118
1.000000 0.000000 0.443137
0.000000 0.403922 0.627451
0.000000 0.400000 0.623529
0.000000 0.392157 0.619608
0.364706 0.364706 0.603922
0.584314 0.321569 0.584314
0.768627 0.243137 0.549020
0.945098 0.047059 0.505882
1.000000 0.000000 0.439216
1.000000 0.000000 0.392157
0.000000 0.549020 0.549020
0.000000 0.549020 0.549020
0.000000 0.545098 0.545098
0.176471 0.529412 0.529412
0.501961 0.501961 0.501961
0.713725 0.462745 0.462745
0.901961 0.407843 0.407843
1.000000 0.309804 0.309804
1.000000 0.227451 0.227451
0.000000 0.690196 0.423529
0.000000 0.690196 0.415686
0.000000 0.686275 0.411765
0.000000 0.678431 0.396078
0.356863 0.658824 0.356863
0.631373 0.631373 0.290196
0.850980 0.592157 0.172549
1.000000 0.541176 0.000000
1.000000 0.498039 0.000000
0.000000 0.831373 0.000000
0.000000 0.831373 0.000000
0.000000 0.827451 0.000000
0.000000 0.823529 0.000000
0.000000 0.811765 0.000000
0.498039 0.788235 0.000000
0.760784 0.760784 0.000000
0.984314 0.725490 0.000000
1.000000 0.694118 0.000000
0.000000 0.972549 0.000000
0.000000 0.972549 0.000000
0.000000 0.968627 0.000000
0.000000 0.968627 0.000000
0.000000 0.960784 0.000000
0.180392 0.941176 0.000000
0.635294 0.921569 0.000000
0.894118 0.894118 0.000000
1.000000 0.862745 0.000000
0.000000 1.000000 0.000000
0.000000 1.000000 0.000000
0.000000 1.000000 0.000000
0.000000 1.000000 0.000000
0.000000 1.000000 0.000000
0.000000 1.000000 0.000000
0.439216 1.000000 0.000000
0.780392 1.000000 0.000000
1.000000 1.000000 0.000000
0.000000 0.000000 0.866667
0.000000 0.000000 0.866667
0.286275 0.000000 0.858824
0.474510 0.000000 0.850980
0.650980 0.000000 0.831373
0.811765 0.000000 0.811765
0.976471 0.000000 0.780392
1.000000 0.000000 0.737255
1.000000 0.000000 0.713725
0.000000 0.000000 0.862745
0.000000 0.000000 0.862745
0.278431 0.000000 0.854902
0.466667 0.000000 0.847059
0.639216 0.000000 0.827451
0.807843 0.000000 0.807843
0.976471 0.000000 0.772549
1.000000 0.000000 0.733333
1.000000 0.000000 0.709804
0.000000 0.223529 0.847059
0.000000 0.219608 0.847059
0.188235 0.188235 0.839216
0.431373 0.117647 0.831373
0.619608 0.000000 0.815686
0.792157 0.000000 0.792157
0.968627 0.000000 0.764706
1.000000 0.000000 0.725490
1.000000 0.000000 0.694118
0.000000 0.388235 0.811765
0.000000 0.388235 0.811765
0.000000 0.376471 0.807843
0.349020 0.349020 0.800000
0.576471 0.301961 0.784314
0.760784 0.223529 0.760784
0.941176 0.000000 0.733333
1.000000 0.000000 0.690196
1.000000 0.000000 0.666667
0.000000 0.541176 0.760784
0.000000 0.541176 0.760784
0.000000 0.537255 0.756863
0.137255 0.521569 0.749020
0.490196 0.490196 0.729412
0.705882 0.450980 0.705882
0.901961 0.392157 0.670588
1.000000 0.290196 0.631373
1.000000 0.200000 0.600000
0.000000 0.682353 0.682353
0.000000 0.682353 0.682353
0.000000 0.678431 0.678431
0.000000 0.670588 0.670588
0.345098 0.650980 0.650980
0.623529 0.623529 0.623529
0.843137 0.584314 0.584314
1.000000 0.533333 0.533333
1.000000 0.490196 0.490196
0.000000 0.827451 0.556863
0.000000 0.823529 0.556863
0.000000 0.823529 0.552941
0.000000 0.819608 0.541176
0.000000 0.803922 0.521569
0.486275 0.784314 0.486275
0.756863 0.756863 0.431373
0.976471 0.721569 0.349020
1.000000 0.682353 0.250980
0.000000 0.972549 0.313725
0.000000 0.964706 0.317647
0.000000 0.964706 0.309804
0.000000 0.960784 0.290196
0.000000 0.956863 0.250980
0.137255 0.941176 0.137255
0.623529 0.917647 0.000000
0.890196 0.890196 0.000000
1.000000 0.858824 0.000000
0.000000 1.000000 0.000000
0.000000 1.000000 0.000000
0.000000 1.000000 0.000000
0.000000 1.000000 0.000000
0.000000 1.000000 0.000000
0.000000 1.000000 0.000000
0.427451 1.000000 0.000000
0.772549 1.000000 0.000000
1.000000 1.000000 0.000000
0.000000 0.000000 1.000000
0.000000 0.000000 1.000000
0.254902 0.000000 1.000000
0.454902 0.000000 1.000000
0.635294 0.000000 1.000000
0.803922 0.000000 0.992157
0.972549 0.000000 0.972549
1.000000 0.000000 0.941176
1.000000 0.000000 0.925490
0.000000 0.000000 1.000000
0.000000 0.000000 1.000000
0.239216 0.000000 1.000000
0.450980 0.000000 1.000000
0.631373 0.000000 1.000000
0.800000 0.000000 0.992157
0.968627 0.000000 0.968627
1.000000 0.000000 0.937255
1.000000 0.000000 0.917647
0.000000 0.184314 1.000000
0.000000 0.172549 1.000000
0.145098 0.145098 1.000000
0.415686 0.011765 1.000000
0.611765 0.000000 1.000000
0.788235 0.000000 0.984314
0.960784 0.000000 0.960784
1.000000 0.000000 0.929412
1.000000 0.000000 0.909804
0.000000 0.368627 0.996078
0.000000 0.368627 0.996078
0.000000 0.356863 0.992157
0.329412 0.329412 0.984314
0.564706 0.278431 0.976471
0.752941 0.180392 0.960784
0.937255 0.000000 0.937255
1.000000 0.000000 0.909804
1.000000 0.000000 0.890196
0.000000 0.529412 0.956863
0.000000 0.525490 0.956863
0.000000 0.521569 0.952941
0.078431 0.505882 0.945098
0.478431 0.478431 0.933333
0.698039 0.439216 0.917647
0.894118 0.372549 0.894118
1.000000 0.270588 0.866667
1.000000 0.152941 0.847059
0.000000 0.670588 0.901961
0.000000 0.670588 0.901961
0.000000 0.666667 0.898039
0.000000 0.662745 0.894118
0.321569 0.643137 0.878431
0.611765 0.611765 0.858824
0.835294 0.572549 0.835294
1.000000 0.517647 0.803922
1.000000 0.470588 0.776471
0.000000 0.819608 0.819608
0.000000 0.819608 0.819608
0.000000 0.815686 0.815686
0.000000 0.811765 0.811765
0.000000 0.796078 0.796078
0.470588 0.776471 0.776471
0.749020 0.749020 0.749020
0.968627 0.709804 0.709804
1.000000 0.674510 0.674510
0.000000 0.964706 0.698039
0.000000 0.964706 0.698039
0.000000 0.960784 0.694118
0.000000 0.956863 0.690196
0.000000 0.949020 0.678431
0.078431 0.933333 0.654902
0.615686 0.913725 0.615686
0.882353 0.882353 0.564706
1.000000 0.850980 0.513725
0.000000 1.000000 0.545098
0.000000 1.000000 0.545098
0.000000 1.000000 0.537255
0.000000 1.000000 0.529412
0.000000 1.000000 0.513725
0.000000 1.000000 0.474510
0.407843 1.000000 0.407843
0.764706 1.000000 0.301961
1.000000 1.000000 0.000000
0.000000 0.000000 1.000000
0.000000 0.000000 1.000000
0.219608 0.000000 1.000000
0.439216 0.000000 1.000000
0.623529 0.000000 1.000000
0.796078 0.000000 1.000000
0.964706 0.000000 1.000000
1.000000 0.000000 1.000000
1.000000 0.000000 1.000000
0.000000 0.000000 1.000000
0.000000 0.000000 1.000000
0.192157 0.000000 1.000000
0.427451 0.000000 1.000000
0.619608 0.000000 1.000000
0.788235 0.000000 1.000000
0.960784 0.000000 1.000000
1.000000 0.000000 1.000000
1.000000 0.000000 1.000000
0.000000 0.117647 1.000000
0.000000 0.109804 1.000000
0.054902 0.054902 1.000000
0.396078 0.000000 1.000000
0.600000 0.000000 1.000000
0.776471 0.000000 1.000000
0.949020 0.000000 1.000000
1.000000 0.000000 1.000000
1.000000 0.000000 1.000000
0.000000 0.345098 1.000000
0.000000 0.341176 1.000000
0.000000 0.333333 1.000000
0.301961 0.301961 1.000000
0.549020 0.239216 1.000000
0.741176 0.113725 1.000000
0.929412 0.000000 1.000000
1.000000 0.000000 1.000000
1.000000 0.000000 1.000000
0.000000 0.509804 1.000000
0.000000 0.509804 1.000000
0.000000 0.505882 1.000000
0.000000 0.490196 1.000000
0.462745 0.462745 1.000000
0.686275 0.419608 1.000000
0.886275 0.349020 1.000000
1.000000 0.223529 1.000000
1.000000 0.031373 1.000000
0.000000 0.658824 1.000000
0.000000 0.658824 1.000000
0.000000 0.654902 1.000000
0.000000 0.650980 1.000000
0.290196 0.631373 1.000000
0.600000 0.600000 1.000000
0.823529 0.560784 1.000000
1.000000 0.501961 1.000000
1.000000 0.450980 1.000000
0.000000 0.811765 1.000000
0.000000 0.811765 1.000000
0.000000 0.807843 1.000000
0.000000 0.803922 1.000000
0.000000 0.788235 1.000000
0.450980 0.768627 1.000000
0.737255 0.737255 0.992157
0.964706 0.698039 0.964706
1.000000 0.662745 0.941176
0.000000 0.952941 0.952941
0.000000 0.952941 0.952941
0.000000 0.949020 0.949020
0.000000 0.949020 0.949020
0.000000 0.941176 0.941176
0.000000 0.925490 0.925490
0.603922 0.901961 0.901961
0.874510 0.874510 0.874510
1.000000 0.843137 0.843137
0.000000 1.000000 0.858824
0.000000 1.000000 0.858824
0.000000 1.000000 0.858824
0.000000 1.000000 0.850980
0.000000 1.000000 0.839216
0.000000 1.000000 0.823529
0.384314 1.000000 0.796078
0.756863 1.000000 0.756863
1.000000 1.000000 0.698039
0.000000 0.000000 1.000000
0.000000 0.000000 1.000000
0.180392 0.000000 1.000000
0.423529 0.000000 1.000000
0.615686 0.000000 1.000000
0.784314 0.000000 1.000000
0.960784 0.000000 1.000000
1.000000 0.000000 1.000000
1.000000 0.000000 1.000000
0.000000 0.000000 1.000000
0.000000 0.000000 1.000000
0.160784 0.000000 1.000000
0.415686 0.000000 1.000000
0.607843 0.000000 1.000000
0.780392 0.000000 1.000000
0.952941 0.000000 1.000000
1.000000 0.000000 1.000000
1.000000 0.000000 1.000000
0.000000 0.058824 1.000000
0.000000 0.031373 1.000000
0.000000 0.000000 1.000000
0.384314 0.000000 1.000000
0.592157 0.000000 1.000000
0.772549 0.000000 1.000000
0.945098 0.000000 1.000000
1.000000 0.000000 1.000000
1.000000 0.000000 1.000000
0.000000 0.333333 1.000000
0.000000 0.325490 1.000000
0.000000 0.317647 1.000000
0.282353 0.282353 1.000000
0.541176 0.215686 1.000000
0.737255 0.054902 1.000000
0.925490 0.000000 1.000000
1.000000 0.000000 1.000000
1.000000 0.000000 1.000000
0.000000 0.501961 1.000000
0.000000 0.501961 1.000000
0.000000 0.498039 1.000000
0.000000 0.482353 1.000000
0.450980 0.450980 1.000000
0.678431 0.400000 1.000000
0.882353 0.333333 1.000000
1.000000 0.200000 1.000000
1.000000 0.000000 1.000000
0.000000 0.654902 1.000000
0.000000 0.650980 1.000000
0.000000 0.650980 1.000000
0.000000 0.639216 1.000000
0.262745 0.619608 1.000000
0.592157 0.592157 1.000000
0.819608 0.549020 1.000000
1.000000 0.490196 1.000000
1.000000 0.435294 1.000000
0.000000 0.803922 1.000000
0.000000 0.800000 1.000000
0.000000 0.800000 1.000000
0.000000 0.796078 1.000000
0.000000 0.780392 1.000000
0.431373 0.760784 1.000000
0.733333 0.733333 1.000000
0.960784 0.690196 1.000000
1.000000 0.654902 1.000000
0.000000 0.949020 1.000000
0.000000 0.949020 1.000000
0.000000 0.949020 1.000000
0.000000 0.945098 1.000000
0.000000 0.933333 1.000000
0.000000 0.917647 1.000000
0.592157 0.894118 1.000000
0.866667 0.866667 1.000000
1.000000 0.831373 1.000000
0.000000 1.000000 1.000000
0.000000 1.000000 1.000000
0.000000 1.000000 1.000000
0.000000 1.000000 1.000000
0.000000 1.000000 1.000000
0.000000 1.000000 1.000000
0.349020 1.000000 1.000000
0.737255 1.000000 1.000000
1.000000 1.000000 1.000000
