LUTs/Damaging/LUT_BLUE/cold.cube
#Generated by lutCreator.js
#Coded by SirSerch
#https://github.com/SirSerch/LutCreatorJs
TITLE lutCreatorJs_25
LUT_3D_SIZE 25
0.000000 0.000000 0.000000
0.027451 0.000000 0.000000
0.050980 0.000000 0.000000
0.078431 0.000000 0.000000
0.109804 0.000000 0.000000
0.133333 0.000000 0.000000
0.164706 0.000000 0.000000
0.192157 0.000000 0.000000
0.223529 0.000000 0.000000
0.258824 0.000000 0.000000
0.290196 0.000000 0.000000
0.325490 0.000000 0.000000
0.360784 0.000000 0.000000
0.400000 0.000000 0.000000
0.439216 0.000000 0.000000
0.478431 0.000000 0.000000
0.529412 0.000000 0.000000
0.580392 0.000000 0.000000
0.631373 0.000000 0.000000
0.690196 0.000000 0.000000
0.752941 0.000000 0.000000
0.807843 0.000000 0.000000
0.874510 0.000000 0.000000
0.933333 0.000000 0.000000
1.000000 0.000000 0.000000
0.000000 0.043137 0.000000
0.027451 0.043137 0.000000
0.050980 0.043137 0.000000
0.078431 0.043137 0.000000
0.109804 0.043137 0.000000
0.133333 0.043137 0.000000
0.164706 0.043137 0.000000
0.192157 0.043137 0.000000
0.223529 0.043137 0.000000
0.258824 0.043137 0.000000
0.290196 0.043137 0.000000
0.325490 0.043137 0.000000
0.360784 0.043137 0.000000
0.400000 0.043137 0.000000
0.439216 0.043137 0.000000
0.478431 0.043137 0.000000
0.529412 0.043137 0.000000
0.580392 0.043137 0.000000
0.631373 0.043137 0.000000
0.690196 0.043137 0.000000
0.752941 0.043137 0.000000
0.807843 0.043137 0.000000
0.874510 0.043137 0.000000
0.933333 0.043137 0.000000
1.000000 0.043137 0.000000
0.000000 0.082353 0.000000
0.027451 0.082353 0.000000
0.050980 0.082353 0.000000
0.078431 0.082353 0.000000
0.109804 0.082353 0.000000
0.133333 0.082353 0.000000
0.164706 0.082353 0.000000
0.192157 0.082353 0.000000
0.223529 0.082353 0.000000
0.258824 0.082353 0.000000
0.290196 0.082353 0.000000
0.325490 0.082353 0.000000
0.360784 0.082353 0.000000
0.400000 0.082353 0.000000
0.439216 0.082353 0.000000
0.478431 0.082353 0.000000
0.529412 0.082353 0.000000
0.580392 0.082353 0.000000
0.631373 0.082353 0.000000
0.690196 0.082353 0.000000
0.752941 0.082353 0.000000
0.807843 0.082353 0.000000
0.874510 0.082353 0.000000
0.933333 0.082353 0.000000
1.000000 0.082353 0.000000
0.000000 0.125490 0.000000
0.027451 0.125490 0.000000
0.050980 0.125490 0.000000
0.078431 0.125490 0.000000
0.109804 0.125490 0.000000
0.133333 0.125490 0.000000
0.164706 0.125490 0.000000
0.192157 0.125490 0.000000
0.223529 0.125490 0.000000
0.258824 0.125490 0.000000
0.290196 0.125490 0.000000
0.325490 0.125490 0.000000
0.360784 0.125490 0.000000
0.400000 0.125490 0.000000
0.439216 0.125490 0.000000
0.478431 0.125490 0.000000
0.529412 0.125490 0.000000
0.580392 0.125490 0.000000
0.631373 0.125490 0.000000
0.690196 0.125490 0.000000
0.752941 0.125490 0.000000
0.807843 0.125490 0.000000
0.874510 0.125490 0.000000
0.933333 0.125490 0.000000
1.000000 0.125490 0.000000
0.000000 0.168627 0.000000
0.027451 0.168627 0.000000
0.050980 0.168627 0.000000
0.078431 0.168627 0.000000
0.109804 0.168627 0.000000
0.133333 0.168627 0.000000
0.164706 0.168627 0.000000
0.192157 0.168627 0.000000
0.223529 0.168627 0.000000
0.258824 0.168627 0.000000
0.290196 0.168627 0.000000
0.325490 0.168627 0.000000
0.360784 0.168627 0.000000
0.400000 0.168627 0.000000
0.439216 0.168627 0.000000
0.478431 0.168627 0.000000
0.529412 0.168627 0.000000
0.580392 0.168627 0.000000
0.631373 0.168627 0.000000
0.690196 0.168627 0.000000
0.752941 0.168627 0.000000
0.807843 0.168627 0.000000
0.874510 0.168627 0.000000
0.933333 0.168627 0.000000
1.000000 0.168627 0.000000
0.000000 0.207843 0.000000
0.027451 0.207843 0.000000
0.050980 0.207843 0.000000
0.078431 0.207843 0.000000
0.109804 0.207843 0.000000
0.133333 0.207843 0.000000
0.164706 0.207843 0.000000
0.192157 0.207843 0.000000
0.223529 0.207843 0.000000
0.258824 0.207843 0.000000
0.290196 0.207843 0.000000
0.325490 0.207843 0.000000
0.360784 0.207843 0.000000
0.400000 0.207843 0.000000
0.439216 0.207843 0.000000
0.478431 0.207843 0.000000
0.529412 0.207843 0.000000
0.580392 0.207843 0.000000
0.631373 0.207843 0.000000
0.690196 0.207843 0.000000
0.752941 0.207843 0.000000
0.807843 0.207843 0.000000
0.874510 0.207843 0.000000
0.933333 0.207843 0.000000
1.000000 0.207843 0.000000
0.000000 0.250980 0.000000
0.027451 0.250980 0.000000
0.050980 0.250980 0.000000
0.078431 0.250980 0.000000
0.109804 0.250980 0.000000
0.133333 0.250980 0.000000
0.164706 0.250980 0.000000
0.192157 0.250980 0.000000
0.223529 0.250980 0.000000
0.258824 0.250980 0.000000
0.290196 0.250980 0.000000
0.325490 0.250980 0.000000
0.360784 0.250980 0.000000
0.400000 0.250980 0.000000
0.439216 0.250980 0.000000
0.478431 0.250980 0.000000
0.529412 0.250980 0.000000
0.580392 0.250980 0.000000
0.631373 0.250980 0.000000
0.690196 0.250980 0.000000
0.752941 0.250980 0.000000
0.807843 0.250980 0.000000
0.874510 0.250980 0.000000
0.933333 0.250980 0.000000
1.000000 0.250980 0.000000
0.000000 0.290196 0.000000
0.027451 0.290196 0.000000
0.050980 0.290196 0.000000
0.078431 0.290196 0.000000
0.109804 0.290196 0.000000
0.133333 0.290196 0.000000
0.164706 0.290196 0.000000
0.192157 0.290196 0.000000
0.223529 0.290196 0.000000
0.258824 0.290196 0.000000
0.290196 0.290196 0.000000
0.325490 0.290196 0.000000
0.360784 0.290196 0.000000
0.400000 0.290196 0.000000
0.439216 0.290196 0.000000
0.478431 0.290196 0.000000
0.529412 0.290196 0.000000
0.580392 0.290196 0.000000
0.631373 0.290196 0.000000
0.690196 0.290196 0.000000
0.752941 0.290196 0.000000
0.807843 0.290196 0.000000
0.874510 0.290196 0.000000
0.933333 0.290196 0.000000
1.000000 0.290196 0.000000
0.000000 0.333333 0.000000
0.027451 0.333333 0.000000
0.050980 0.333333 0.000000
0.078431 0.333333 0.000000
0.109804 0.333333 0.000000
0.133333 0.333333 0.000000
0.164706 0.333333 0.000000
0.192157 0.333333 0.000000
0.223529 0.333333 0.000000
0.258824 0.333333 0.000000
0.290196 0.333333 0.000000
0.325490 0.333333 0.000000
0.360784 0.333333 0.000000
0.400000 0.333333 0.000000
0.439216 0.333333 0.000000
0.478431 0.333333 0.000000
0.529412 0.333333 0.000000
0.580392 0.333333 0.000000
0.631373 0.333333 0.000000
0.690196 0.333333 0.000000
0.752941 0.333333 0.000000
0.807843 0.333333 0.000000
0.874510 0.333333 0.000000
0.933333 0.333333 0.000000
1.000000 0.333333 0.000000
0.000000 0.376471 0.000000
0.027451 0.376471 0.000000
0.050980 0.376471 0.000000
0.078431 0.376471 0.000000
0.109804 0.376471 0.000000
0.133333 0.376471 0.000000
0.164706 0.376471 0.000000
0.192157 0.376471 0.000000
0.223529 0.376471 0.000000
0.258824 0.376471 0.000000
0.290196 0.376471 0.000000
0.325490 0.376471 0.000000
0.360784 0.376471 0.000000
0.400000 0.376471 0.000000
0.439216 0.376471 0.000000
0.478431 0.376471 0.000000
0.529412 0.376471 0.000000
0.580392 0.376471 0.000000
0.631373 0.376471 0.000000
0.690196 0.376471 0.000000
0.752941 0.376471 0.000000
0.807843 0.376471 0.000000
0.874510 0.376471 0.000000
0.933333 0.376471 0.000000
1.000000 0.376471 0.000000
0.000000 0.415686 0.000000
0.027451 0.415686 0.000000
0.050980 0.415686 0.000000
0.078431 0.415686 0.000000
0.109804 0.415686 0.000000
0.133333 0.415686 0.000000
0.164706 0.415686 0.000000
0.192157 0.415686 0.000000
0.223529 0.415686 0.000000
0.258824 0.415686 0.000000
0.290196 0.415686 0.000000
0.325490 0.415686 0.000000
0.360784 0.415686 0.000000
0.400000 0.415686 0.000000
0.439216 0.415686 0.000000
0.478431 0.415686 0.000000
0.529412 0.415686 0.000000
0.580392 0.415686 0.000000
0.631373 0.415686 0.000000
0.690196 0.415686 0.000000
0.752941 0.415686 0.000000
0.807843 0.415686 0.000000
0.874510 0.415686 0.000000
0.933333 0.415686 0.000000
1.000000 0.415686 0.000000
0.000000 0.458824 0.000000
0.027451 0.458824 0.000000
0.050980 0.458824 0.000000
0.078431 0.458824 0.000000
0.109804 0.458824 0.000000
0.133333 0.458824 0.000000
0.164706 0.458824 0.000000
0.192157 0.458824 0.000000
0.223529 0.458824 0.000000
0.258824 0.458824 0.000000
0.290196 0.458824 0.000000
0.325490 0.458824 0.000000
0.360784 0.458824 0.000000
0.400000 0.458824 0.000000
0.439216 0.458824 0.000000
0.478431 0.458824 0.000000
0.529412 0.458824 0.000000
0.580392 0.458824 0.000000
0.631373 0.458824 0.000000
0.690196 0.458824 0.000000
0.752941 0.458824 0.000000
0.807843 0.458824 0.000000
0.874510 0.458824 0.000000
0.933333 0.458824 0.000000
1.000000 0.458824 0.000000
0.000000 0.501961 0.000000
0.027451 0.501961 0.000000
0.050980 0.501961 0.000000
0.078431 0.501961 0.000000
0.109804 0.501961 0.000000
0.133333 0.501961 0.000000
0.164706 0.501961 0.000000
0.192157 0.501961 0.000000
0.223529 0.501961 0.000000
0.258824 0.501961 0.000000
0.290196 0.501961 0.000000
0.325490 0.501961 0.000000
0.360784 0.501961 0.000000
0.400000 0.501961 0.000000
0.439216 0.501961 0.000000
0.478431 0.501961 0.000000
0.529412 0.501961 0.000000
0.580392 0.501961 0.000000
0.631373 0.501961 0.000000
0.690196 0.501961 0.000000
0.752941 0.501961 0.000000
0.807843 0.501961 0.000000
0.874510 0.501961 0.000000
0.933333 0.501961 0.000000
1.000000 0.501961 0.000000
0.000000 0.541176 0.000000
0.027451 0.541176 0.000000
0.050980 0.541176 0.000000
0.078431 0.541176 0.000000
0.109804 0.541176 0.000000
0.133333 0.541176 0.000000
0.164706 0.541176 0.000000
0.192157 0.541176 0.000000
0.223529 0.541176 0.000000
0.258824 0.541176 0.000000
0.290196 0.541176 0.000000
0.325490 0.541176 0.000000
0.360784 0.541176 0.000000
0.400000 0.541176 0.000000
0.439216 0.541176 0.000000
0.478431 0.541176 0.000000
0.529412 0.541176 0.000000
0.580392 0.541176 0.000000
0.631373 0.541176 0.000000
0.690196 0.541176 0.000000
0.752941 0.541176 0.000000
0.807843 0.541176 0.000000
0.874510 0.541176 0.000000
0.933333 0.541176 0.000000
1.000000 0.541176 0.000000
0.000000 0.584314 0.000000
0.027451 0.584314 0.000000
0.050980 0.584314 0.000000
0.078431 0.584314 0.000000
0.109804 0.584314 0.000000
0.133333 0.584314 0.000000
0.164706 0.584314 0.000000
0.192157 0.584314 0.000000
0.223529 0.584314 0.000000
0.258824 0.584314 0.000000
0.290196 0.584314 0.000000
0.325490 0.584314 0.000000
0.360784 0.584314 0.000000
0.400000 0.584314 0.000000
0.439216 0.584314 0.000000
0.478431 0.584314 0.000000
0.529412 0.584314 0.000000
0.580392 0.584314 0.000000
0.631373 0.584314 0.000000
0.690196 0.584314 0.000000
0.752941 0.584314 0.000000
0.807843 0.584314 0.000000
0.874510 0.584314 0.000000
0.933333 0.584314 0.000000
1.000000 0.584314 0.000000
0.000000 0.623529 0.000000
0.027451 0.623529 0.000000
0.050980 0.623529 0.000000
0.078431 0.623529 0.000000
0.109804 0.623529 0.000000
0.133333 0.623529 0.000000
0.164706 0.623529 0.000000
0.192157 0.623529 0.000000
0.223529 0.623529 0.000000
0.258824 0.623529 0.000000
0.290196 0.623529 0.000000
0.325490 0.623529 0.000000
0.360784 0.623529 0.000000
0.400000 0.623529 0.000000
0.439216 0.623529 0.000000
0.478431 0.623529 0.000000
0.529412 0.623529 0.000000
0.580392 0.623529 0.000000
0.631373 0.623529 0.000000
0.690196 0.623529 0.000000
0.752941 0.623529 0.000000
0.807843 0.623529 0.000000
0.874510 0.623529 0.000000
0.933333 0.623529 0.000000
1.000000 0.623529 0.000000
0.000000 0.666667 0.000000
0.027451 0.666667 0.000000
0.050980 0.666667 0.000000
0.078431 0.666667 0.000000
0.109804 0.666667 0.000000
0.133333 0.666667 0.000000
0.164706 0.666667 0.000000
0.192157 0.666667 0.000000
0.223529 0.666667 0.000000
0.258824 0.666667 0.000000
0.290196 0.666667 0.000000
0.325490 0.666667 0.000000
0.360784 0.666667 0.000000
0.400000 0.666667 0.000000
0.439216 0.666667 0.000000
0.478431 0.666667 0.000000
0.529412 0.666667 0.000000
0.580392 0.666667 0.000000
0.631373 0.666667 0.000000
0.690196 0.666667 0.000000
0.752941 0.666667 0.000000
0.807843 0.666667 0.000000
0.874510 0.666667 0.000000
0.933333 0.666667 0.000000
1.000000 0.666667 0.000000
0.000000 0.709804 0.000000
0.027451 0.709804 0.000000
0.050980 0.709804 0.000000
0.078431 0.709804 0.000000
0.109804 0.709804 0.000000
0.133333 0.709804 0.000000
0.164706 0.709804 0.000000
0.192157 0.709804 0.000000
0.223529 0.709804 0.000000
0.258824 0.709804 0.000000
0.290196 0.709804 0.000000
0.325490 0.709804 0.000000
0.360784 0.709804 0.000000
0.400000 0.709804 0.000000
0.439216 0.709804 0.000000
0.478431 0.709804 0.000000
0.529412 0.709804 0.000000
0.580392 0.709804 0.000000
0.631373 0.709804 0.000000
0.690196 0.709804 0.000000
0.752941 0.709804 0.000000
0.807843 0.709804 0.000000
0.874510 0.709804 0.000000
0.933333 0.709804 0.000000
1.000000 0.709804 0.000000
0.000000 0.749020 0.000000
0.027451 0.749020 0.000000
0.050980 0.749020 0.000000
0.078431 0.749020 0.000000
0.109804 0.749020 0.000000
0.133333 0.749020 0.000000
0.164706 0.749020 0.000000
0.192157 0.749020 0.000000
0.223529 0.749020 0.000000
0.258824 0.749020 0.000000
0.290196 0.749020 0.000000
0.325490 0.749020 0.000000
0.360784 0.749020 0.000000
0.400000 0.749020 0.000000
0.439216 0.749020 0.000000
0.478431 0.749020 0.000000
0.529412 0.749020 0.000000
0.580392 0.749020 0.000000
0.631373 0.749020 0.000000
0.690196 0.749020 0.000000
0.752941 0.749020 0.000000
0.807843 0.749020 0.000000
0.874510 0.749020 0.000000
0.933333 0.749020 0.000000
1.000000 0.749020 0.000000
0.000000 0.792157 0.000000
0.027451 0.792157 0.000000
0.050980 0.792157 0.000000
0.078431 0.792157 0.000000
0.109804 0.792157 0.000000
0.133333 0.792157 0.000000
0.164706 0.792157 0.000000
0.192157 0.792157 0.000000
0.223529 0.792157 0.000000
0.258824 0.792157 0.000000
0.290196 0.792157 0.000000
0.325490 0.792157 0.000000
0.360784 0.792157 0.000000
0.400000 0.792157 0.000000
0.439216 0.792157 0.000000
0.478431 0.792157 0.000000
0.529412 0.792157 0.000000
0.580392 0.792157 0.000000
0.631373 0.792157 0.000000
0.690196 0.792157 0.000000
0.752941 0.792157 0.000000
0.807843 0.792157 0.000000
0.874510 0.792157 0.000000
0.933333 0.792157 0.000000
1.000000 0.792157 0.000000
0.000000 0.835294 0.000000
0.027451 0.835294 0.000000
0.050980 0.835294 0.000000
0.078431 0.835294 0.000000
0.109804 0.835294 0.000000
0.133333 0.835294 0.000000
0.164706 0.835294 0.000000
0.192157 0.835294 0.000000
0.223529 0.835294 0.000000
0.258824 0.835294 0.000000
0.290196 0.835294 0.000000
0.325490 0.835294 0.000000
0.360784 0.835294 0.000000
0.400000 0.835294 0.000000
0.439216 0.835294 0.000000
0.478431 0.835294 0.000000
0.529412 0.835294 0.000000
0.580392 0.835294 0.000000
0.631373 0.835294 0.000000
0.690196 0.835294 0.000000
0.752941 0.835294 0.000000
0.807843 0.835294 0.000000
0.874510 0.835294 0.000000
0.933333 0.835294 0.000000
1.000000 0.835294 0.000000
0.000000 0.874510 0.000000
0.027451 0.874510 0.000000
0.050980 0.874510 0.000000
0.078431 0.874510 0.000000
0.109804 0.874510 0.000000
0.133333 0.874510 0.000000
0.164706 0.874510 0.000000
0.192157 0.874510 0.000000
0.223529 0.874510 0.000000
0.258824 0.874510 0.000000
0.290196 0.874510 0.000000
0.325490 0.874510 0.000000
0.360784 0.874510 0.000000
0.400000 0.874510 0.000000
0.439216 0.874510 0.000000
0.478431 0.874510 0.000000
0.529412 0.874510 0.000000
0.580392 0.874510 0.000000
0.631373 0.874510 0.000000
0.690196 0.874510 0.000000
0.752941 0.874510 0.000000
0.807843 0.874510 0.000000
0.874510 0.874510 0.000000
0.933333 0.874510 0.000000
1.000000 0.874510 0.000000
0.000000 0.917647 0.000000
0.027451 0.917647 0.000000
0.050980 0.917647 0.000000
0.078431 0.917647 0.000000
0.109804 0.917647 0.000000
0.133333 0.917647 0.000000
0.164706 0.917647 0.000000
0.192157 0.917647 0.000000
0.223529 0.917647 0.000000
0.258824 0.917647 0.000000
0.290196 0.917647 0.000000
0.325490 0.917647 0.000000
0.360784 0.917647 0.000000
0.400000 0.917647 0.000000
0.439216 0.917647 0.000000
0.478431 0.917647 0.000000
0.529412 0.917647 0.000000
0.580392 0.917647 0.000000
0.631373 0.917647 0.000000
0.690196 0.917647 0.000000
0.752941 0.917647 0.000000
0.807843 0.917647 0.000000
0.874510 0.917647 0.000000
0.933333 0.917647 0.000000
1.000000 0.917647 0.000000
0.000000 0.956863 0.000000
0.027451 0.956863 0.000000
0.050980 0.956863 0.000000
0.078431 0.956863 0.000000
0.109804 0.956863 0.000000
0.133333 0.956863 0.000000
0.164706 0.956863 0.000000
0.192157 0.956863 0.000000
0.223529 0.956863 0.000000
0.258824 0.956863 0.000000
0.290196 0.956863 0.000000
0.325490 0.956863 0.000000
0.360784 0.956863 0.000000
0.400000 0.956863 0.000000
0.439216 0.956863 0.000000
0.478431 0.956863 0.000000
0.529412 0.956863 0.000000
0.580392 0.956863 0.000000
0.631373 0.956863 0.000000
0.690196 0.956863 0.000000
0.752941 0.956863 0.000000
0.807843 0.956863 0.000000
0.874510 0.956863 0.000000
0.933333 0.956863 0.000000
1.000000 0.956863 0.000000
0.000000 1.000000 0.000000
0.027451 1.000000 0.000000
0.050980 1.000000 0.000000
0.078431 1.000000 0.000000
0.109804 1.000000 0.000000
0.133333 1.000000 0.000000
0.164706 1.000000 0.000000
0.192157 1.000000 0.000000
0.223529 1.000000 0.000000
0.258824 1.000000 0.000000
0.290196 1.000000 0.000000
0.325490 1.000000 0.000000
0.360784 1.000000 0.000000
0.400000 1.000000 0.000000
0.439216 1.000000 0.000000
0.478431 1.000000 0.000000
0.529412 1.000000 0.000000
0.580392 1.000000 0.000000
0.631373 1.000000 0.000000
0.690196 1.000000 0.000000
0.752941 1.000000 0.000000
0.807843 1.000000 0.000000
0.874510 1.000000 0.000000
0.933333 1.000000 0.000000
1.000000 1.000000 0.000000
0.000000 0.000000 0.066667
0.027451 0.000000 0.066667
0.050980 0.000000 0.066667
0.078431 0.000000 0.066667
0.109804 0.000000 0.066667
0.133333 0.000000 0.066667
0.164706 0.000000 0.066667
0.192157 0.000000 0.066667
0.223529 0.000000 0.066667
0.258824 0.000000 0.066667
0.290196 0.000000 0.066667
0.325490 0.000000 0.066667
0.360784 0.000000 0.066667
0.400000 0.000000 0.066667
0.439216 0.000000 0.066667
0.478431 0.000000 0.066667
0.529412 0.000000 0.066667
0.580392 0.000000 0.066667
0.631373 0.000000 0.066667
0.690196 0.000000 0.066667
0.752941 0.000000 0.066667
0.807843 0.000000 0.066667
0.874510 0.000000 0.066667
0.933333 0.000000 0.066667
1.000000 0.000000 0.066667
0.000000 0.043137 0.066667
0.027451 0.043137 0.066667
0.050980 0.043137 0.066667
0.078431 0.043137 0.066667
0.109804 0.043137 0.066667
0.133333 0.043137 0.066667
0.164706 0.043137 0.066667
0.192157 0.043137 0.066667
0.223529 0.043137 0.066667
0.258824 0.043137 0.066667
0.290196 0.043137 0.066667
0.325490 0.043137 0.066667
0.360784 0.043137 0.066667
0.400000 0.043137 0.066667
0.439216 0.043137 0.066667
0.478431 0.043137 0.066667
0.529412 0.043137 0.066667
0.580392 0.043137 0.066667
0.631373 0.043137 0.066667
0.690196 0.043137 0.066667
0.752941 0.043137 0.066667
0.807843 0.043137 0.066667
0.874510 0.043137 0.066667
0.933333 0.043137 0.066667
1.000000 0.043137 0.066667
0.000000 0.082353 0.066667
0.027451 0.082353 0.066667
0.050980 0.082353 0.066667
0.078431 0.082353 0.066667
0.109804 0.082353 0.066667
0.133333 0.082353 0.066667
0.164706 0.082353 0.066667
0.192157 0.082353 0.066667
0.223529 0.082353 0.066667
0.258824 0.082353 0.066667
0.290196 0.082353 0.066667
0.325490 0.082353 0.066667
0.360784 0.082353 0.066667
0.400000 0.082353 0.066667
0.439216 0.082353 0.066667
0.478431 0.082353 0.066667
0.529412 0.082353 0.066667
0.580392 0.082353 0.066667
0.631373 0.082353 0.066667
0.690196 0.082353 0.066667
0.752941 0.082353 0.066667
0.807843 0.082353 0.066667
0.874510 0.082353 0.066667
0.933333 0.082353 0.066667
1.000000 0.082353 0.066667
0.000000 0.125490 0.066667
0.027451 0.125490 0.066667
0.050980 0.125490 0.066667
0.078431 0.125490 0.066667
0.109804 0.125490 0.066667
0.133333 0.125490 0.066667
0.164706 0.125490 0.066667
0.192157 0.125490 0.066667
0.223529 0.125490 0.066667
0.258824 0.125490 0.066667
0.290196 0.125490 0.066667
0.325490 0.125490 0.066667
0.360784 0.125490 0.066667
0.400000 0.125490 0.066667
0.439216 0.125490 0.066667
0.478431 0.125490 0.066667
0.529412 0.125490 0.066667
0.580392 0.125490 0.066667
0.631373 0.125490 0.066667
0.690196 0.125490 0.066667
0.752941 0.125490 0.066667
0.807843 0.125490 0.066667
0.874510 0.125490 0.066667
0.933333 0.125490 0.066667
1.000000 0.125490 0.066667
0.000000 0.168627 0.066667
0.027451 0.168627 0.066667
0.050980 0.168627 0.066667
0.078431 0.168627 0.066667
0.109804 0.168627 0.066667
0.133333 0.168627 0.066667
0.164706 0.168627 0.066667
0.192157 0.168627 0.066667
0.223529 0.168627 0.066667
0.258824 0.168627 0.066667
0.290196 0.168627 0.066667
0.325490 0.168627 0.066667
0.360784 0.168627 0.066667
0.400000 0.168627 0.066667
0.439216 0.168627 0.066667
0.478431 0.168627 0.066667
0.529412 0.168627 0.066667
0.580392 0.168627 0.066667
0.631373 0.168627 0.066667
0.690196 0.168627 0.066667
0.752941 0.168627 0.066667
0.807843 0.168627 0.066667
0.874510 0.168627 0.066667
0.933333 0.168627 0.066667
1.000000 0.168627 0.066667
0.000000 0.207843 0.066667
0.027451 0.207843 0.066667
0.050980 0.207843 0.066667
0.078431 0.207843 0.066667
0.109804 0.207843 0.066667
0.133333 0.207843 0.066667
0.164706 0.207843 0.066667
0.192157 0.207843 0.066667
0.223529 0.207843 0.066667
0.258824 0.207843 0.066667
0.290196 0.207843 0.066667
0.325490 0.207843 0.066667
0.360784 0.207843 0.066667
0.400000 0.207843 0.066667
0.439216 0.207843 0.066667
0.478431 0.207843 0.066667
0.529412 0.207843 0.066667
0.580392 0.207843 0.066667
0.631373 0.207843 0.066667
0.690196 0.207843 0.066667
0.752941 0.207843 0.066667
0.807843 0.207843 0.066667
0.874510 0.207843 0.066667
0.933333 0.207843 0.066667
1.000000 0.207843 0.066667
0.000000 0.250980 0.066667
0.027451 0.250980 0.066667
0.050980 0.250980 0.066667
0.078431 0.250980 0.066667
0.109804 0.250980 0.066667
0.133333 0.250980 0.066667
0.164706 0.250980 0.066667
0.192157 0.250980 0.066667
0.223529 0.250980 0.066667
0.258824 0.250980 0.066667
0.290196 0.250980 0.066667
0.325490 0.250980 0.066667
0.360784 0.250980 0.066667
0.400000 0.250980 0.066667
0.439216 0.250980 0.066667
0.478431 0.250980 0.066667
0.529412 0.250980 0.066667
0.580392 0.250980 0.066667
0.631373 0.250980 0.066667
0.690196 0.250980 0.066667
0.752941 0.250980 0.066667
0.807843 0.250980 0.066667
0.874510 0.250980 0.066667
0.933333 0.250980 0.066667
1.000000 0.250980 0.066667
0.000000 0.290196 0.066667
0.027451 0.290196 0.066667
0.050980 0.290196 0.066667
0.078431 0.290196 0.066667
0.109804 0.290196 0.066667
0.133333 0.290196 0.066667
0.164706 0.290196 0.066667
0.192157 0.290196 0.066667
0.223529 0.290196 0.066667
0.258824 0.290196 0.066667
0.290196 0.290196 0.066667
0.325490 0.290196 0.066667
0.360784 0.290196 0.066667
0.400000 0.290196 0.066667
0.439216 0.290196 0.066667
0.478431 0.290196 0.066667
0.529412 0.290196 0.066667
0.580392 0.290196 0.066667
0.631373 0.290196 0.066667
0.690196 0.290196 0.066667
0.752941 0.290196 0.066667
0.807843 0.290196 0.066667
0.874510 0.290196 0.066667
0.933333 0.290196 0.066667
1.000000 0.290196 0.066667
0.000000 0.333333 0.066667
0.027451 0.333333 0.066667
0.050980 0.333333 0.066667
0.078431 0.333333 0.066667
0.109804 0.333333 0.066667
0.133333 0.333333 0.066667
0.164706 0.333333 0.066667
0.192157 0.333333 0.066667
0.223529 0.333333 0.066667
0.258824 0.333333 0.066667
0.290196 0.333333 0.066667
0.325490 0.333333 0.066667
0.360784 0.333333 0.066667
0.400000 0.333333 0.066667
0.439216 0.333333 0.066667
0.478431 0.333333 0.066667
0.529412 0.333333 0.066667
0.580392 0.333333 0.066667
0.631373 0.333333 0.066667
0.690196 0.333333 0.066667
0.752941 0.333333 0.066667
0.807843 0.333333 0.066667
0.874510 0.333333 0.066667
0.933333 0.333333 0.066667
1.000000 0.333333 0.066667
0.000000 0.376471 0.066667
0.027451 0.376471 0.066667
0.050980 0.376471 0.066667
0.078431 0.376471 0.066667
0.109804 0.376471 0.066667
0.133333 0.376471 0.066667
0.164706 0.376471 0.066667
0.192157 0.376471 0.066667
0.223529 0.376471 0.066667
0.258824 0.376471 0.066667
0.290196 0.376471 0.066667
0.325490 0.376471 0.066667
0.360784 0.376471 0.066667
0.400000 0.376471 0.066667
0.439216 0.376471 0.066667
0.478431 0.376471 0.066667
0.529412 0.376471 0.066667
0.580392 0.376471 0.066667
0.631373 0.376471 0.066667
0.690196 0.376471 0.066667
0.752941 0.376471 0.066667
0.807843 0.376471 0.066667
0.874510 0.376471 0.066667
0.933333 0.376471 0.066667
1.000000 0.376471 0.066667
0.000000 0.415686 0.066667
0.027451 0.415686 0.066667
0.050980 0.415686 0.066667
0.078431 0.415686 0.066667
0.109804 0.415686 0.066667
0.133333 0.415686 0.066667
0.164706 0.415686 0.066667
0.192157 0.415686 0.066667
0.223529 0.415686 0.066667
