LUTs/Damaging/LUT_BLUE/cold.cube
#Generated by lutCreator.js
#Coded by SirSerch
#https://github.com/SirSerch/LutCreatorJs
TITLE lutCreatorJs_25
LUT_3D_SIZE 5
0.000000 0.000000 0.000000
0.164706 0.000000 0.000000
0.360784 0.000000 0.000000
0.631373 0.000000 0.000000
1.000000 0.000000 0.000000
0.000000 0.250980 0.000000
0.164706 0.250980 0.000000
0.360784 0.250980 0.000000
0.631373 0.250980 0.000000
1.000000 0.250980 0.000000
0.000000 0.501961 0.000000
0.164706 0.501961 0.000000
0.360784 0.501961 0.000000
0.631373 0.501961 0.000000
1.000000 0.501961 0.000000
0.000000 0.749020 0.000000
0.164706 0.749020 0.000000
0.360784 0.749020 0.000000
0.631373 0.749020 0.000000
1.000000 0.749020 0.000000
0.000000 1.000000 0.000000
0.164706 1.000000 0.000000
0.360784 1.000000 0.000000
0.631373 1.000000 0.000000
1.000000 1.000000 0.000000
0.000000 0.000000 0.376471
0.164706 0.000000 0.376471
0.360784 0.000000 0.376471
0.631373 0.000000 0.376471
1.000000 0.000000 0.376471
0.000000 0.250980 0.376471
0.164706 0.250980 0.376471
0.360784 0.250980 0.376471
0.631373 0.250980 0.376471
1.000000 0.250980 0.376471
0.000000 0.501961 0.376471
0.164706 0.501961 0.376471
0.360784 0.501961 0.376471
0.631373 0.501961 0.376471
1.000000 0.501961 0.376471
0.000000 0.749020 0.376471
0.164706 0.749020 0.376471
0.360784 0.749020 0.376471
0.631373 0.749020 0.376471
1.000000 0.749020 0.376471
0.000000 1.000000 0.376471
0.164706 1.000000 0.376471
0.360784 1.000000 0.376471
0.631373 1.000000 0.376471
1.000000 1.000000 0.376471
0.000000 0.000000 0.662745
0.164706 0.000000 0.662745
0.360784 0.000000 0.662745
0.631373 0.000000 0.662745
1.000000 0.000000 0.662745
0.000000 0.250980 0.662745
0.164706 0.250980 0.662745
0.360784 0.250980 0.662745
0.631373 0.250980 0.662745
1.000000 0.250980 0.662745
0.000000 0.501961 0.662745
0.164706 0.501961 0.662745
0.360784 0.501961 0.662745
0.631373 0.501961 0.662745
1.000000 0.501961 0.662745
0.000000 0.749020 0.662745
0.164706 0.749020 0.662745
0.360784 0.749020 0.662745
0.631373 0.749020 0.662745
1.000000 0.749020 0.662745
0.000000 1.000000 0.662745
0.164706 1.000000 0.662745
0.360784 1.000000 0.662745
0.631373 1.000000 0.662745
1.000000 1.000000 0.662745
0.000000 0.000000 0.850980
0.164706 0.000000 0.850980
0.360784 0.000000 0.850980
0.631373 0.000000 0.850980
1.000000 0.000000 0.850980
0.000000 0.250980 0.850980
0.164706 0.250980 0.850980
0.360784 0.250980 0.850980
0.631373 0.250980 0.850980
1.000000 0.250980 0.850980
0.000000 0.501961 0.850980
0.164706 0.501961 0.850980
0.360784 0.501961 0.850980
0.631373 0.501961 0.850980
1.000000 0.501961 0.850980
0.000000 0.749020 0.850980
0.164706 0.749020 0.850980
0.360784 0.749020 0.850980
0.631373 0.749020 0.850980
1.000000 0.749020 0.850980
0.000000 1.000000 0.850980
0.164706 1.000000 0.850980
0.360784 1.000000 0.850980
0.631373 1.000000 0.850980
1.000000 1.000000 0.850980
0.000000 0.000000 1.000000
0.164706 0.000000 1.000000
0.360784 0.000000 1.000000
0.631373 0.000000 1.000000
1.000000 0.000000 1.000000
0.000000 0.250980 1.000000
0.164706 0.250980 1.000000
0.360784 0.250980 1.000000
0.631373 0.250980 1.000000
1.000000 0.250980 1.000000
0.000000 0.501961 1.000000
0.164706 0.501961 1.000000
0.360784 0.501961 1.000000
0.631373 0.501961 1.000000
1.000000 0.501961 1.000000
0.000000 0.749020 1.000000
0.164706 0.749020 1.000000
0.360784 0.749020 1.000000
0.631373 0.749020 1.000000
1.000000 0.749020 1.000000
0.000000 1.000000 1.000000
0.164706 1.000000 1.000000
0.360784 1.000000 1.000000
0.631373 1.000000 1.000000
1.000000 1.000000 1.000000
