LUTs/Damaging/LUT_BLUE/cold.cube
#Generated by lutCreator.js
#Coded by SirSerch
#https://github.com/SirSerch/LutCreatorJs
TITLE lutCreatorJs_25
LUT_3D_SIZE 9
0.000000 0.000000 0.000000
0.078431 0.000000 0.000000
0.164706 0.000000 0.000000
0.258824 0.000000 0.000000
0.360784 0.000000 0.000000
0.478431 0.000000 0.000000
0.631373 0.000000 0.000000
0.807843 0.000000 0.000000
1.000000 0.000000 0.000000
0.000000 0.125490 0.000000
0.078431 0.125490 0.000000
0.164706 0.125490 0.000000
0.258824 0.125490 0.000000
0.360784 0.125490 0.000000
0.478431 0.125490 0.000000
0.631373 0.125490 0.000000
0.807843 0.125490 0.000000
1.000000 0.125490 0.000000
0.000000 0.250980 0.000000
0.078431 0.250980 0.000000
0.164706 0.250980 0.000000
0.258824 0.250980 0.000000
0.360784 0.250980 0.000000
0.478431 0.250980 0.000000
0.631373 0.250980 0.000000
0.807843 0.250980 0.000000
1.000000 0.250980 0.000000
0.000000 0.376471 0.000000
0.078431 0.376471 0.000000
0.164706 0.376471 0.000000
0.258824 0.376471 0.000000
0.360784 0.376471 0.000000
0.478431 0.376471 0.000000
0.631373 0.376471 0.000000
0.807843 0.376471 0.000000
1.000000 0.376471 0.000000
0.000000 0.501961 0.000000
0.078431 0.501961 0.000000
0.164706 0.501961 0.000000
0.258824 0.501961 0.000000
0.360784 0.501961 0.000000
0.478431 0.501961 0.000000
0.631373 0.501961 0.000000
0.807843 0.501961 0.000000
1.000000 0.501961 0.000000
0.000000 0.623529 0.000000
0.078431 0.623529 0.000000
0.164706 0.623529 0.000000
0.258824 0.623529 0.000000
0.360784 0.623529 0.000000
0.478431 0.623529 0.000000
0.631373 0.623529 0.000000
0.807843 0.623529 0.000000
1.000000 0.623529 0.000000
0.000000 0.749020 0.000000
0.078431 0.749020 0.000000
0.164706 0.749020 0.000000
0.258824 0.749020 0.000000
0.360784 0.749020 0.000000
0.478431 0.749020 0.000000
0.631373 0.749020 0.000000
0.807843 0.749020 0.000000
1.000000 0.749020 0.000000
0.000000 0.874510 0.000000
0.078431 0.874510 0.000000
0.164706 0.874510 0.000000
0.258824 0.874510 0.000000
0.360784 0.874510 0.000000
0.478431 0.874510 0.000000
0.631373 0.874510 0.000000
0.807843 0.874510 0.000000
1.000000 0.874510 0.000000
0.000000 1.000000 0.000000
0.078431 1.000000 0.000000
0.164706 1.000000 0.000000
0.258824 1.000000 0.000000
0.360784 1.000000 0.000000
0.478431 1.000000 0.000000
0.631373 1.000000 0.000000
0.807843 1.000000 0.000000
1.000000 1.000000 0.000000
0.000000 0.000000 0.196078
0.078431 0.000000 0.196078
0.164706 0.000000 0.196078
0.258824 0.000000 0.196078
0.360784 0.000000 0.196078
0.478431 0.000000 0.196078
0.631373 0.000000 0.196078
0.807843 0.000000 0.196078
1.000000 0.000000 0.196078
0.000000 0.125490 0.196078
0.078431 0.125490 0.196078
0.164706 0.125490 0.196078
0.258824 0.125490 0.196078
0.360784 0.125490 0.196078
0.478431 0.125490 0.196078
0.631373 0.125490 0.196078
0.807843 0.125490 0.196078
1.000000 0.125490 0.196078
0.000000 0.250980 0.196078
0.078431 0.250980 0.196078
0.164706 0.250980 0.196078
0.258824 0.250980 0.196078
0.360784 0.250980 0.196078
0.478431 0.250980 0.196078
0.631373 0.250980 0.196078
0.807843 0.250980 0.196078
1.000000 0.250980 0.196078
0.000000 0.376471 0.196078
0.078431 0.376471 0.196078
0.164706 0.376471 0.196078
0.258824 0.376471 0.196078
0.360784 0.376471 0.196078
0.478431 0.376471 0.196078
0.631373 0.376471 0.196078
0.807843 0.376471 0.196078
1.000000 0.376471 0.196078
0.000000 0.501961 0.196078
0.078431 0.501961 0.196078
0.164706 0.501961 0.196078
0.258824 0.501961 0.196078
0.360784 0.501961 0.196078
0.478431 0.501961 0.196078
0.631373 0.501961 0.196078
0.807843 0.501961 0.196078
1.000000 0.501961 0.196078
0.000000 0.623529 0.196078
0.078431 0.623529 0.196078
0.164706 0.623529 0.196078
0.258824 0.623529 0.196078
0.360784 0.623529 0.196078
0.478431 0.623529 0.196078
0.631373 0.623529 0.196078
0.807843 0.623529 0.196078
1.000000 0.623529 0.196078
0.000000 0.749020 0.196078
0.078431 0.749020 0.196078
0.164706 0.749020 0.196078
0.258824 0.749020 0.196078
0.360784 0.749020 0.196078
0.478431 0.749020 0.196078
0.631373 0.749020 0.196078
0.807843 0.749020 0.196078
1.000000 0.749020 0.196078
0.000000 0.874510 0.196078
0.078431 0.874510 0.196078
0.164706 0.874510 0.196078
0.258824 0.874510 0.196078
0.360784 0.874510 0.196078
0.478431 0.874510 0.196078
0.631373 0.874510 0.196078
0.807843 0.874510 0.196078
1.000000 0.874510 0.196078
0.000000 1.000000 0.196078
0.078431 1.000000 0.196078
0.164706 1.000000 0.196078
0.258824 1.000000 0.196078
0.360784 1.000000 0.196078
0.478431 1.000000 0.196078
0.631373 1.000000 0.196078
0.807843 1.000000 0.196078
1.000000 1.000000 0.196078
0.000000 0.000000 0.376471
0.078431 0.000000 0.376471
0.164706 0.000000 0.376471
0.258824 0.000000 0.376471
0.360784 0.000000 0.376471
0.478431 0.000000 0.376471
0.631373 0.000000 0.376471
0.807843 0.000000 0.376471
1.000000 0.000000 0.376471
0.000000 0.125490 0.376471
0.078431 0.125490 0.376471
0.164706 0.125490 0.376471
0.258824 0.125490 0.376471
0.360784 0.125490 0.376471
0.478431 0.125490 0.376471
0.631373 0.125490 0.376471
0.807843 0.125490 0.376471
1.000000 0.125490 0.376471
0.000000 0.250980 0.376471
0.078431 0.250980 0.376471
0.164706 0.250980 0.376471
0.258824 0.250980 0.376471
0.360784 0.250980 0.376471
0.478431 0.250980 0.376471
0.631373 0.250980 0.376471
0.807843 0.250980 0.376471
1.000000 0.250980 0.376471
0.000000 0.376471 0.376471
0.078431 0.376471 0.376471
0.164706 0.376471 0.376471
0.258824 0.376471 0.376471
0.360784 0.376471 0.376471
0.478431 0.376471 0.376471
0.631373 0.376471 0.376471
0.807843 0.376471 0.376471
1.000000 0.376471 0.376471
0.000000 0.501961 0.376471
0.078431 0.501961 0.376471
0.164706 0.501961 0.376471
0.258824 0.501961 0.376471
0.360784 0.501961 0.376471
0.478431 0.501961 0.376471
0.631373 0.501961 0.376471
0.807843 0.501961 0.376471
1.000000 0.501961 0.376471
0.000000 0.623529 0.376471
0.078431 0.623529 0.376471
0.164706 0.623529 0.376471
0.258824 0.623529 0.376471
0.360784 0.623529 0.376471
0.478431 0.623529 0.376471
0.631373 0.623529 0.376471
0.807843 0.623529 0.376471
1.000000 0.623529 0.376471
0.000000 0.749020 0.376471
0.078431 0.749020 0.376471
0.164706 0.749020 0.376471
0.258824 0.749020 0.376471
0.360784 0.749020 0.376471
0.478431 0.749020 0.376471
0.631373 0.749020 0.376471
0.807843 0.749020 0.376471
1.000000 0.749020 0.376471
0.000000 0.874510 0.376471
0.078431 0.874510 0.376471
0.164706 0.874510 0.376471
0.258824 0.874510 0.376471
0.360784 0.874510 0.376471
0.478431 0.874510 0.376471
0.631373 0.874510 0.376471
0.807843 0.874510 0.376471
1.000000 0.874510 0.376471
0.000000 1.000000 0.376471
0.078431 1.000000 0.376471
0.164706 1.000000 0.376471
0.258824 1.000000 0.376471
0.360784 1.000000 0.376471
0.478431 1.000000 0.376471
0.631373 1.000000 0.376471
0.807843 1.000000 0.376471
1.000000 1.000000 0.376471
0.000000 0.000000 0.537255
0.078431 0.000000 0.537255
0.164706 0.000000 0.537255
0.258824 0.000000 0.537255
0.360784 0.000000 0.537255
0.478431 0.000000 0.537255
0.631373 0.000000 0.537255
0.807843 0.000000 0.537255
1.000000 0.000000 0.537255
0.000000 0.125490 0.537255
0.078431 0.125490 0.537255
0.164706 0.125490 0.537255
0.258824 0.125490 0.537255
0.360784 0.125490 0.537255
0.478431 0.125490 0.537255
0.631373 0.125490 0.537255
0.807843 0.125490 0.537255
1.000000 0.125490 0.537255
0.000000 0.250980 0.537255
0.078431 0.250980 0.537255
0.164706 0.250980 0.537255
0.258824 0.250980 0.537255
0.360784 0.250980 0.537255
0.478431 0.250980 0.537255
0.631373 0.250980 0.537255
0.807843 0.250980 0.537255
1.000000 0.250980 0.537255
0.000000 0.376471 0.537255
0.078431 0.376471 0.537255
0.164706 0.376471 0.537255
0.258824 0.376471 0.537255
0.360784 0.376471 0.537255
0.478431 0.376471 0.537255
0.631373 0.376471 0.537255
0.807843 0.376471 0.537255
1.000000 0.376471 0.537255
0.000000 0.501961 0.537255
0.078431 0.501961 0.537255
0.164706 0.501961 0.537255
0.258824 0.501961 0.537255
0.360784 0.501961 0.537255
0.478431 0.501961 0.537255
0.631373 0.501961 0.537255
0.807843 0.501961 0.537255
1.000000 0.501961 0.537255
0.000000 0.623529 0.537255
0.078431 0.623529 0.537255
0.164706 0.623529 0.537255
0.258824 0.623529 0.537255
0.360784 0.623529 0.537255
0.478431 0.623529 0.537255
0.631373 0.623529 0.537255
0.807843 0.623529 0.537255
1.000000 0.623529 0.537255
0.000000 0.749020 0.537255
0.078431 0.749020 0.537255
0.164706 0.749020 0.537255
0.258824 0.749020 0.537255
0.360784 0.749020 0.537255
0.478431 0.749020 0.537255
0.631373 0.749020 0.537255
0.807843 0.749020 0.537255
1.000000 0.749020 0.537255
0.000000 0.874510 0.537255
0.078431 0.874510 0.537255
0.164706 0.874510 0.537255
0.258824 0.874510 0.537255
0.360784 0.874510 0.537255
0.478431 0.874510 0.537255
0.631373 0.874510 0.537255
0.807843 0.874510 0.537255
1.000000 0.874510 0.537255
0.000000 1.000000 0.537255
0.078431 1.000000 0.537255
0.164706 1.000000 0.537255
0.258824 1.000000 0.537255
0.360784 1.000000 0.537255
0.478431 1.000000 0.537255
0.631373 1.000000 0.537255
0.807843 1.000000 0.537255
1.000000 1.000000 0.537255
0.000000 0.000000 0.662745
0.078431 0.000000 0.662745
0.164706 0.000000 0.662745
0.258824 0.000000 0.662745
0.360784 0.000000 0.662745
0.478431 0.000000 0.662745
0.631373 0.000000 0.662745
0.807843 0.000000 0.662745
1.000000 0.000000 0.662745
0.000000 0.125490 0.662745
0.078431 0.125490 0.662745
0.164706 0.125490 0.662745
0.258824 0.125490 0.662745
0.360784 0.125490 0.662745
0.478431 0.125490 0.662745
0.631373 0.125490 0.662745
0.807843 0.125490 0.662745
1.000000 0.125490 0.662745
0.000000 0.250980 0.662745
0.078431 0.250980 0.662745
0.164706 0.250980 0.662745
0.258824 0.250980 0.662745
0.360784 0.250980 0.662745
0.478431 0.250980 0.662745
0.631373 0.250980 0.662745
0.807843 0.250980 0.662745
1.000000 0.250980 0.662745
0.000000 0.376471 0.662745
0.078431 0.376471 0.662745
0.164706 0.376471 0.662745
0.258824 0.376471 0.662745
0.360784 0.376471 0.662745
0.478431 0.376471 0.662745
0.631373 0.376471 0.662745
0.807843 0.376471 0.662745
1.000000 0.376471 0.662745
0.000000 0.501961 0.662745
0.078431 0.501961 0.662745
0.164706 0.501961 0.662745
0.258824 0.501961 0.662745
0.360784 0.501961 0.662745
0.478431 0.501961 0.662745
0.631373 0.501961 0.662745
0.807843 0.501961 0.662745
1.000000 0.501961 0.662745
0.000000 0.623529 0.662745
0.078431 0.623529 0.662745
0.164706 0.623529 0.662745
0.258824 0.623529 0.662745
0.360784 0.623529 0.662745
0.478431 0.623529 0.662745
0.631373 0.623529 0.662745
0.807843 0.623529 0.662745
1.000000 0.623529 0.662745
0.000000 0.749020 0.662745
0.078431 0.749020 0.662745
0.164706 0.749020 0.662745
0.258824 0.749020 0.662745
0.360784 0.749020 0.662745
0.478431 0.749020 0.662745
0.631373 0.749020 0.662745
0.807843 0.749020 0.662745
1.000000 0.749020 0.662745
0.000000 0.874510 0.662745
0.078431 0.874510 0.662745
0.164706 0.874510 0.662745
0.258824 0.874510 0.662745
0.360784 0.874510 0.662745
0.478431 0.874510 0.662745
0.631373 0.874510 0.662745
0.807843 0.874510 0.662745
1.000000 0.874510 0.662745
0.000000 1.000000 0.662745
0.078431 1.000000 0.662745
0.164706 1.000000 0.662745
0.258824 1.000000 0.662745
0.360784 1.000000 0.662745
0.478431 1.000000 0.662745
0.631373 1.000000 0.662745
0.807843 1.000000 0.662745
1.000000 1.000000 0.662745
0.000000 0.000000 0.760784
0.078431 0.000000 0.760784
0.164706 0.000000 0.760784
0.258824 0.000000 0.760784
0.360784 0.000000 0.760784
0.478431 0.000000 0.760784
0.631373 0.000000 0.760784
0.807843 0.000000 0.760784
1.000000 0.000000 0.760784
0.000000 0.125490 0.760784
0.078431 0.125490 0.760784
0.164706 0.125490 0.760784
0.258824 0.125490 0.760784
0.360784 0.125490 0.760784
0.478431 0.125490 0.760784
0.631373 0.125490 0.760784
0.807843 0.125490 0.760784
1.000000 0.125490 0.760784
0.000000 0.250980 0.760784
0.078431 0.250980 0.760784
0.164706 0.250980 0.760784
0.258824 0.250980 0.760784
0.360784 0.250980 0.760784
0.478431 0.250980 0.760784
0.631373 0.250980 0.760784
0.807843 0.250980 0.760784
1.000000 0.250980 0.760784
0.000000 0.376471 0.760784
0.078431 0.376471 0.760784
0.164706 0.376471 0.760784
0.258824 0.376471 0.760784
0.360784 0.376471 0.760784
0.478431 0.376471 0.760784
0.631373 0.376471 0.760784
0.807843 0.376471 0.760784
1.000000 0.376471 0.760784
0.000000 0.501961 0.760784
0.078431 0.501961 0.760784
0.164706 0.501961 0.760784
0.258824 0.501961 0.760784
0.360784 0.501961 0.760784
0.478431 0.501961 0.760784
0.631373 0.501961 0.760784
0.807843 0.501961 0.760784
1.000000 0.501961 0.760784
0.000000 0.623529 0.760784
0.078431 0.623529 0.760784
0.164706 0.623529 0.760784
0.258824 0.623529 0.760784
0.360784 0.623529 0.760784
0.478431 0.623529 0.760784
0.631373 0.623529 0.760784
0.807843 0.623529 0.760784
1.000000 0.623529 0.760784
0.000000 0.749020 0.760784
0.078431 0.749020 0.760784
0.164706 0.749020 0.760784
0.258824 0.749020 0.760784
0.360784 0.749020 0.760784
0.478431 0.749020 0.760784
0.631373 0.749020 0.760784
0.807843 0.749020 0.760784
1.000000 0.749020 0.760784
0.000000 0.874510 0.760784
0.078431 0.874510 0.760784
0.164706 0.874510 0.760784
0.258824 0.874510 0.760784
0.360784 0.874510 0.760784
0.478431 0.874510 0.760784
0.631373 0.874510 0.760784
0.807843 0.874510 0.760784
1.000000 0.874510 0.760784
0.000000 1.000000 0.760784
0.078431 1.000000 0.760784
0.164706 1.000000 0.760784
0.258824 1.000000 0.760784
0.360784 1.000000 0.760784
0.478431 1.000000 0.760784
0.631373 1.000000 0.760784
0.807843 1.000000 0.760784
1.000000 1.000000 0.760784
0.000000 0.000000 0.850980
0.078431 0.000000 0.850980
0.164706 0.000000 0.850980
0.258824 0.000000 0.850980
0.360784 0.000000 0.850980
0.478431 0.000000 0.850980
0.631373 0.000000 0.850980
0.807843 0.000000 0.850980
1.000000 0.000000 0.850980
0.000000 0.125490 0.850980
0.078431 0.125490 0.850980
0.164706 0.125490 0.850980
0.258824 0.125490 0.850980
0.360784 0.125490 0.850980
0.478431 0.125490 0.850980
0.631373 0.125490 0.850980
0.807843 0.125490 0.850980
1.000000 0.125490 0.850980
0.000000 0.250980 0.850980
0.078431 0.250980 0.850980
0.164706 0.250980 0.850980
0.258824 0.250980 0.850980
0.360784 0.250980 0.850980
0.478431 0.250980 0.850980
0.631373 0.250980 0.850980
0.807843 0.250980 0.850980
1.000000 0.250980 0.850980
0.000000 0.376471 0.850980
0.078431 0.376471 0.850980
0.164706 0.376471 0.850980
0.258824 0.376471 0.850980
0.360784 0.376471 0.850980
0.478431 0.376471 0.850980
0.631373 0.376471 0.850980
0.807843 0.376471 0.850980
1.000000 0.376471 0.850980
0.000000 0.501961 0.850980
0.078431 0.501961 0.850980
0.164706 0.501961 0.850980
0.258824 0.501961 0.850980
0.360784 0.501961 0.850980
0.478431 0.501961 0.850980
0.631373 0.501961 0.850980
0.807843 0.501961 0.850980
1.000000 0.501961 0.850980
0.000000 0.623529 0.850980
0.078431 0.623529 0.850980
0.164706 0.623529 0.850980
0.258824 0.623529 0.850980
0.360784 0.623529 0.850980
0.478431 0.623529 0.850980
0.631373 0.623529 0.850980
0.807843 0.623529 0.850980
1.000000 0.623529 0.850980
0.000000 0.749020 0.850980
0.078431 0.749020 0.850980
0.164706 0.749020 0.850980
0.258824 0.749020 0.850980
0.360784 0.749020 0.850980
0.478431 0.749020 0.850980
0.631373 0.749020 0.850980
0.807843 0.749020 0.850980
1.000000 0.749020 0.850980
0.000000 0.874510 0.850980
0.078431 0.874510 0.850980
0.164706 0.874510 0.850980
0.258824 0.874510 0.850980
0.360784 0.874510 0.850980
0.478431 0.874510 0.850980
0.631373 0.874510 0.850980
0.807843 0.874510 0.850980
1.000000 0.874510 0.850980
0.000000 1.000000 0.850980
0.078431 1.000000 0.850980
0.164706 1.000000 0.850980
0.258824 1.000000 0.850980
0.360784 1.000000 0.850980
0.478431 1.000000 0.850980
0.631373 1.000000 0.850980
0.807843 1.000000 0.850980
1.000000 1.000000 0.850980
0.000000 0.000000 0.929412
0.078431 0.000000 0.929412
0.164706 0.000000 0.929412
0.258824 0.000000 0.929412
0.360784 0.000000 0.929412
0.478431 0.000000 0.929412
0.631373 0.000000 0.929412
0.807843 0.000000 0.929412
1.000000 0.000000 0.929412
0.000000 0.125490 0.929412
0.078431 0.125490 0.929412
0.164706 0.125490 0.929412
0.258824 0.125490 0.929412
0.360784 0.125490 0.929412
0.478431 0.125490 0.929412
0.631373 0.125490 0.929412
0.807843 0.125490 0.929412
1.000000 0.125490 0.929412
0.000000 0.250980 0.929412
0.078431 0.250980 0.929412
0.164706 0.250980 0.929412
0.258824 0.250980 0.929412
0.360784 0.250980 0.929412
0.478431 0.250980 0.929412
0.631373 0.250980 0.929412
0.807843 0.250980 0.929412
1.000000 0.250980 0.929412
0.000000 0.376471 0.929412
0.078431 0.376471 0.929412
0.164706 0.376471 0.929412
0.258824 0.376471 0.929412
0.360784 0.376471 0.929412
0.478431 0.376471 0.929412
0.631373 0.376471 0.929412
0.807843 0.376471 0.929412
1.000000 0.376471 0.929412
0.000000 0.501961 0.929412
0.078431 0.501961 0.929412
0.164706 0.501961 0.929412
0.258824 0.501961 0.929412
0.360784 0.501961 0.929412
0.478431 0.501961 0.929412
0.631373 0.501961 0.929412
0.807843 0.501961 0.929412
1.000000 0.501961 0.929412
0.000000 0.623529 0.929412
0.078431 0.623529 0.929412
0.164706 0.623529 0.929412
0.258824 0.623529 0.929412
0.360784 0.623529 0.929412
0.478431 0.623529 0.929412
0.631373 0.623529 0.929412
0.807843 0.623529 0.929412
1.000000 0.623529 0.929412
0.000000 0.749020 0.929412
0.078431 0.749020 0.929412
0.164706 0.749020 0.929412
0.258824 0.749020 0.929412
0.360784 0.749020 0.929412
0.478431 0.749020 0.929412
0.631373 0.749020 0.929412
0.807843 0.749020 0.929412
1.000000 0.749020 0.929412
0.000000 0.874510 0.929412
0.078431 0.874510 0.929412
0.164706 0.874510 0.929412
0.258824 0.874510 0.929412
0.360784 0.874510 0.929412
0.478431 0.874510 0.929412
0.631373 0.874510 0.929412
0.807843 0.874510 0.929412
1.000000 0.874510 0.929412
0.000000 1.000000 0.929412
0.078431 1.000000 0.929412
0.164706 1.000000 0.929412
0.258824 1.000000 0.929412
0.360784 1.000000 0.929412
0.478431 1.000000 0.929412
0.631373 1.000000 0.929412
0.807843 1.000000 0.929412
1.000000 1.000000 0.929412
0.000000 0.000000 1.000000
0.078431 0.000000 1.000000
0.164706 0.000000 1.000000
0.258824 0.000000 1.000000
0.360784 0.000000 1.000000
0.478431 0.000000 1.000000
0.631373 0.000000 1.000000
0.807843 0.000000 1.000000
1.000000 0.000000 1.000000
0.000000 0.125490 1.000000
0.078431 0.125490 1.000000
0.164706 0.125490 1.000000
0.258824 0.125490 1.000000
0.360784 0.125490 1.000000
0.478431 0.125490 1.000000
0.631373 0.125490 1.000000
0.807843 0.125490 1.000000
1.000000 0.125490 1.000000
0.000000 0.250980 1.000000
0.078431 0.250980 1.000000
0.164706 0.250980 1.000000
0.258824 0.250980 1.000000
0.360784 0.250980 1.000000
0.478431 0.250980 1.000000
0.631373 0.250980 1.000000
0.807843 0.250980 1.000000
1.000000 0.250980 1.000000
0.000000 0.376471 1.000000
0.078431 0.376471 1.000000
0.164706 0.376471 1.000000
0.258824 0.376471 1.000000
0.360784 0.376471 1.000000
0.478431 0.376471 1.000000
0.631373 0.376471 1.000000
0.807843 0.376471 1.000000
1.000000 0.376471 1.000000
0.000000 0.501961 1.000000
0.078431 0.501961 1.000000
0.164706 0.501961 1.000000
0.258824 0.501961 1.000000
0.360784 0.501961 1.000000
0.478431 0.501961 1.000000
0.631373 0.501961 1.000000
0.807843 0.501961 1.000000
1.000000 0.501961 1.000000
0.000000 0.623529 1.000000
0.078431 0.623529 1.000000
0.164706 0.623529 1.000000
0.258824 0.623529 1.000000
0.360784 0.623529 1.000000
0.478431 0.623529 1.000000
0.631373 0.623529 1.000000
0.807843 0.623529 1.000000
1.000000 0.623529 1.000000
0.000000 0.749020 1.000000
0.078431 0.749020 1.000000
0.164706 0.749020 1.000000
0.258824 0.749020 1.000000
0.360784 0.749020 1.000000
0.478431 0.749020 1.000000
0.631373 0.749020 1.000000
0.807843 0.749020 1.000000
1.000000 0.749020 1.000000
0.000000 0.874510 1.000000
0.078431 0.874510 1.000000
0.164706 0.874510 1.000000
0.258824 0.874510 1.000000
0.360784 0.874510 1.000000
0.478431 0.874510 1.000000
0.631373 0.874510 1.000000
0.807843 0.874510 1.000000
1.000000 0.874510 1.000000
0.000000 1.000000 1.000000
0.078431 1.000000 1.000000
0.164706 1.000000 1.000000
0.258824 1.000000 1.000000
0.360784 1.000000 1.000000
0.478431 1.000000 1.000000
0.631373 1.000000 1.000000
0.807843 1.000000 1.000000
1.000000 1.000000 1.000000
