LUTs/Damaging/LUT_BLUE/extreme_blue.cube
#Generated by lutCreator.js
#Coded by SirSerch
#https://github.com/SirSerch/LutCreatorJs
TITLE lutCreatorJs_25
LUT_3D_SIZE 5
0.000000 0.000000 0.000000
0.227451 0.000000 0.000000
0.501961 0.000000 0.000000
0.772549 0.000000 0.000000
1.000000 0.000000 0.000000
0.000000 0.227451 0.000000
0.227451 0.227451 0.000000
0.501961 0.227451 0.000000
0.772549 0.227451 0.000000
1.000000 0.227451 0.000000
0.000000 0.501961 0.000000
0.227451 0.501961 0.000000
0.501961 0.501961 0.000000
0.772549 0.501961 0.000000
1.000000 0.501961 0.000000
0.000000 0.772549 0.000000
0.227451 0.772549 0.000000
0.501961 0.772549 0.000000
0.772549 0.772549 0.000000
1.000000 0.772549 0.000000
0.000000 1.000000 0.000000
0.227451 1.000000 0.000000
0.501961 1.000000 0.000000
0.772549 1.000000 0.000000
1.000000 1.000000 0.000000
0.000000 0.000000 0.470588
0.227451 0.000000 0.470588
0.501961 0.000000 0.470588
0.772549 0.000000 0.470588
1.000000 0.000000 0.470588
0.000000 0.227451 0.470588
0.227451 0.227451 0.470588
0.501961 0.227451 0.470588
0.772549 0.227451 0.470588
1.000000 0.227451 0.470588
0.000000 0.501961 0.470588
0.227451 0.501961 0.470588
0.501961 0.501961 0.470588
0.772549 0.501961 0.470588
1.000000 0.501961 0.470588
0.000000 0.772549 0.470588
0.227451 0.772549 0.470588
0.501961 0.772549 0.470588
0.772549 0.772549 0.470588
1.000000 0.772549 0.470588
0.000000 1.000000 0.470588
0.227451 1.000000 0.470588
0.501961 1.000000 0.470588
0.772549 1.000000 0.470588
1.000000 1.000000 0.470588
0.000000 0.000000 0.788235
0.227451 0.000000 0.788235
0.501961 0.000000 0.788235
0.772549 0.000000 0.788235
1.000000 0.000000 0.788235
0.000000 0.227451 0.788235
0.227451 0.227451 0.788235
0.501961 0.227451 0.788235
0.772549 0.227451 0.788235
1.000000 0.227451 0.788235
0.000000 0.501961 0.788235
0.227451 0.501961 0.788235
0.501961 0.501961 0.788235
0.772549 0.501961 0.788235
1.000000 0.501961 0.788235
0.000000 0.772549 0.788235
0.227451 0.772549 0.788235
0.501961 0.772549 0.788235
0.772549 0.772549 0.788235
1.000000 0.772549 0.788235
0.000000 1.000000 0.788235
0.227451 1.000000 0.788235
0.501961 1.000000 0.788235
0.772549 1.000000 0.788235
1.000000 1.000000 0.788235
0.000000 0.000000 0.929412
0.227451 0.000000 0.929412
0.501961 0.000000 0.929412
0.772549 0.000000 0.929412
1.000000 0.000000 0.929412
0.000000 0.227451 0.929412
0.227451 0.227451 0.929412
0.501961 0.227451 0.929412
0.772549 0.227451 0.929412
1.000000 0.227451 0.929412
0.000000 0.501961 0.929412
0.227451 0.501961 0.929412
0.501961 0.501961 0.929412
0.772549 0.501961 0.929412
1.000000 0.501961 0.929412
0.000000 0.772549 0.929412
0.227451 0.772549 0.929412
0.501961 0.772549 0.929412
0.772549 0.772549 0.929412
1.000000 0.772549 0.929412
0.000000 1.000000 0.929412
0.227451 1.000000 0.929412
0.501961 1.000000 0.929412
0.772549 1.000000 0.929412
1.000000 1.000000 0.929412
0.000000 0.000000 1.000000
0.227451 0.000000 1.000000
0.501961 0.000000 1.000000
0.772549 0.000000 1.000000
1.000000 0.000000 1.000000
0.000000 0.227451 1.000000
0.227451 0.227451 1.000000
0.501961 0.227451 1.000000
0.772549 0.227451 1.000000
1.000000 0.227451 1.000000
0.000000 0.501961 1.000000
0.227451 0.501961 1.000000
0.501961 0.501961 1.000000
0.772549 0.501961 1.000000
1.000000 0.501961 1.000000
0.000000 0.772549 1.000000
0.227451 0.772549 1.000000
0.501961 0.772549 1.000000
0.772549 0.772549 1.000000
1.000000 0.772549 1.000000
0.000000 1.000000 1.000000
0.227451 1.000000 1.000000
0.501961 1.000000 1.000000
0.772549 1.000000 1.000000
1.000000 1.000000 1.000000
