LUTs/Damaging/LUT_BLUE/extreme_blue.cube
#Generated by lutCreator.js
#Coded by SirSerch
#https://github.com/SirSerch/LutCreatorJs
TITLE lutCreatorJs_25
LUT_3D_SIZE 9
0.000000 0.000000 0.000000
0.090196 0.000000 0.000000
0.227451 0.000000 0.000000
0.364706 0.000000 0.000000
0.501961 0.000000 0.000000
0.635294 0.000000 0.000000
0.772549 0.000000 0.000000
0.909804 0.000000 0.000000
1.000000 0.000000 0.000000
0.000000 0.090196 0.000000
0.090196 0.090196 0.000000
0.227451 0.090196 0.000000
0.364706 0.090196 0.000000
0.501961 0.090196 0.000000
0.635294 0.090196 0.000000
0.772549 0.090196 0.000000
0.909804 0.090196 0.000000
1.000000 0.090196 0.000000
0.000000 0.227451 0.000000
0.090196 0.227451 0.000000
0.227451 0.227451 0.000000
0.364706 0.227451 0.000000
0.501961 0.227451 0.000000
0.635294 0.227451 0.000000
0.772549 0.227451 0.000000
0.909804 0.227451 0.000000
1.000000 0.227451 0.000000
0.000000 0.364706 0.000000
0.090196 0.364706 0.000000
0.227451 0.364706 0.000000
0.364706 0.364706 0.000000
0.501961 0.364706 0.000000
0.635294 0.364706 0.000000
0.772549 0.364706 0.000000
0.909804 0.364706 0.000000
1.000000 0.364706 0.000000
0.000000 0.501961 0.000000
0.090196 0.501961 0.000000
0.227451 0.501961 0.000000
0.364706 0.501961 0.000000
0.501961 0.501961 0.000000
0.635294 0.501961 0.000000
0.772549 0.501961 0.000000
0.909804 0.501961 0.000000
1.000000 0.501961 0.000000
0.000000 0.635294 0.000000
0.090196 0.635294 0.000000
0.227451 0.635294 0.000000
0.364706 0.635294 0.000000
0.501961 0.635294 0.000000
0.635294 0.635294 0.000000
0.772549 0.635294 0.000000
0.909804 0.635294 0.000000
1.000000 0.635294 0.000000
0.000000 0.772549 0.000000
0.090196 0.772549 0.000000
0.227451 0.772549 0.000000
0.364706 0.772549 0.000000
0.501961 0.772549 0.000000
0.635294 0.772549 0.000000
0.772549 0.772549 0.000000
0.909804 0.772549 0.000000
1.000000 0.772549 0.000000
0.000000 0.909804 0.000000
0.090196 0.909804 0.000000
0.227451 0.909804 0.000000
0.364706 0.909804 0.000000
0.501961 0.909804 0.000000
0.635294 0.909804 0.000000
0.772549 0.909804 0.000000
0.909804 0.909804 0.000000
1.000000 0.909804 0.000000
0.000000 1.000000 0.000000
0.090196 1.000000 0.000000
0.227451 1.000000 0.000000
0.364706 1.000000 0.000000
0.501961 1.000000 0.000000
0.635294 1.000000 0.000000
0.772549 1.000000 0.000000
0.909804 1.000000 0.000000
1.000000 1.000000 0.000000
0.000000 0.000000 0.200000
0.090196 0.000000 0.200000
0.227451 0.000000 0.200000
0.364706 0.000000 0.200000
0.501961 0.000000 0.200000
0.635294 0.000000 0.200000
0.772549 0.000000 0.200000
0.909804 0.000000 0.200000
1.000000 0.000000 0.200000
0.000000 0.090196 0.200000
0.090196 0.090196 0.200000
0.227451 0.090196 0.200000
0.364706 0.090196 0.200000
0.501961 0.090196 0.200000
0.635294 0.090196 0.200000
0.772549 0.090196 0.200000
0.909804 0.090196 0.200000
1.000000 0.090196 0.200000
0.000000 0.227451 0.200000
0.090196 0.227451 0.200000
0.227451 0.227451 0.200000
0.364706 0.227451 0.200000
0.501961 0.227451 0.200000
0.635294 0.227451 0.200000
0.772549 0.227451 0.200000
0.909804 0.227451 0.200000
1.000000 0.227451 0.200000
0.000000 0.364706 0.200000
0.090196 0.364706 0.200000
0.227451 0.364706 0.200000
0.364706 0.364706 0.200000
0.501961 0.364706 0.200000
0.635294 0.364706 0.200000
0.772549 0.364706 0.200000
0.909804 0.364706 0.200000
1.000000 0.364706 0.200000
0.000000 0.501961 0.200000
0.090196 0.501961 0.200000
0.227451 0.501961 0.200000
0.364706 0.501961 0.200000
0.501961 0.501961 0.200000
0.635294 0.501961 0.200000
0.772549 0.501961 0.200000
0.909804 0.501961 0.200000
1.000000 0.501961 0.200000
0.000000 0.635294 0.200000
0.090196 0.635294 0.200000
0.227451 0.635294 0.200000
0.364706 0.635294 0.200000
0.501961 0.635294 0.200000
0.635294 0.635294 0.200000
0.772549 0.635294 0.200000
0.909804 0.635294 0.200000
1.000000 0.635294 0.200000
0.000000 0.772549 0.200000
0.090196 0.772549 0.200000
0.227451 0.772549 0.200000
0.364706 0.772549 0.200000
0.501961 0.772549 0.200000
0.635294 0.772549 0.200000
0.772549 0.772549 0.200000
0.909804 0.772549 0.200000
1.000000 0.772549 0.200000
0.000000 0.909804 0.200000
0.090196 0.909804 0.200000
0.227451 0.909804 0.200000
0.364706 0.909804 0.200000
0.501961 0.909804 0.200000
0.635294 0.909804 0.200000
0.772549 0.909804 0.200000
0.909804 0.909804 0.200000
1.000000 0.909804 0.200000
0.000000 1.000000 0.200000
0.090196 1.000000 0.200000
0.227451 1.000000 0.200000
0.364706 1.000000 0.200000
0.501961 1.000000 0.200000
0.635294 1.000000 0.200000
0.772549 1.000000 0.200000
0.909804 1.000000 0.200000
1.000000 1.000000 0.200000
0.000000 0.000000 0.470588
0.090196 0.000000 0.470588
0.227451 0.000000 0.470588
0.364706 0.000000 0.470588
0.501961 0.000000 0.470588
0.635294 0.000000 0.470588
0.772549 0.000000 0.470588
0.909804 0.000000 0.470588
1.000000 0.000000 0.470588
0.000000 0.090196 0.470588
0.090196 0.090196 0.470588
0.227451 0.090196 0.470588
0.364706 0.090196 0.470588
0.501961 0.090196 0.470588
0.635294 0.090196 0.470588
0.772549 0.090196 0.470588
0.909804 0.090196 0.470588
1.000000 0.090196 0.470588
0.000000 0.227451 0.470588
0.090196 0.227451 0.470588
0.227451 0.227451 0.470588
0.364706 0.227451 0.470588
0.501961 0.227451 0.470588
0.635294 0.227451 0.470588
0.772549 0.227451 0.470588
0.909804 0.227451 0.470588
1.000000 0.227451 0.470588
0.000000 0.364706 0.470588
0.090196 0.364706 0.470588
0.227451 0.364706 0.470588
0.364706 0.364706 0.470588
0.501961 0.364706 0.470588
0.635294 0.364706 0.470588
0.772549 0.364706 0.470588
0.909804 0.364706 0.470588
1.000000 0.364706 0.470588
0.000000 0.501961 0.470588
0.090196 0.501961 0.470588
0.227451 0.501961 0.470588
0.364706 0.501961 0.470588
0.501961 0.501961 0.470588
0.635294 0.501961 0.470588
0.772549 0.501961 0.470588
0.909804 0.501961 0.470588
1.000000 0.501961 0.470588
0.000000 0.635294 0.470588
0.090196 0.635294 0.470588
0.227451 0.635294 0.470588
0.364706 0.635294 0.470588
0.501961 0.635294 0.470588
0.635294 0.635294 0.470588
0.772549 0.635294 0.470588
0.909804 0.635294 0.470588
1.000000 0.635294 0.470588
0.000000 0.772549 0.470588
0.090196 0.772549 0.470588
0.227451 0.772549 0.470588
0.364706 0.772549 0.470588
0.501961 0.772549 0.470588
0.635294 0.772549 0.470588
0.772549 0.772549 0.470588
0.909804 0.772549 0.470588
1.000000 0.772549 0.470588
0.000000 0.909804 0.470588
0.090196 0.909804 0.470588
0.227451 0.909804 0.470588
0.364706 0.909804 0.470588
0.501961 0.909804 0.470588
0.635294 0.909804 0.470588
0.772549 0.909804 0.470588
0.909804 0.909804 0.470588
1.000000 0.909804 0.470588
0.000000 1.000000 0.470588
0.090196 1.000000 0.470588
0.227451 1.000000 0.470588
0.364706 1.000000 0.470588
0.501961 1.000000 0.470588
0.635294 1.000000 0.470588
0.772549 1.000000 0.470588
0.909804 1.000000 0.470588
1.000000 1.000000 0.470588
0.000000 0.000000 0.666667
0.090196 0.000000 0.666667
0.227451 0.000000 0.666667
0.364706 0.000000 0.666667
0.501961 0.000000 0.666667
0.635294 0.000000 0.666667
0.772549 0.000000 0.666667
0.909804 0.000000 0.666667
1.000000 0.000000 0.666667
0.000000 0.090196 0.666667
0.090196 0.090196 0.666667
0.227451 0.090196 0.666667
0.364706 0.090196 0.666667
0.501961 0.090196 0.666667
0.635294 0.090196 0.666667
0.772549 0.090196 0.666667
0.909804 0.090196 0.666667
1.000000 0.090196 0.666667
0.000000 0.227451 0.666667
0.090196 0.227451 0.666667
0.227451 0.227451 0.666667
0.364706 0.227451 0.666667
0.501961 0.227451 0.666667
0.635294 0.227451 0.666667
0.772549 0.227451 0.666667
0.909804 0.227451 0.666667
1.000000 0.227451 0.666667
0.000000 0.364706 0.666667
0.090196 0.364706 0.666667
0.227451 0.364706 0.666667
0.364706 0.364706 0.666667
0.501961 0.364706 0.666667
0.635294 0.364706 0.666667
0.772549 0.364706 0.666667
0.909804 0.364706 0.666667
1.000000 0.364706 0.666667
0.000000 0.501961 0.666667
0.090196 0.501961 0.666667
0.227451 0.501961 0.666667
0.364706 0.501961 0.666667
0.501961 0.501961 0.666667
0.635294 0.501961 0.666667
0.772549 0.501961 0.666667
0.909804 0.501961 0.666667
1.000000 0.501961 0.666667
0.000000 0.635294 0.666667
0.090196 0.635294 0.666667
0.227451 0.635294 0.666667
0.364706 0.635294 0.666667
0.501961 0.635294 0.666667
0.635294 0.635294 0.666667
0.772549 0.635294 0.666667
0.909804 0.635294 0.666667
1.000000 0.635294 0.666667
0.000000 0.772549 0.666667
0.090196 0.772549 0.666667
0.227451 0.772549 0.666667
0.364706 0.772549 0.666667
0.501961 0.772549 0.666667
0.635294 0.772549 0.666667
0.772549 0.772549 0.666667
0.909804 0.772549 0.666667
1.000000 0.772549 0.666667
0.000000 0.909804 0.666667
0.090196 0.909804 0.666667
0.227451 0.909804 0.666667
0.364706 0.909804 0.666667
0.501961 0.909804 0.666667
0.635294 0.909804 0.666667
0.772549 0.909804 0.666667
0.909804 0.909804 0.666667
1.000000 0.909804 0.666667
0.000000 1.000000 0.666667
0.090196 1.000000 0.666667
0.227451 1.000000 0.666667
0.364706 1.000000 0.666667
0.501961 1.000000 0.666667
0.635294 1.000000 0.666667
0.772549 1.000000 0.666667
0.909804 1.000000 0.666667
1.000000 1.000000 0.666667
0.000000 0.000000 0.788235
0.090196 0.000000 0.788235
0.227451 0.000000 0.788235
0.364706 0.000000 0.788235
0.501961 0.000000 0.788235
0.635294 0.000000 0.788235
0.772549 0.000000 0.788235
0.909804 0.000000 0.788235
1.000000 0.000000 0.788235
0.000000 0.090196 0.788235
0.090196 0.090196 0.788235
0.227451 0.090196 0.788235
0.364706 0.090196 0.788235
0.501961 0.090196 0.788235
0.635294 0.090196 0.788235
0.772549 0.090196 0.788235
0.909804 0.090196 0.788235
1.000000 0.090196 0.788235
0.000000 0.227451 0.788235
0.090196 0.227451 0.788235
0.227451 0.227451 0.788235
0.364706 0.227451 0.788235
0.501961 0.227451 0.788235
0.635294 0.227451 0.788235
0.772549 0.227451 0.788235
0.909804 0.227451 0.788235
1.000000 0.227451 0.788235
0.000000 0.364706 0.788235
0.090196 0.364706 0.788235
0.227451 0.364706 0.788235
0.364706 0.364706 0.788235
0.501961 0.364706 0.788235
0.635294 0.364706 0.788235
0.772549 0.364706 0.788235
0.909804 0.364706 0.788235
1.000000 0.364706 0.788235
0.000000 0.501961 0.788235
0.090196 0.501961 0.788235
0.227451 0.501961 0.788235
0.364706 0.501961 0.788235
0.501961 0.501961 0.788235
0.635294 0.501961 0.788235
0.772549 0.501961 0.788235
0.909804 0.501961 0.788235
1.000000 0.501961 0.788235
0.000000 0.635294 0.788235
0.090196 0.635294 0.788235
0.227451 0.635294 0.788235
0.364706 0.635294 0.788235
0.501961 0.635294 0.788235
0.635294 0.635294 0.788235
0.772549 0.635294 0.788235
0.909804 0.635294 0.788235
1.000000 0.635294 0.788235
0.000000 0.772549 0.788235
0.090196 0.772549 0.788235
0.227451 0.772549 0.788235
0.364706 0.772549 0.788235
0.501961 0.772549 0.788235
0.635294 0.772549 0.788235
0.772549 0.772549 0.788235
0.909804 0.772549 0.788235
1.000000 0.772549 0.788235
0.000000 0.909804 0.788235
0.090196 0.909804 0.788235
0.227451 0.909804 0.788235
0.364706 0.909804 0.788235
0.501961 0.909804 0.788235
0.635294 0.909804 0.788235
0.772549 0.909804 0.788235
0.909804 0.909804 0.788235
1.000000 0.909804 0.788235
0.000000 1.000000 0.788235
0.090196 1.000000 0.788235
0.227451 1.000000 0.788235
0.364706 1.000000 0.788235
0.501961 1.000000 0.788235
0.635294 1.000000 0.788235
0.772549 1.000000 0.788235
0.909804 1.000000 0.788235
1.000000 1.000000 0.788235
0.000000 0.000000 0.870588
0.090196 0.000000 0.870588
0.227451 0.000000 0.870588
0.364706 0.000000 0.870588
0.501961 0.000000 0.870588
0.635294 0.000000 0.870588
0.772549 0.000000 0.870588
0.909804 0.000000 0.870588
1.000000 0.000000 0.870588
0.000000 0.090196 0.870588
0.090196 0.090196 0.870588
0.227451 0.090196 0.870588
0.364706 0.090196 0.870588
0.501961 0.090196 0.870588
0.635294 0.090196 0.870588
0.772549 0.090196 0.870588
0.909804 0.090196 0.870588
1.000000 0.090196 0.870588
0.000000 0.227451 0.870588
0.090196 0.227451 0.870588
0.227451 0.227451 0.870588
0.364706 0.227451 0.870588
0.501961 0.227451 0.870588
0.635294 0.227451 0.870588
0.772549 0.227451 0.870588
0.909804 0.227451 0.870588
1.000000 0.227451 0.870588
0.000000 0.364706 0.870588
0.090196 0.364706 0.870588
0.227451 0.364706 0.870588
0.364706 0.364706 0.870588
0.501961 0.364706 0.870588
0.635294 0.364706 0.870588
0.772549 0.364706 0.870588
0.909804 0.364706 0.870588
1.000000 0.364706 0.870588
0.000000 0.501961 0.870588
0.090196 0.501961 0.870588
0.227451 0.501961 0.870588
0.364706 0.501961 0.870588
0.501961 0.501961 0.870588
0.635294 0.501961 0.870588
0.772549 0.501961 0.870588
0.909804 0.501961 0.870588
1.000000 0.501961 0.870588
0.000000 0.635294 0.870588
0.090196 0.635294 0.870588
0.227451 0.635294 0.870588
0.364706 0.635294 0.870588
0.501961 0.635294 0.870588
0.635294 0.635294 0.870588
0.772549 0.635294 0.870588
0.909804 0.635294 0.870588
1.000000 0.635294 0.870588
0.000000 0.772549 0.870588
0.090196 0.772549 0.870588
0.227451 0.772549 0.870588
0.364706 0.772549 0.870588
0.501961 0.772549 0.870588
0.635294 0.772549 0.870588
0.772549 0.772549 0.870588
0.909804 0.772549 0.870588
1.000000 0.772549 0.870588
0.000000 0.909804 0.870588
0.090196 0.909804 0.870588
0.227451 0.909804 0.870588
0.364706 0.909804 0.870588
0.501961 0.909804 0.870588
0.635294 0.909804 0.870588
0.772549 0.909804 0.870588
0.909804 0.909804 0.870588
1.000000 0.909804 0.870588
0.000000 1.000000 0.870588
0.090196 1.000000 0.870588
0.227451 1.000000 0.870588
0.364706 1.000000 0.870588
0.501961 1.000000 0.870588
0.635294 1.000000 0.870588
0.772549 1.000000 0.870588
0.909804 1.000000 0.870588
1.000000 1.000000 0.870588
0.000000 0.000000 0.929412
0.090196 0.000000 0.929412
0.227451 0.000000 0.929412
0.364706 0.000000 0.929412
0.501961 0.000000 0.929412
0.635294 0.000000 0.929412
0.772549 0.000000 0.929412
0.909804 0.000000 0.929412
1.000000 0.000000 0.929412
0.000000 0.090196 0.929412
0.090196 0.090196 0.929412
0.227451 0.090196 0.929412
0.364706 0.090196 0.929412
0.501961 0.090196 0.929412
0.635294 0.090196 0.929412
0.772549 0.090196 0.929412
0.909804 0.090196 0.929412
1.000000 0.090196 0.929412
0.000000 0.227451 0.929412
0.090196 0.227451 0.929412
0.227451 0.227451 0.929412
0.364706 0.227451 0.929412
0.501961 0.227451 0.929412
0.635294 0.227451 0.929412
0.772549 0.227451 0.929412
0.909804 0.227451 0.929412
1.000000 0.227451 0.929412
0.000000 0.364706 0.929412
0.090196 0.364706 0.929412
0.227451 0.364706 0.929412
0.364706 0.364706 0.929412
0.501961 0.364706 0.929412
0.635294 0.364706 0.929412
0.772549 0.364706 0.929412
0.909804 0.364706 0.929412
1.000000 0.364706 0.929412
0.000000 0.501961 0.929412
0.090196 0.501961 0.929412
0.227451 0.501961 0.929412
0.364706 0.501961 0.929412
0.501961 0.501961 0.929412
0.635294 0.501961 0.929412
0.772549 0.501961 0.929412
0.909804 0.501961 0.929412
1.000000 0.501961 0.929412
0.000000 0.635294 0.929412
0.090196 0.635294 0.929412
0.227451 0.635294 0.929412
0.364706 0.635294 0.929412
0.501961 0.635294 0.929412
0.635294 0.635294 0.929412
0.772549 0.635294 0.929412
0.909804 0.635294 0.929412
1.000000 0.635294 0.929412
0.000000 0.772549 0.929412
0.090196 0.772549 0.929412
0.227451 0.772549 0.929412
0.364706 0.772549 0.929412
0.501961 0.772549 0.929412
0.635294 0.772549 0.929412
0.772549 0.772549 0.929412
0.909804 0.772549 0.929412
1.000000 0.772549 0.929412
0.000000 0.909804 0.929412
0.090196 0.909804 0.929412
0.227451 0.909804 0.929412
0.364706 0.909804 0.929412
0.501961 0.909804 0.929412
0.635294 0.909804 0.929412
0.772549 0.909804 0.929412
0.909804 0.909804 0.929412
1.000000 0.909804 0.929412
0.000000 1.000000 0.929412
0.090196 1.000000 0.929412
0.227451 1.000000 0.929412
0.364706 1.000000 0.929412
0.501961 1.000000 0.929412
0.635294 1.000000 0.929412
0.772549 1.000000 0.929412
0.909804 1.000000 0.929412
1.000000 1.000000 0.929412
0.000000 0.000000 0.976471
0.090196 0.000000 0.976471
0.227451 0.000000 0.976471
0.364706 0.000000 0.976471
0.501961 0.000000 0.976471
0.635294 0.000000 0.976471
0.772549 0.000000 0.976471
0.909804 0.000000 0.976471
1.000000 0.000000 0.976471
0.000000 0.090196 0.976471
0.090196 0.090196 0.976471
0.227451 0.090196 0.976471
0.364706 0.090196 0.976471
0.501961 0.090196 0.976471
0.635294 0.090196 0.976471
0.772549 0.090196 0.976471
0.909804 0.090196 0.976471
1.000000 0.090196 0.976471
0.000000 0.227451 0.976471
0.090196 0.227451 0.976471
0.227451 0.227451 0.976471
0.364706 0.227451 0.976471
0.501961 0.227451 0.976471
0.635294 0.227451 0.976471
0.772549 0.227451 0.976471
0.909804 0.227451 0.976471
1.000000 0.227451 0.976471
0.000000 0.364706 0.976471
0.090196 0.364706 0.976471
0.227451 0.364706 0.976471
0.364706 0.364706 0.976471
0.501961 0.364706 0.976471
0.635294 0.364706 0.976471
0.772549 0.364706 0.976471
0.909804 0.364706 0.976471
1.000000 0.364706 0.976471
0.000000 0.501961 0.976471
0.090196 0.501961 0.976471
0.227451 0.501961 0.976471
0.364706 0.501961 0.976471
0.501961 0.501961 0.976471
0.635294 0.501961 0.976471
0.772549 0.501961 0.976471
0.909804 0.501961 0.976471
1.000000 0.501961 0.976471
0.000000 0.635294 0.976471
0.090196 0.635294 0.976471
0.227451 0.635294 0.976471
0.364706 0.635294 0.976471
0.501961 0.635294 0.976471
0.635294 0.635294 0.976471
0.772549 0.635294 0.976471
0.909804 0.635294 0.976471
1.000000 0.635294 0.976471
0.000000 0.772549 0.976471
0.090196 0.772549 0.976471
0.227451 0.772549 0.976471
0.364706 0.772549 0.976471
0.501961 0.772549 0.976471
0.635294 0.772549 0.976471
0.772549 0.772549 0.976471
0.909804 0.772549 0.976471
1.000000 0.772549 0.976471
0.000000 0.909804 0.976471
0.090196 0.909804 0.976471
0.227451 0.909804 0.976471
0.364706 0.909804 0.976471
0.501961 0.909804 0.976471
0.635294 0.909804 0.976471
0.772549 0.909804 0.976471
0.909804 0.909804 0.976471
1.000000 0.909804 0.976471
0.000000 1.000000 0.976471
0.090196 1.000000 0.976471
0.227451 1.000000 0.976471
0.364706 1.000000 0.976471
0.501961 1.000000 0.976471
0.635294 1.000000 0.976471
0.772549 1.000000 0.976471
0.909804 1.000000 0.976471
1.000000 1.000000 0.976471
0.000000 0.000000 1.000000
0.090196 0.000000 1.000000
0.227451 0.000000 1.000000
0.364706 0.000000 1.000000
0.501961 0.000000 1.000000
0.635294 0.000000 1.000000
0.772549 0.000000 1.000000
0.909804 0.000000 1.000000
1.000000 0.000000 1.000000
0.000000 0.090196 1.000000
0.090196 0.090196 1.000000
0.227451 0.090196 1.000000
0.364706 0.090196 1.000000
0.501961 0.090196 1.000000
0.635294 0.090196 1.000000
0.772549 0.090196 1.000000
0.909804 0.090196 1.000000
1.000000 0.090196 1.000000
0.000000 0.227451 1.000000
0.090196 0.227451 1.000000
0.227451 0.227451 1.000000
0.364706 0.227451 1.000000
0.501961 0.227451 1.000000
0.635294 0.227451 1.000000
0.772549 0.227451 1.000000
0.909804 0.227451 1.000000
1.000000 0.227451 1.000000
0.000000 0.364706 1.000000
0.090196 0.364706 1.000000
0.227451 0.364706 1.000000
0.364706 0.364706 1.000000
0.501961 0.364706 1.000000
0.635294 0.364706 1.000000
0.772549 0.364706 1.000000
0.909804 0.364706 1.000000
1.000000 0.364706 1.000000
0.000000 0.501961 1.000000
0.090196 0.501961 1.000000
0.227451 0.501961 1.000000
0.364706 0.501961 1.000000
0.501961 0.501961 1.000000
0.635294 0.501961 1.000000
0.772549 0.501961 1.000000
0.909804 0.501961 1.000000
1.000000 0.501961 1.000000
0.000000 0.635294 1.000000
0.090196 0.635294 1.000000
0.227451 0.635294 1.000000
0.364706 0.635294 1.000000
0.501961 0.635294 1.000000
0.635294 0.635294 1.000000
0.772549 0.635294 1.000000
0.909804 0.635294 1.000000
1.000000 0.635294 1.000000
0.000000 0.772549 1.000000
0.090196 0.772549 1.000000
0.227451 0.772549 1.000000
0.364706 0.772549 1.000000
0.501961 0.772549 1.000000
0.635294 0.772549 1.000000
0.772549 0.772549 1.000000
0.909804 0.772549 1.000000
1.000000 0.772549 1.000000
0.000000 0.909804 1.000000
0.090196 0.909804 1.000000
0.227451 0.909804 1.000000
0.364706 0.909804 1.000000
0.501961 0.909804 1.000000
0.635294 0.909804 1.000000
0.772549 0.909804 1.000000
0.909804 0.909804 1.000000
1.000000 0.909804 1.000000
0.000000 1.000000 1.000000
0.090196 1.000000 1.000000
0.227451 1.000000 1.000000
0.364706 1.000000 1.000000
0.501961 1.000000 1.000000
0.635294 1.000000 1.000000
0.772549 1.000000 1.000000
0.909804 1.000000 1.000000
1.000000 1.000000 1.000000
