LUTs/Damaging/LUT_BLUE/extreme_blue.cube
#Generated by lutCreator.js
#Coded by SirSerch
#https://github.com/SirSerch/LutCreatorJs
TITLE lutCreatorJs_25
LUT_3D_SIZE 25
0.000000 0.000000 0.000000
0.000000 0.000000 0.000000
0.043137 0.000000 0.000000
0.090196 0.000000 0.000000
0.137255 0.000000 0.000000
0.180392 0.000000 0.000000
0.227451 0.000000 0.000000
0.270588 0.000000 0.000000
0.317647 0.000000 0.000000
0.364706 0.000000 0.000000
0.407843 0.000000 0.000000
0.454902 0.000000 0.000000
0.501961 0.000000 0.000000
0.545098 0.000000 0.000000
0.592157 0.000000 0.000000
0.635294 0.000000 0.000000
0.682353 0.000000 0.000000
0.729412 0.000000 0.000000
0.772549 0.000000 0.000000
0.819608 0.000000 0.000000
0.866667 0.000000 0.000000
0.909804 0.000000 0.000000
0.956863 0.000000 0.000000
1.000000 0.000000 0.000000
1.000000 0.000000 0.000000
0.000000 0.000000 0.000000
0.000000 0.000000 0.000000
0.043137 0.000000 0.000000
0.090196 0.000000 0.000000
0.137255 0.000000 0.000000
0.180392 0.000000 0.000000
0.227451 0.000000 0.000000
0.270588 0.000000 0.000000
0.317647 0.000000 0.000000
0.364706 0.000000 0.000000
0.407843 0.000000 0.000000
0.454902 0.000000 0.000000
0.501961 0.000000 0.000000
0.545098 0.000000 0.000000
0.592157 0.000000 0.000000
0.635294 0.000000 0.000000
0.682353 0.000000 0.000000
0.729412 0.000000 0.000000
0.772549 0.000000 0.000000
0.819608 0.000000 0.000000
0.866667 0.000000 0.000000
0.909804 0.000000 0.000000
0.956863 0.000000 0.000000
1.000000 0.000000 0.000000
1.000000 0.000000 0.000000
0.000000 0.043137 0.000000
0.000000 0.043137 0.000000
0.043137 0.043137 0.000000
0.090196 0.043137 0.000000
0.137255 0.043137 0.000000
0.180392 0.043137 0.000000
0.227451 0.043137 0.000000
0.270588 0.043137 0.000000
0.317647 0.043137 0.000000
0.364706 0.043137 0.000000
0.407843 0.043137 0.000000
0.454902 0.043137 0.000000
0.501961 0.043137 0.000000
0.545098 0.043137 0.000000
0.592157 0.043137 0.000000
0.635294 0.043137 0.000000
0.682353 0.043137 0.000000
0.729412 0.043137 0.000000
0.772549 0.043137 0.000000
0.819608 0.043137 0.000000
0.866667 0.043137 0.000000
0.909804 0.043137 0.000000
0.956863 0.043137 0.000000
1.000000 0.043137 0.000000
1.000000 0.043137 0.000000
0.000000 0.090196 0.000000
0.000000 0.090196 0.000000
0.043137 0.090196 0.000000
0.090196 0.090196 0.000000
0.137255 0.090196 0.000000
0.180392 0.090196 0.000000
0.227451 0.090196 0.000000
0.270588 0.090196 0.000000
0.317647 0.090196 0.000000
0.364706 0.090196 0.000000
0.407843 0.090196 0.000000
0.454902 0.090196 0.000000
0.501961 0.090196 0.000000
0.545098 0.090196 0.000000
0.592157 0.090196 0.000000
0.635294 0.090196 0.000000
0.682353 0.090196 0.000000
0.729412 0.090196 0.000000
0.772549 0.090196 0.000000
0.819608 0.090196 0.000000
0.866667 0.090196 0.000000
0.909804 0.090196 0.000000
0.956863 0.090196 0.000000
1.000000 0.090196 0.000000
1.000000 0.090196 0.000000
0.000000 0.137255 0.000000
0.000000 0.137255 0.000000
0.043137 0.137255 0.000000
0.090196 0.137255 0.000000
0.137255 0.137255 0.000000
0.180392 0.137255 0.000000
0.227451 0.137255 0.000000
0.270588 0.137255 0.000000
0.317647 0.137255 0.000000
0.364706 0.137255 0.000000
0.407843 0.137255 0.000000
0.454902 0.137255 0.000000
0.501961 0.137255 0.000000
0.545098 0.137255 0.000000
0.592157 0.137255 0.000000
0.635294 0.137255 0.000000
0.682353 0.137255 0.000000
0.729412 0.137255 0.000000
0.772549 0.137255 0.000000
0.819608 0.137255 0.000000
0.866667 0.137255 0.000000
0.909804 0.137255 0.000000
0.956863 0.137255 0.000000
1.000000 0.137255 0.000000
1.000000 0.137255 0.000000
0.000000 0.180392 0.000000
0.000000 0.180392 0.000000
0.043137 0.180392 0.000000
0.090196 0.180392 0.000000
0.137255 0.180392 0.000000
0.180392 0.180392 0.000000
0.227451 0.180392 0.000000
0.270588 0.180392 0.000000
0.317647 0.180392 0.000000
0.364706 0.180392 0.000000
0.407843 0.180392 0.000000
0.454902 0.180392 0.000000
0.501961 0.180392 0.000000
0.545098 0.180392 0.000000
0.592157 0.180392 0.000000
0.635294 0.180392 0.000000
0.682353 0.180392 0.000000
0.729412 0.180392 0.000000
0.772549 0.180392 0.000000
0.819608 0.180392 0.000000
0.866667 0.180392 0.000000
0.909804 0.180392 0.000000
0.956863 0.180392 0.000000
1.000000 0.180392 0.000000
1.000000 0.180392 0.000000
0.000000 0.227451 0.000000
0.000000 0.227451 0.000000
0.043137 0.227451 0.000000
0.090196 0.227451 0.000000
0.137255 0.227451 0.000000
0.180392 0.227451 0.000000
0.227451 0.227451 0.000000
0.270588 0.227451 0.000000
0.317647 0.227451 0.000000
0.364706 0.227451 0.000000
0.407843 0.227451 0.000000
0.454902 0.227451 0.000000
0.501961 0.227451 0.000000
0.545098 0.227451 0.000000
0.592157 0.227451 0.000000
0.635294 0.227451 0.000000
0.682353 0.227451 0.000000
0.729412 0.227451 0.000000
0.772549 0.227451 0.000000
0.819608 0.227451 0.000000
0.866667 0.227451 0.000000
0.909804 0.227451 0.000000
0.956863 0.227451 0.000000
1.000000 0.227451 0.000000
1.000000 0.227451 0.000000
0.000000 0.270588 0.000000
0.000000 0.270588 0.000000
0.043137 0.270588 0.000000
0.090196 0.270588 0.000000
0.137255 0.270588 0.000000
0.180392 0.270588 0.000000
0.227451 0.270588 0.000000
0.270588 0.270588 0.000000
0.317647 0.270588 0.000000
0.364706 0.270588 0.000000
0.407843 0.270588 0.000000
0.454902 0.270588 0.000000
0.501961 0.270588 0.000000
0.545098 0.270588 0.000000
0.592157 0.270588 0.000000
0.635294 0.270588 0.000000
0.682353 0.270588 0.000000
0.729412 0.270588 0.000000
0.772549 0.270588 0.000000
0.819608 0.270588 0.000000
0.866667 0.270588 0.000000
0.909804 0.270588 0.000000
0.956863 0.270588 0.000000
1.000000 0.270588 0.000000
1.000000 0.270588 0.000000
0.000000 0.317647 0.000000
0.000000 0.317647 0.000000
0.043137 0.317647 0.000000
0.090196 0.317647 0.000000
0.137255 0.317647 0.000000
0.180392 0.317647 0.000000
0.227451 0.317647 0.000000
0.270588 0.317647 0.000000
0.317647 0.317647 0.000000
0.364706 0.317647 0.000000
0.407843 0.317647 0.000000
0.454902 0.317647 0.000000
0.501961 0.317647 0.000000
0.545098 0.317647 0.000000
0.592157 0.317647 0.000000
0.635294 0.317647 0.000000
0.682353 0.317647 0.000000
0.729412 0.317647 0.000000
0.772549 0.317647 0.000000
0.819608 0.317647 0.000000
0.866667 0.317647 0.000000
0.909804 0.317647 0.000000
0.956863 0.317647 0.000000
1.000000 0.317647 0.000000
1.000000 0.317647 0.000000
0.000000 0.364706 0.000000
0.000000 0.364706 0.000000
0.043137 0.364706 0.000000
0.090196 0.364706 0.000000
0.137255 0.364706 0.000000
0.180392 0.364706 0.000000
0.227451 0.364706 0.000000
0.270588 0.364706 0.000000
0.317647 0.364706 0.000000
0.364706 0.364706 0.000000
0.407843 0.364706 0.000000
0.454902 0.364706 0.000000
0.501961 0.364706 0.000000
0.545098 0.364706 0.000000
0.592157 0.364706 0.000000
0.635294 0.364706 0.000000
0.682353 0.364706 0.000000
0.729412 0.364706 0.000000
0.772549 0.364706 0.000000
0.819608 0.364706 0.000000
0.866667 0.364706 0.000000
0.909804 0.364706 0.000000
0.956863 0.364706 0.000000
1.000000 0.364706 0.000000
1.000000 0.364706 0.000000
0.000000 0.407843 0.000000
0.000000 0.407843 0.000000
0.043137 0.407843 0.000000
0.090196 0.407843 0.000000
0.137255 0.407843 0.000000
0.180392 0.407843 0.000000
0.227451 0.407843 0.000000
0.270588 0.407843 0.000000
0.317647 0.407843 0.000000
0.364706 0.407843 0.000000
0.407843 0.407843 0.000000
0.454902 0.407843 0.000000
0.501961 0.407843 0.000000
0.545098 0.407843 0.000000
0.592157 0.407843 0.000000
0.635294 0.407843 0.000000
0.682353 0.407843 0.000000
0.729412 0.407843 0.000000
0.772549 0.407843 0.000000
0.819608 0.407843 0.000000
0.866667 0.407843 0.000000
0.909804 0.407843 0.000000
0.956863 0.407843 0.000000
1.000000 0.407843 0.000000
1.000000 0.407843 0.000000
0.000000 0.454902 0.000000
0.000000 0.454902 0.000000
0.043137 0.454902 0.000000
0.090196 0.454902 0.000000
0.137255 0.454902 0.000000
0.180392 0.454902 0.000000
0.227451 0.454902 0.000000
0.270588 0.454902 0.000000
0.317647 0.454902 0.000000
0.364706 0.454902 0.000000
0.407843 0.454902 0.000000
0.454902 0.454902 0.000000
0.501961 0.454902 0.000000
0.545098 0.454902 0.000000
0.592157 0.454902 0.000000
0.635294 0.454902 0.000000
0.682353 0.454902 0.000000
0.729412 0.454902 0.000000
0.772549 0.454902 0.000000
0.819608 0.454902 0.000000
0.866667 0.454902 0.000000
0.909804 0.454902 0.000000
0.956863 0.454902 0.000000
1.000000 0.454902 0.000000
1.000000 0.454902 0.000000
0.000000 0.501961 0.000000
0.000000 0.501961 0.000000
0.043137 0.501961 0.000000
0.090196 0.501961 0.000000
0.137255 0.501961 0.000000
0.180392 0.501961 0.000000
0.227451 0.501961 0.000000
0.270588 0.501961 0.000000
0.317647 0.501961 0.000000
0.364706 0.501961 0.000000
0.407843 0.501961 0.000000
0.454902 0.501961 0.000000
0.501961 0.501961 0.000000
0.545098 0.501961 0.000000
0.592157 0.501961 0.000000
0.635294 0.501961 0.000000
0.682353 0.501961 0.000000
0.729412 0.501961 0.000000
0.772549 0.501961 0.000000
0.819608 0.501961 0.000000
0.866667 0.501961 0.000000
0.909804 0.501961 0.000000
0.956863 0.501961 0.000000
1.000000 0.501961 0.000000
1.000000 0.501961 0.000000
0.000000 0.545098 0.000000
0.000000 0.545098 0.000000
0.043137 0.545098 0.000000
0.090196 0.545098 0.000000
0.137255 0.545098 0.000000
0.180392 0.545098 0.000000
0.227451 0.545098 0.000000
0.270588 0.545098 0.000000
0.317647 0.545098 0.000000
0.364706 0.545098 0.000000
0.407843 0.545098 0.000000
0.454902 0.545098 0.000000
0.501961 0.545098 0.000000
0.545098 0.545098 0.000000
0.592157 0.545098 0.000000
0.635294 0.545098 0.000000
0.682353 0.545098 0.000000
0.729412 0.545098 0.000000
0.772549 0.545098 0.000000
0.819608 0.545098 0.000000
0.866667 0.545098 0.000000
0.909804 0.545098 0.000000
0.956863 0.545098 0.000000
1.000000 0.545098 0.000000
1.000000 0.545098 0.000000
0.000000 0.592157 0.000000
0.000000 0.592157 0.000000
0.043137 0.592157 0.000000
0.090196 0.592157 0.000000
0.137255 0.592157 0.000000
0.180392 0.592157 0.000000
0.227451 0.592157 0.000000
0.270588 0.592157 0.000000
0.317647 0.592157 0.000000
0.364706 0.592157 0.000000
0.407843 0.592157 0.000000
0.454902 0.592157 0.000000
0.501961 0.592157 0.000000
0.545098 0.592157 0.000000
0.592157 0.592157 0.000000
0.635294 0.592157 0.000000
0.682353 0.592157 0.000000
0.729412 0.592157 0.000000
0.772549 0.592157 0.000000
0.819608 0.592157 0.000000
0.866667 0.592157 0.000000
0.909804 0.592157 0.000000
0.956863 0.592157 0.000000
1.000000 0.592157 0.000000
1.000000 0.592157 0.000000
0.000000 0.635294 0.000000
0.000000 0.635294 0.000000
0.043137 0.635294 0.000000
0.090196 0.635294 0.000000
0.137255 0.635294 0.000000
0.180392 0.635294 0.000000
0.227451 0.635294 0.000000
0.270588 0.635294 0.000000
0.317647 0.635294 0.000000
0.364706 0.635294 0.000000
0.407843 0.635294 0.000000
0.454902 0.635294 0.000000
0.501961 0.635294 0.000000
0.545098 0.635294 0.000000
0.592157 0.635294 0.000000
0.635294 0.635294 0.000000
0.682353 0.635294 0.000000
0.729412 0.635294 0.000000
0.772549 0.635294 0.000000
0.819608 0.635294 0.000000
0.866667 0.635294 0.000000
0.909804 0.635294 0.000000
0.956863 0.635294 0.000000
1.000000 0.635294 0.000000
1.000000 0.635294 0.000000
0.000000 0.682353 0.000000
0.000000 0.682353 0.000000
0.043137 0.682353 0.000000
0.090196 0.682353 0.000000
0.137255 0.682353 0.000000
0.180392 0.682353 0.000000
0.227451 0.682353 0.000000
0.270588 0.682353 0.000000
0.317647 0.682353 0.000000
0.364706 0.682353 0.000000
0.407843 0.682353 0.000000
0.454902 0.682353 0.000000
0.501961 0.682353 0.000000
0.545098 0.682353 0.000000
0.592157 0.682353 0.000000
0.635294 0.682353 0.000000
0.682353 0.682353 0.000000
0.729412 0.682353 0.000000
0.772549 0.682353 0.000000
0.819608 0.682353 0.000000
0.866667 0.682353 0.000000
0.909804 0.682353 0.000000
0.956863 0.682353 0.000000
1.000000 0.682353 0.000000
1.000000 0.682353 0.000000
0.000000 0.729412 0.000000
0.000000 0.729412 0.000000
0.043137 0.729412 0.000000
0.090196 0.729412 0.000000
0.137255 0.729412 0.000000
0.180392 0.729412 0.000000
0.227451 0.729412 0.000000
0.270588 0.729412 0.000000
0.317647 0.729412 0.000000
0.364706 0.729412 0.000000
0.407843 0.729412 0.000000
0.454902 0.729412 0.000000
0.501961 0.729412 0.000000
0.545098 0.729412 0.000000
0.592157 0.729412 0.000000
0.635294 0.729412 0.000000
0.682353 0.729412 0.000000
0.729412 0.729412 0.000000
0.772549 0.729412 0.000000
0.819608 0.729412 0.000000
0.866667 0.729412 0.000000
0.909804 0.729412 0.000000
0.956863 0.729412 0.000000
1.000000 0.729412 0.000000
1.000000 0.729412 0.000000
0.000000 0.772549 0.000000
0.000000 0.772549 0.000000
0.043137 0.772549 0.000000
0.090196 0.772549 0.000000
0.137255 0.772549 0.000000
0.180392 0.772549 0.000000
0.227451 0.772549 0.000000
0.270588 0.772549 0.000000
0.317647 0.772549 0.000000
0.364706 0.772549 0.000000
0.407843 0.772549 0.000000
0.454902 0.772549 0.000000
0.501961 0.772549 0.000000
0.545098 0.772549 0.000000
0.592157 0.772549 0.000000
0.635294 0.772549 0.000000
0.682353 0.772549 0.000000
0.729412 0.772549 0.000000
0.772549 0.772549 0.000000
0.819608 0.772549 0.000000
0.866667 0.772549 0.000000
0.909804 0.772549 0.000000
0.956863 0.772549 0.000000
1.000000 0.772549 0.000000
1.000000 0.772549 0.000000
0.000000 0.819608 0.000000
0.000000 0.819608 0.000000
0.043137 0.819608 0.000000
0.090196 0.819608 0.000000
0.137255 0.819608 0.000000
0.180392 0.819608 0.000000
0.227451 0.819608 0.000000
0.270588 0.819608 0.000000
0.317647 0.819608 0.000000
0.364706 0.819608 0.000000
0.407843 0.819608 0.000000
0.454902 0.819608 0.000000
0.501961 0.819608 0.000000
0.545098 0.819608 0.000000
0.592157 0.819608 0.000000
0.635294 0.819608 0.000000
0.682353 0.819608 0.000000
0.729412 0.819608 0.000000
0.772549 0.819608 0.000000
0.819608 0.819608 0.000000
0.866667 0.819608 0.000000
0.909804 0.819608 0.000000
0.956863 0.819608 0.000000
1.000000 0.819608 0.000000
1.000000 0.819608 0.000000
0.000000 0.866667 0.000000
0.000000 0.866667 0.000000
0.043137 0.866667 0.000000
0.090196 0.866667 0.000000
0.137255 0.866667 0.000000
0.180392 0.866667 0.000000
0.227451 0.866667 0.000000
0.270588 0.866667 0.000000
0.317647 0.866667 0.000000
0.364706 0.866667 0.000000
0.407843 0.866667 0.000000
0.454902 0.866667 0.000000
0.501961 0.866667 0.000000
0.545098 0.866667 0.000000
0.592157 0.866667 0.000000
0.635294 0.866667 0.000000
0.682353 0.866667 0.000000
0.729412 0.866667 0.000000
0.772549 0.866667 0.000000
0.819608 0.866667 0.000000
0.866667 0.866667 0.000000
0.909804 0.866667 0.000000
0.956863 0.866667 0.000000
1.000000 0.866667 0.000000
1.000000 0.866667 0.000000
0.000000 0.909804 0.000000
0.000000 0.909804 0.000000
0.043137 0.909804 0.000000
0.090196 0.909804 0.000000
0.137255 0.909804 0.000000
0.180392 0.909804 0.000000
0.227451 0.909804 0.000000
0.270588 0.909804 0.000000
0.317647 0.909804 0.000000
0.364706 0.909804 0.000000
0.407843 0.909804 0.000000
0.454902 0.909804 0.000000
0.501961 0.909804 0.000000
0.545098 0.909804 0.000000
0.592157 0.909804 0.000000
0.635294 0.909804 0.000000
0.682353 0.909804 0.000000
0.729412 0.909804 0.000000
0.772549 0.909804 0.000000
0.819608 0.909804 0.000000
0.866667 0.909804 0.000000
0.909804 0.909804 0.000000
0.956863 0.909804 0.000000
1.000000 0.909804 0.000000
1.000000 0.909804 0.000000
0.000000 0.956863 0.000000
0.000000 0.956863 0.000000
0.043137 0.956863 0.000000
0.090196 0.956863 0.000000
0.137255 0.956863 0.000000
0.180392 0.956863 0.000000
0.227451 0.956863 0.000000
0.270588 0.956863 0.000000
0.317647 0.956863 0.000000
0.364706 0.956863 0.000000
0.407843 0.956863 0.000000
0.454902 0.956863 0.000000
0.501961 0.956863 0.000000
0.545098 0.956863 0.000000
0.592157 0.956863 0.000000
0.635294 0.956863 0.000000
0.682353 0.956863 0.000000
0.729412 0.956863 0.000000
0.772549 0.956863 0.000000
0.819608 0.956863 0.000000
0.866667 0.956863 0.000000
0.909804 0.956863 0.000000
0.956863 0.956863 0.000000
1.000000 0.956863 0.000000
1.000000 0.956863 0.000000
0.000000 1.000000 0.000000
0.000000 1.000000 0.000000
0.043137 1.000000 0.000000
0.090196 1.000000 0.000000
0.137255 1.000000 0.000000
0.180392 1.000000 0.000000
0.227451 1.000000 0.000000
0.270588 1.000000 0.000000
0.317647 1.000000 0.000000
0.364706 1.000000 0.000000
0.407843 1.000000 0.000000
0.454902 1.000000 0.000000
0.501961 1.000000 0.000000
0.545098 1.000000 0.000000
0.592157 1.000000 0.000000
0.635294 1.000000 0.000000
0.682353 1.000000 0.000000
0.729412 1.000000 0.000000
0.772549 1.000000 0.000000
0.819608 1.000000 0.000000
0.866667 1.000000 0.000000
0.909804 1.000000 0.000000
0.956863 1.000000 0.000000
1.000000 1.000000 0.000000
1.000000 1.000000 0.000000
0.000000 1.000000 0.000000
0.000000 1.000000 0.000000
0.043137 1.000000 0.000000
0.090196 1.000000 0.000000
0.137255 1.000000 0.000000
0.180392 1.000000 0.000000
0.227451 1.000000 0.000000
0.270588 1.000000 0.000000
0.317647 1.000000 0.000000
0.364706 1.000000 0.000000
0.407843 1.000000 0.000000
0.454902 1.000000 0.000000
0.501961 1.000000 0.000000
0.545098 1.000000 0.000000
0.592157 1.000000 0.000000
0.635294 1.000000 0.000000
0.682353 1.000000 0.000000
0.729412 1.000000 0.000000
0.772549 1.000000 0.000000
0.819608 1.000000 0.000000
0.866667 1.000000 0.000000
0.909804 1.000000 0.000000
0.956863 1.000000 0.000000
1.000000 1.000000 0.000000
1.000000 1.000000 0.000000
0.000000 0.000000 0.000000
0.000000 0.000000 0.000000
0.043137 0.000000 0.000000
0.090196 0.000000 0.000000
0.137255 0.000000 0.000000
0.180392 0.000000 0.000000
0.227451 0.000000 0.000000
0.270588 0.000000 0.000000
0.317647 0.000000 0.000000
0.364706 0.000000 0.000000
0.407843 0.000000 0.000000
0.454902 0.000000 0.000000
0.501961 0.000000 0.000000
0.545098 0.000000 0.000000
0.592157 0.000000 0.000000
0.635294 0.000000 0.000000
0.682353 0.000000 0.000000
0.729412 0.000000 0.000000
0.772549 0.000000 0.000000
0.819608 0.000000 0.000000
0.866667 0.000000 0.000000
0.909804 0.000000 0.000000
0.956863 0.000000 0.000000
1.000000 0.000000 0.000000
1.000000 0.000000 0.000000
0.000000 0.000000 0.000000
0.000000 0.000000 0.000000
0.043137 0.000000 0.000000
0.090196 0.000000 0.000000
0.137255 0.000000 0.000000
0.180392 0.000000 0.000000
0.227451 0.000000 0.000000
0.270588 0.000000 0.000000
0.317647 0.000000 0.000000
0.364706 0.000000 0.000000
0.407843 0.000000 0.000000
0.454902 0.000000 0.000000
0.501961 0.000000 0.000000
0.545098 0.000000 0.000000
0.592157 0.000000 0.000000
0.635294 0.000000 0.000000
0.682353 0.000000 0.000000
0.729412 0.000000 0.000000
0.772549 0.000000 0.000000
0.819608 0.000000 0.000000
0.866667 0.000000 0.000000
0.909804 0.000000 0.000000
0.956863 0.000000 0.000000
1.000000 0.000000 0.000000
1.000000 0.000000 0.000000
0.000000 0.043137 0.000000
0.000000 0.043137 0.000000
0.043137 0.043137 0.000000
0.090196 0.043137 0.000000
0.137255 0.043137 0.000000
0.180392 0.043137 0.000000
0.227451 0.043137 0.000000
0.270588 0.043137 0.000000
0.317647 0.043137 0.000000
0.364706 0.043137 0.000000
0.407843 0.043137 0.000000
0.454902 0.043137 0.000000
0.501961 0.043137 0.000000
0.545098 0.043137 0.000000
0.592157 0.043137 0.000000
0.635294 0.043137 0.000000
0.682353 0.043137 0.000000
0.729412 0.043137 0.000000
0.772549 0.043137 0.000000
0.819608 0.043137 0.000000
0.866667 0.043137 0.000000
0.909804 0.043137 0.000000
0.956863 0.043137 0.000000
1.000000 0.043137 0.000000
1.000000 0.043137 0.000000
0.000000 0.090196 0.000000
0.000000 0.090196 0.000000
0.043137 0.090196 0.000000
0.090196 0.090196 0.000000
0.137255 0.090196 0.000000
0.180392 0.090196 0.000000
0.227451 0.090196 0.000000
0.270588 0.090196 0.000000
0.317647 0.090196 0.000000
0.364706 0.090196 0.000000
0.407843 0.090196 0.000000
0.454902 0.090196 0.000000
0.501961 0.090196 0.000000
0.545098 0.090196 0.000000
0.592157 0.090196 0.000000
0.635294 0.090196 0.000000
0.682353 0.090196 0.000000
0.729412 0.090196 0.000000
0.772549 0.090196 0.000000
0.819608 0.090196 0.000000
0.866667 0.090196 0.000000
0.909804 0.090196 0.000000
0.956863 0.090196 0.000000
1.000000 0.090196 0.000000
1.000000 0.090196 0.000000
0.000000 0.137255 0.000000
0.000000 0.137255 0.000000
0.043137 0.137255 0.000000
0.090196 0.137255 0.000000
0.137255 0.137255 0.000000
0.180392 0.137255 0.000000
0.227451 0.137255 0.000000
0.270588 0.137255 0.000000
0.317647 0.137255 0.000000
0.364706 0.137255 0.000000
0.407843 0.137255 0.000000
0.454902 0.137255 0.000000
0.501961 0.137255 0.000000
0.545098 0.137255 0.000000
0.592157 0.137255 0.000000
0.635294 0.137255 0.000000
0.682353 0.137255 0.000000
0.729412 0.137255 0.000000
0.772549 0.137255 0.000000
0.819608 0.137255 0.000000
0.866667 0.137255 0.000000
0.909804 0.137255 0.000000
0.956863 0.137255 0.000000
1.000000 0.137255 0.000000
1.000000 0.137255 0.000000
0.000000 0.180392 0.000000
0.000000 0.180392 0.000000
0.043137 0.180392 0.000000
0.090196 0.180392 0.000000
0.137255 0.180392 0.000000
0.180392 0.180392 0.000000
0.227451 0.180392 0.000000
0.270588 0.180392 0.000000
0.317647 0.180392 0.000000
0.364706 0.180392 0.000000
0.407843 0.180392 0.000000
0.454902 0.180392 0.000000
0.501961 0.180392 0.000000
0.545098 0.180392 0.000000
0.592157 0.180392 0.000000
0.635294 0.180392 0.000000
0.682353 0.180392 0.000000
0.729412 0.180392 0.000000
0.772549 0.180392 0.000000
0.819608 0.180392 0.000000
0.866667 0.180392 0.000000
0.909804 0.180392 0.000000
0.956863 0.180392 0.000000
1.000000 0.180392 0.000000
1.000000 0.180392 0.000000
0.000000 0.227451 0.000000
0.000000 0.227451 0.000000
0.043137 0.227451 0.000000
0.090196 0.227451 0.000000
0.137255 0.227451 0.000000
0.180392 0.227451 0.000000
0.227451 0.227451 0.000000
0.270588 0.227451 0.000000
0.317647 0.227451 0.000000
0.364706 0.227451 0.000000
0.407843 0.227451 0.000000
0.454902 0.227451 0.000000
0.501961 0.227451 0.000000
0.545098 0.227451 0.000000
0.592157 0.227451 0.000000
0.635294 0.227451 0.000000
0.682353 0.227451 0.000000
0.729412 0.227451 0.000000
0.772549 0.227451 0.000000
0.819608 0.227451 0.000000
0.866667 0.227451 0.000000
0.909804 0.227451 0.000000
0.956863 0.227451 0.000000
1.000000 0.227451 0.000000
1.000000 0.227451 0.000000
0.000000 0.270588 0.000000
0.000000 0.270588 0.000000
0.043137 0.270588 0.000000
0.090196 0.270588 0.000000
0.137255 0.270588 0.000000
0.180392 0.270588 0.000000
0.227451 0.270588 0.000000
0.270588 0.270588 0.000000
0.317647 0.270588 0.000000
0.364706 0.270588 0.000000
0.407843 0.270588 0.000000
0.454902 0.270588 0.000000
0.501961 0.270588 0.000000
0.545098 0.270588 0.000000
0.592157 0.270588 0.000000
0.635294 0.270588 0.000000
0.682353 0.270588 0.000000
0.729412 0.270588 0.000000
0.772549 0.270588 0.000000
0.819608 0.270588 0.000000
0.866667 0.270588 0.000000
0.909804 0.270588 0.000000
0.956863 0.270588 0.000000
1.000000 0.270588 0.000000
1.000000 0.270588 0.000000
0.000000 0.317647 0.000000
0.000000 0.317647 0.000000
0.043137 0.317647 0.000000
0.090196 0.317647 0.000000
0.137255 0.317647 0.000000
0.180392 0.317647 0.000000
0.227451 0.317647 0.000000
0.270588 0.317647 0.000000
0.317647 0.317647 0.000000
0.364706 0.317647 0.000000
0.407843 0.317647 0.000000
0.454902 0.317647 0.000000
0.501961 0.317647 0.000000
0.545098 0.317647 0.000000
0.592157 0.317647 0.000000
0.635294 0.317647 0.000000
0.682353 0.317647 0.000000
0.729412 0.317647 0.000000
0.772549 0.317647 0.000000
0.819608 0.317647 0.000000
0.866667 0.317647 0.000000
0.909804 0.317647 0.000000
0.956863 0.317647 0.000000
1.000000 0.317647 0.000000
1.000000 0.317647 0.000000
0.000000 0.364706 0.000000
0.000000 0.364706 0.000000
0.043137 0.364706 0.000000
0.090196 0.364706 0.000000
0.137255 0.364706 0.000000
0.180392 0.364706 0.000000
0.227451 0.364706 0.000000
0.270588 0.364706 0.000000
0.317647 0.364706 0.000000
0.364706 0.364706 0.000000
0.407843 0.364706 0.000000
0.454902 0.364706 0.000000
0.501961 0.364706 0.000000
0.545098 0.364706 0.000000
0.592157 0.364706 0.000000
0.635294 0.364706 0.000000
0.682353 0.364706 0.000000
0.729412 0.364706 0.000000
0.772549 0.364706 0.000000
0.819608 0.364706 0.000000
0.866667 0.364706 0.000000
0.909804 0.364706 0.000000
0.956863 0.364706 0.000000
1.000000 0.364706 0.000000
1.000000 0.364706 0.000000
0.000000 0.407843 0.000000
0.000000 0.407843 0.000000
0.043137 0.407843 0.000000
0.090196 0.407843 0.000000
0.137255 0.407843 0.000000
0.180392 0.407843 0.000000
0.227451 0.407843 0.000000
0.270588 0.407843 0.000000
0.317647 0.407843 0.000000
