LUTs/Damaging/LUT_BLUE/teal.cube
#Generated by lutCreator.js
#Coded by SirSerch
#https://github.com/SirSerch/LutCreatorJs
TITLE lutCreatorJs_25
LUT_3D_SIZE 5
0.000000 0.000000 0.000000
0.250980 0.000000 0.000000
0.501961 0.000000 0.000000
0.749020 0.000000 0.000000
1.000000 0.000000 0.000000
0.000000 0.396078 0.000000
0.250980 0.396078 0.000000
0.501961 0.396078 0.000000
0.749020 0.396078 0.000000
1.000000 0.396078 0.000000
0.000000 0.686275 0.000000
0.250980 0.686275 0.000000
0.501961 0.686275 0.000000
0.749020 0.686275 0.000000
1.000000 0.686275 0.000000
0.000000 0.866667 0.000000
0.250980 0.866667 0.000000
0.501961 0.866667 0.000000
0.749020 0.866667 0.000000
1.000000 0.866667 0.000000
0.000000 1.000000 0.000000
0.250980 1.000000 0.000000
0.501961 1.000000 0.000000
0.749020 1.000000 0.000000
1.000000 1.000000 0.000000
0.000000 0.000000 0.392157
0.250980 0.000000 0.392157
0.501961 0.000000 0.392157
0.749020 0.000000 0.392157
1.000000 0.000000 0.392157
0.000000 0.396078 0.392157
0.250980 0.396078 0.392157
0.501961 0.396078 0.392157
0.749020 0.396078 0.392157
1.000000 0.396078 0.392157
0.000000 0.686275 0.392157
0.250980 0.686275 0.392157
0.501961 0.686275 0.392157
0.749020 0.686275 0.392157
1.000000 0.686275 0.392157
0.000000 0.866667 0.392157
0.250980 0.866667 0.392157
0.501961 0.866667 0.392157
0.749020 0.866667 0.392157
1.000000 0.866667 0.392157
0.000000 1.000000 0.392157
0.250980 1.000000 0.392157
0.501961 1.000000 0.392157
0.749020 1.000000 0.392157
1.000000 1.000000 0.392157
0.000000 0.000000 0.686275
0.250980 0.000000 0.686275
0.501961 0.000000 0.686275
0.749020 0.000000 0.686275
1.000000 0.000000 0.686275
0.000000 0.396078 0.686275
0.250980 0.396078 0.686275
0.501961 0.396078 0.686275
0.749020 0.396078 0.686275
1.000000 0.396078 0.686275
0.000000 0.686275 0.686275
0.250980 0.686275 0.686275
0.501961 0.686275 0.686275
0.749020 0.686275 0.686275
1.000000 0.686275 0.686275
0.000000 0.866667 0.686275
0.250980 0.866667 0.686275
0.501961 0.866667 0.686275
0.749020 0.866667 0.686275
1.000000 0.866667 0.686275
0.000000 1.000000 0.686275
0.250980 1.000000 0.686275
0.501961 1.000000 0.686275
0.749020 1.000000 0.686275
1.000000 1.000000 0.686275
0.000000 0.000000 0.866667
0.250980 0.000000 0.866667
0.501961 0.000000 0.866667
0.749020 0.000000 0.866667
1.000000 0.000000 0.866667
0.000000 0.396078 0.866667
0.250980 0.396078 0.866667
0.501961 0.396078 0.866667
0.749020 0.396078 0.866667
1.000000 0.396078 0.866667
0.000000 0.686275 0.866667
0.250980 0.686275 0.866667
0.501961 0.686275 0.866667
0.749020 0.686275 0.866667
1.000000 0.686275 0.866667
0.000000 0.866667 0.866667
0.250980 0.866667 0.866667
0.501961 0.866667 0.866667
0.749020 0.866667 0.866667
1.000000 0.866667 0.866667
0.000000 1.000000 0.866667
0.250980 1.000000 0.866667
0.501961 1.000000 0.866667
0.749020 1.000000 0.866667
1.000000 1.000000 0.866667
0.000000 0.000000 1.000000
0.250980 0.000000 1.000000
0.501961 0.000000 1.000000
0.749020 0.000000 1.000000
1.000000 0.000000 1.000000
0.000000 0.396078 1.000000
0.250980 0.396078 1.000000
0.501961 0.396078 1.000000
0.749020 0.396078 1.000000
1.000000 0.396078 1.000000
0.000000 0.686275 1.000000
0.250980 0.686275 1.000000
0.501961 0.686275 1.000000
0.749020 0.686275 1.000000
1.000000 0.686275 1.000000
0.000000 0.866667 1.000000
0.250980 0.866667 1.000000
0.501961 0.866667 1.000000
0.749020 0.866667 1.000000
1.000000 0.866667 1.000000
0.000000 1.000000 1.000000
0.250980 1.000000 1.000000
0.501961 1.000000 1.000000
0.749020 1.000000 1.000000
1.000000 1.000000 1.000000
