LUTs/Damaging/LUT_BLUE/teal.cube
#Generated by lutCreator.js
#Coded by SirSerch
#https://github.com/SirSerch/LutCreatorJs
TITLE lutCreatorJs_25
LUT_3D_SIZE 25
0.000000 0.000000 0.000000
0.043137 0.000000 0.000000
0.082353 0.000000 0.000000
0.125490 0.000000 0.000000
0.168627 0.000000 0.000000
0.207843 0.000000 0.000000
0.250980 0.000000 0.000000
0.290196 0.000000 0.000000
0.333333 0.000000 0.000000
0.376471 0.000000 0.000000
0.415686 0.000000 0.000000
0.458824 0.000000 0.000000
0.501961 0.000000 0.000000
0.541176 0.000000 0.000000
0.584314 0.000000 0.000000
0.623529 0.000000 0.000000
0.666667 0.000000 0.000000
0.709804 0.000000 0.000000
0.749020 0.000000 0.000000
0.792157 0.000000 0.000000
0.835294 0.000000 0.000000
0.874510 0.000000 0.000000
0.917647 0.000000 0.000000
0.956863 0.000000 0.000000
1.000000 0.000000 0.000000
0.000000 0.070588 0.000000
0.043137 0.070588 0.000000
0.082353 0.070588 0.000000
0.125490 0.070588 0.000000
0.168627 0.070588 0.000000
0.207843 0.070588 0.000000
0.250980 0.070588 0.000000
0.290196 0.070588 0.000000
0.333333 0.070588 0.000000
0.376471 0.070588 0.000000
0.415686 0.070588 0.000000
0.458824 0.070588 0.000000
0.501961 0.070588 0.000000
0.541176 0.070588 0.000000
0.584314 0.070588 0.000000
0.623529 0.070588 0.000000
0.666667 0.070588 0.000000
0.709804 0.070588 0.000000
0.749020 0.070588 0.000000
0.792157 0.070588 0.000000
0.835294 0.070588 0.000000
0.874510 0.070588 0.000000
0.917647 0.070588 0.000000
0.956863 0.070588 0.000000
1.000000 0.070588 0.000000
0.000000 0.137255 0.000000
0.043137 0.137255 0.000000
0.082353 0.137255 0.000000
0.125490 0.137255 0.000000
0.168627 0.137255 0.000000
0.207843 0.137255 0.000000
0.250980 0.137255 0.000000
0.290196 0.137255 0.000000
0.333333 0.137255 0.000000
0.376471 0.137255 0.000000
0.415686 0.137255 0.000000
0.458824 0.137255 0.000000
0.501961 0.137255 0.000000
0.541176 0.137255 0.000000
0.584314 0.137255 0.000000
0.623529 0.137255 0.000000
0.666667 0.137255 0.000000
0.709804 0.137255 0.000000
0.749020 0.137255 0.000000
0.792157 0.137255 0.000000
0.835294 0.137255 0.000000
0.874510 0.137255 0.000000
0.917647 0.137255 0.000000
0.956863 0.137255 0.000000
1.000000 0.137255 0.000000
0.000000 0.203922 0.000000
0.043137 0.203922 0.000000
0.082353 0.203922 0.000000
0.125490 0.203922 0.000000
0.168627 0.203922 0.000000
0.207843 0.203922 0.000000
0.250980 0.203922 0.000000
0.290196 0.203922 0.000000
0.333333 0.203922 0.000000
0.376471 0.203922 0.000000
0.415686 0.203922 0.000000
0.458824 0.203922 0.000000
0.501961 0.203922 0.000000
0.541176 0.203922 0.000000
0.584314 0.203922 0.000000
0.623529 0.203922 0.000000
0.666667 0.203922 0.000000
0.709804 0.203922 0.000000
0.749020 0.203922 0.000000
0.792157 0.203922 0.000000
0.835294 0.203922 0.000000
0.874510 0.203922 0.000000
0.917647 0.203922 0.000000
0.956863 0.203922 0.000000
1.000000 0.203922 0.000000
0.000000 0.274510 0.000000
0.043137 0.274510 0.000000
0.082353 0.274510 0.000000
0.125490 0.274510 0.000000
0.168627 0.274510 0.000000
0.207843 0.274510 0.000000
0.250980 0.274510 0.000000
0.290196 0.274510 0.000000
0.333333 0.274510 0.000000
0.376471 0.274510 0.000000
0.415686 0.274510 0.000000
0.458824 0.274510 0.000000
0.501961 0.274510 0.000000
0.541176 0.274510 0.000000
0.584314 0.274510 0.000000
0.623529 0.274510 0.000000
0.666667 0.274510 0.000000
0.709804 0.274510 0.000000
0.749020 0.274510 0.000000
0.792157 0.274510 0.000000
0.835294 0.274510 0.000000
0.874510 0.274510 0.000000
0.917647 0.274510 0.000000
0.956863 0.274510 0.000000
1.000000 0.274510 0.000000
0.000000 0.333333 0.000000
0.043137 0.333333 0.000000
0.082353 0.333333 0.000000
0.125490 0.333333 0.000000
0.168627 0.333333 0.000000
0.207843 0.333333 0.000000
0.250980 0.333333 0.000000
0.290196 0.333333 0.000000
0.333333 0.333333 0.000000
0.376471 0.333333 0.000000
0.415686 0.333333 0.000000
0.458824 0.333333 0.000000
0.501961 0.333333 0.000000
0.541176 0.333333 0.000000
0.584314 0.333333 0.000000
0.623529 0.333333 0.000000
0.666667 0.333333 0.000000
0.709804 0.333333 0.000000
0.749020 0.333333 0.000000
0.792157 0.333333 0.000000
0.835294 0.333333 0.000000
0.874510 0.333333 0.000000
0.917647 0.333333 0.000000
0.956863 0.333333 0.000000
1.000000 0.333333 0.000000
0.000000 0.396078 0.000000
0.043137 0.396078 0.000000
0.082353 0.396078 0.000000
0.125490 0.396078 0.000000
0.168627 0.396078 0.000000
0.207843 0.396078 0.000000
0.250980 0.396078 0.000000
0.290196 0.396078 0.000000
0.333333 0.396078 0.000000
0.376471 0.396078 0.000000
0.415686 0.396078 0.000000
0.458824 0.396078 0.000000
0.501961 0.396078 0.000000
0.541176 0.396078 0.000000
0.584314 0.396078 0.000000
0.623529 0.396078 0.000000
0.666667 0.396078 0.000000
0.709804 0.396078 0.000000
0.749020 0.396078 0.000000
0.792157 0.396078 0.000000
0.835294 0.396078 0.000000
0.874510 0.396078 0.000000
0.917647 0.396078 0.000000
0.956863 0.396078 0.000000
1.000000 0.396078 0.000000
0.000000 0.450980 0.000000
0.043137 0.450980 0.000000
0.082353 0.450980 0.000000
0.125490 0.450980 0.000000
0.168627 0.450980 0.000000
0.207843 0.450980 0.000000
0.250980 0.450980 0.000000
0.290196 0.450980 0.000000
0.333333 0.450980 0.000000
0.376471 0.450980 0.000000
0.415686 0.450980 0.000000
0.458824 0.450980 0.000000
0.501961 0.450980 0.000000
0.541176 0.450980 0.000000
0.584314 0.450980 0.000000
0.623529 0.450980 0.000000
0.666667 0.450980 0.000000
0.709804 0.450980 0.000000
0.749020 0.450980 0.000000
0.792157 0.450980 0.000000
0.835294 0.450980 0.000000
0.874510 0.450980 0.000000
0.917647 0.450980 0.000000
0.956863 0.450980 0.000000
1.000000 0.450980 0.000000
0.000000 0.509804 0.000000
0.043137 0.509804 0.000000
0.082353 0.509804 0.000000
0.125490 0.509804 0.000000
0.168627 0.509804 0.000000
0.207843 0.509804 0.000000
0.250980 0.509804 0.000000
0.290196 0.509804 0.000000
0.333333 0.509804 0.000000
0.376471 0.509804 0.000000
0.415686 0.509804 0.000000
0.458824 0.509804 0.000000
0.501961 0.509804 0.000000
0.541176 0.509804 0.000000
0.584314 0.509804 0.000000
0.623529 0.509804 0.000000
0.666667 0.509804 0.000000
0.709804 0.509804 0.000000
0.749020 0.509804 0.000000
0.792157 0.509804 0.000000
0.835294 0.509804 0.000000
0.874510 0.509804 0.000000
0.917647 0.509804 0.000000
0.956863 0.509804 0.000000
1.000000 0.509804 0.000000
0.000000 0.560784 0.000000
0.043137 0.560784 0.000000
0.082353 0.560784 0.000000
0.125490 0.560784 0.000000
0.168627 0.560784 0.000000
0.207843 0.560784 0.000000
0.250980 0.560784 0.000000
0.290196 0.560784 0.000000
0.333333 0.560784 0.000000
0.376471 0.560784 0.000000
0.415686 0.560784 0.000000
0.458824 0.560784 0.000000
0.501961 0.560784 0.000000
0.541176 0.560784 0.000000
0.584314 0.560784 0.000000
0.623529 0.560784 0.000000
0.666667 0.560784 0.000000
0.709804 0.560784 0.000000
0.749020 0.560784 0.000000
0.792157 0.560784 0.000000
0.835294 0.560784 0.000000
0.874510 0.560784 0.000000
0.917647 0.560784 0.000000
0.956863 0.560784 0.000000
1.000000 0.560784 0.000000
0.000000 0.607843 0.000000
0.043137 0.607843 0.000000
0.082353 0.607843 0.000000
0.125490 0.607843 0.000000
0.168627 0.607843 0.000000
0.207843 0.607843 0.000000
0.250980 0.607843 0.000000
0.290196 0.607843 0.000000
0.333333 0.607843 0.000000
0.376471 0.607843 0.000000
0.415686 0.607843 0.000000
0.458824 0.607843 0.000000
0.501961 0.607843 0.000000
0.541176 0.607843 0.000000
0.584314 0.607843 0.000000
0.623529 0.607843 0.000000
0.666667 0.607843 0.000000
0.709804 0.607843 0.000000
0.749020 0.607843 0.000000
0.792157 0.607843 0.000000
0.835294 0.607843 0.000000
0.874510 0.607843 0.000000
0.917647 0.607843 0.000000
0.956863 0.607843 0.000000
1.000000 0.607843 0.000000
0.000000 0.647059 0.000000
0.043137 0.647059 0.000000
0.082353 0.647059 0.000000
0.125490 0.647059 0.000000
0.168627 0.647059 0.000000
0.207843 0.647059 0.000000
0.250980 0.647059 0.000000
0.290196 0.647059 0.000000
0.333333 0.647059 0.000000
0.376471 0.647059 0.000000
0.415686 0.647059 0.000000
0.458824 0.647059 0.000000
0.501961 0.647059 0.000000
0.541176 0.647059 0.000000
0.584314 0.647059 0.000000
0.623529 0.647059 0.000000
0.666667 0.647059 0.000000
0.709804 0.647059 0.000000
0.749020 0.647059 0.000000
0.792157 0.647059 0.000000
0.835294 0.647059 0.000000
0.874510 0.647059 0.000000
0.917647 0.647059 0.000000
0.956863 0.647059 0.000000
1.000000 0.647059 0.000000
0.000000 0.686275 0.000000
0.043137 0.686275 0.000000
0.082353 0.686275 0.000000
0.125490 0.686275 0.000000
0.168627 0.686275 0.000000
0.207843 0.686275 0.000000
0.250980 0.686275 0.000000
0.290196 0.686275 0.000000
0.333333 0.686275 0.000000
0.376471 0.686275 0.000000
0.415686 0.686275 0.000000
0.458824 0.686275 0.000000
0.501961 0.686275 0.000000
0.541176 0.686275 0.000000
0.584314 0.686275 0.000000
0.623529 0.686275 0.000000
0.666667 0.686275 0.000000
0.709804 0.686275 0.000000
0.749020 0.686275 0.000000
0.792157 0.686275 0.000000
0.835294 0.686275 0.000000
0.874510 0.686275 0.000000
0.917647 0.686275 0.000000
0.956863 0.686275 0.000000
1.000000 0.686275 0.000000
0.000000 0.721569 0.000000
0.043137 0.721569 0.000000
0.082353 0.721569 0.000000
0.125490 0.721569 0.000000
0.168627 0.721569 0.000000
0.207843 0.721569 0.000000
0.250980 0.721569 0.000000
0.290196 0.721569 0.000000
0.333333 0.721569 0.000000
0.376471 0.721569 0.000000
0.415686 0.721569 0.000000
0.458824 0.721569 0.000000
0.501961 0.721569 0.000000
0.541176 0.721569 0.000000
0.584314 0.721569 0.000000
0.623529 0.721569 0.000000
0.666667 0.721569 0.000000
0.709804 0.721569 0.000000
0.749020 0.721569 0.000000
0.792157 0.721569 0.000000
0.835294 0.721569 0.000000
0.874510 0.721569 0.000000
0.917647 0.721569 0.000000
0.956863 0.721569 0.000000
1.000000 0.721569 0.000000
0.000000 0.756863 0.000000
0.043137 0.756863 0.000000
0.082353 0.756863 0.000000
0.125490 0.756863 0.000000
0.168627 0.756863 0.000000
0.207843 0.756863 0.000000
0.250980 0.756863 0.000000
0.290196 0.756863 0.000000
0.333333 0.756863 0.000000
0.376471 0.756863 0.000000
0.415686 0.756863 0.000000
0.458824 0.756863 0.000000
0.501961 0.756863 0.000000
0.541176 0.756863 0.000000
0.584314 0.756863 0.000000
0.623529 0.756863 0.000000
0.666667 0.756863 0.000000
0.709804 0.756863 0.000000
0.749020 0.756863 0.000000
0.792157 0.756863 0.000000
0.835294 0.756863 0.000000
0.874510 0.756863 0.000000
0.917647 0.756863 0.000000
0.956863 0.756863 0.000000
1.000000 0.756863 0.000000
0.000000 0.784314 0.000000
0.043137 0.784314 0.000000
0.082353 0.784314 0.000000
0.125490 0.784314 0.000000
0.168627 0.784314 0.000000
0.207843 0.784314 0.000000
0.250980 0.784314 0.000000
0.290196 0.784314 0.000000
0.333333 0.784314 0.000000
0.376471 0.784314 0.000000
0.415686 0.784314 0.000000
0.458824 0.784314 0.000000
0.501961 0.784314 0.000000
0.541176 0.784314 0.000000
0.584314 0.784314 0.000000
0.623529 0.784314 0.000000
0.666667 0.784314 0.000000
0.709804 0.784314 0.000000
0.749020 0.784314 0.000000
0.792157 0.784314 0.000000
0.835294 0.784314 0.000000
0.874510 0.784314 0.000000
0.917647 0.784314 0.000000
0.956863 0.784314 0.000000
1.000000 0.784314 0.000000
0.000000 0.815686 0.000000
0.043137 0.815686 0.000000
0.082353 0.815686 0.000000
0.125490 0.815686 0.000000
0.168627 0.815686 0.000000
0.207843 0.815686 0.000000
0.250980 0.815686 0.000000
0.290196 0.815686 0.000000
0.333333 0.815686 0.000000
0.376471 0.815686 0.000000
0.415686 0.815686 0.000000
0.458824 0.815686 0.000000
0.501961 0.815686 0.000000
0.541176 0.815686 0.000000
0.584314 0.815686 0.000000
0.623529 0.815686 0.000000
0.666667 0.815686 0.000000
0.709804 0.815686 0.000000
0.749020 0.815686 0.000000
0.792157 0.815686 0.000000
0.835294 0.815686 0.000000
0.874510 0.815686 0.000000
0.917647 0.815686 0.000000
0.956863 0.815686 0.000000
1.000000 0.815686 0.000000
0.000000 0.843137 0.000000
0.043137 0.843137 0.000000
0.082353 0.843137 0.000000
0.125490 0.843137 0.000000
0.168627 0.843137 0.000000
0.207843 0.843137 0.000000
0.250980 0.843137 0.000000
0.290196 0.843137 0.000000
0.333333 0.843137 0.000000
0.376471 0.843137 0.000000
0.415686 0.843137 0.000000
0.458824 0.843137 0.000000
0.501961 0.843137 0.000000
0.541176 0.843137 0.000000
0.584314 0.843137 0.000000
0.623529 0.843137 0.000000
0.666667 0.843137 0.000000
0.709804 0.843137 0.000000
0.749020 0.843137 0.000000
0.792157 0.843137 0.000000
0.835294 0.843137 0.000000
0.874510 0.843137 0.000000
0.917647 0.843137 0.000000
0.956863 0.843137 0.000000
1.000000 0.843137 0.000000
0.000000 0.866667 0.000000
0.043137 0.866667 0.000000
0.082353 0.866667 0.000000
0.125490 0.866667 0.000000
0.168627 0.866667 0.000000
0.207843 0.866667 0.000000
0.250980 0.866667 0.000000
0.290196 0.866667 0.000000
0.333333 0.866667 0.000000
0.376471 0.866667 0.000000
0.415686 0.866667 0.000000
0.458824 0.866667 0.000000
0.501961 0.866667 0.000000
0.541176 0.866667 0.000000
0.584314 0.866667 0.000000
0.623529 0.866667 0.000000
0.666667 0.866667 0.000000
0.709804 0.866667 0.000000
0.749020 0.866667 0.000000
0.792157 0.866667 0.000000
0.835294 0.866667 0.000000
0.874510 0.866667 0.000000
0.917647 0.866667 0.000000
0.956863 0.866667 0.000000
1.000000 0.866667 0.000000
0.000000 0.894118 0.000000
0.043137 0.894118 0.000000
0.082353 0.894118 0.000000
0.125490 0.894118 0.000000
0.168627 0.894118 0.000000
0.207843 0.894118 0.000000
0.250980 0.894118 0.000000
0.290196 0.894118 0.000000
0.333333 0.894118 0.000000
0.376471 0.894118 0.000000
0.415686 0.894118 0.000000
0.458824 0.894118 0.000000
0.501961 0.894118 0.000000
0.541176 0.894118 0.000000
0.584314 0.894118 0.000000
0.623529 0.894118 0.000000
0.666667 0.894118 0.000000
0.709804 0.894118 0.000000
0.749020 0.894118 0.000000
0.792157 0.894118 0.000000
0.835294 0.894118 0.000000
0.874510 0.894118 0.000000
0.917647 0.894118 0.000000
0.956863 0.894118 0.000000
1.000000 0.894118 0.000000
0.000000 0.917647 0.000000
0.043137 0.917647 0.000000
0.082353 0.917647 0.000000
0.125490 0.917647 0.000000
0.168627 0.917647 0.000000
0.207843 0.917647 0.000000
0.250980 0.917647 0.000000
0.290196 0.917647 0.000000
0.333333 0.917647 0.000000
0.376471 0.917647 0.000000
0.415686 0.917647 0.000000
0.458824 0.917647 0.000000
0.501961 0.917647 0.000000
0.541176 0.917647 0.000000
0.584314 0.917647 0.000000
0.623529 0.917647 0.000000
0.666667 0.917647 0.000000
0.709804 0.917647 0.000000
0.749020 0.917647 0.000000
0.792157 0.917647 0.000000
0.835294 0.917647 0.000000
0.874510 0.917647 0.000000
0.917647 0.917647 0.000000
0.956863 0.917647 0.000000
1.000000 0.917647 0.000000
0.000000 0.937255 0.000000
0.043137 0.937255 0.000000
0.082353 0.937255 0.000000
0.125490 0.937255 0.000000
0.168627 0.937255 0.000000
0.207843 0.937255 0.000000
0.250980 0.937255 0.000000
0.290196 0.937255 0.000000
0.333333 0.937255 0.000000
0.376471 0.937255 0.000000
0.415686 0.937255 0.000000
0.458824 0.937255 0.000000
0.501961 0.937255 0.000000
0.541176 0.937255 0.000000
0.584314 0.937255 0.000000
0.623529 0.937255 0.000000
0.666667 0.937255 0.000000
0.709804 0.937255 0.000000
0.749020 0.937255 0.000000
0.792157 0.937255 0.000000
0.835294 0.937255 0.000000
0.874510 0.937255 0.000000
0.917647 0.937255 0.000000
0.956863 0.937255 0.000000
1.000000 0.937255 0.000000
0.000000 0.956863 0.000000
0.043137 0.956863 0.000000
0.082353 0.956863 0.000000
0.125490 0.956863 0.000000
0.168627 0.956863 0.000000
0.207843 0.956863 0.000000
0.250980 0.956863 0.000000
0.290196 0.956863 0.000000
0.333333 0.956863 0.000000
0.376471 0.956863 0.000000
0.415686 0.956863 0.000000
0.458824 0.956863 0.000000
0.501961 0.956863 0.000000
0.541176 0.956863 0.000000
0.584314 0.956863 0.000000
0.623529 0.956863 0.000000
0.666667 0.956863 0.000000
0.709804 0.956863 0.000000
0.749020 0.956863 0.000000
0.792157 0.956863 0.000000
0.835294 0.956863 0.000000
0.874510 0.956863 0.000000
0.917647 0.956863 0.000000
0.956863 0.956863 0.000000
1.000000 0.956863 0.000000
0.000000 0.976471 0.000000
0.043137 0.976471 0.000000
0.082353 0.976471 0.000000
0.125490 0.976471 0.000000
0.168627 0.976471 0.000000
0.207843 0.976471 0.000000
0.250980 0.976471 0.000000
0.290196 0.976471 0.000000
0.333333 0.976471 0.000000
0.376471 0.976471 0.000000
0.415686 0.976471 0.000000
0.458824 0.976471 0.000000
0.501961 0.976471 0.000000
0.541176 0.976471 0.000000
0.584314 0.976471 0.000000
0.623529 0.976471 0.000000
0.666667 0.976471 0.000000
0.709804 0.976471 0.000000
0.749020 0.976471 0.000000
0.792157 0.976471 0.000000
0.835294 0.976471 0.000000
0.874510 0.976471 0.000000
0.917647 0.976471 0.000000
0.956863 0.976471 0.000000
1.000000 0.976471 0.000000
0.000000 1.000000 0.000000
0.043137 1.000000 0.000000
0.082353 1.000000 0.000000
0.125490 1.000000 0.000000
0.168627 1.000000 0.000000
0.207843 1.000000 0.000000
0.250980 1.000000 0.000000
0.290196 1.000000 0.000000
0.333333 1.000000 0.000000
0.376471 1.000000 0.000000
0.415686 1.000000 0.000000
0.458824 1.000000 0.000000
0.501961 1.000000 0.000000
0.541176 1.000000 0.000000
0.584314 1.000000 0.000000
0.623529 1.000000 0.000000
0.666667 1.000000 0.000000
0.709804 1.000000 0.000000
0.749020 1.000000 0.000000
0.792157 1.000000 0.000000
0.835294 1.000000 0.000000
0.874510 1.000000 0.000000
0.917647 1.000000 0.000000
0.956863 1.000000 0.000000
1.000000 1.000000 0.000000
0.000000 0.000000 0.070588
0.043137 0.000000 0.070588
0.082353 0.000000 0.070588
0.125490 0.000000 0.070588
0.168627 0.000000 0.070588
0.207843 0.000000 0.070588
0.250980 0.000000 0.070588
0.290196 0.000000 0.070588
0.333333 0.000000 0.070588
0.376471 0.000000 0.070588
0.415686 0.000000 0.070588
0.458824 0.000000 0.070588
0.501961 0.000000 0.070588
0.541176 0.000000 0.070588
0.584314 0.000000 0.070588
0.623529 0.000000 0.070588
0.666667 0.000000 0.070588
0.709804 0.000000 0.070588
0.749020 0.000000 0.070588
0.792157 0.000000 0.070588
0.835294 0.000000 0.070588
0.874510 0.000000 0.070588
0.917647 0.000000 0.070588
0.956863 0.000000 0.070588
1.000000 0.000000 0.070588
0.000000 0.070588 0.070588
0.043137 0.070588 0.070588
0.082353 0.070588 0.070588
0.125490 0.070588 0.070588
0.168627 0.070588 0.070588
0.207843 0.070588 0.070588
0.250980 0.070588 0.070588
0.290196 0.070588 0.070588
0.333333 0.070588 0.070588
0.376471 0.070588 0.070588
0.415686 0.070588 0.070588
0.458824 0.070588 0.070588
0.501961 0.070588 0.070588
0.541176 0.070588 0.070588
0.584314 0.070588 0.070588
0.623529 0.070588 0.070588
0.666667 0.070588 0.070588
0.709804 0.070588 0.070588
0.749020 0.070588 0.070588
0.792157 0.070588 0.070588
0.835294 0.070588 0.070588
0.874510 0.070588 0.070588
0.917647 0.070588 0.070588
0.956863 0.070588 0.070588
1.000000 0.070588 0.070588
0.000000 0.137255 0.070588
0.043137 0.137255 0.070588
0.082353 0.137255 0.070588
0.125490 0.137255 0.070588
0.168627 0.137255 0.070588
0.207843 0.137255 0.070588
0.250980 0.137255 0.070588
0.290196 0.137255 0.070588
0.333333 0.137255 0.070588
0.376471 0.137255 0.070588
0.415686 0.137255 0.070588
0.458824 0.137255 0.070588
0.501961 0.137255 0.070588
0.541176 0.137255 0.070588
0.584314 0.137255 0.070588
0.623529 0.137255 0.070588
0.666667 0.137255 0.070588
0.709804 0.137255 0.070588
0.749020 0.137255 0.070588
0.792157 0.137255 0.070588
0.835294 0.137255 0.070588
0.874510 0.137255 0.070588
0.917647 0.137255 0.070588
0.956863 0.137255 0.070588
1.000000 0.137255 0.070588
0.000000 0.203922 0.070588
0.043137 0.203922 0.070588
0.082353 0.203922 0.070588
0.125490 0.203922 0.070588
0.168627 0.203922 0.070588
0.207843 0.203922 0.070588
0.250980 0.203922 0.070588
0.290196 0.203922 0.070588
0.333333 0.203922 0.070588
0.376471 0.203922 0.070588
0.415686 0.203922 0.070588
0.458824 0.203922 0.070588
0.501961 0.203922 0.070588
0.541176 0.203922 0.070588
0.584314 0.203922 0.070588
0.623529 0.203922 0.070588
0.666667 0.203922 0.070588
0.709804 0.203922 0.070588
0.749020 0.203922 0.070588
0.792157 0.203922 0.070588
0.835294 0.203922 0.070588
0.874510 0.203922 0.070588
0.917647 0.203922 0.070588
0.956863 0.203922 0.070588
1.000000 0.203922 0.070588
0.000000 0.274510 0.070588
0.043137 0.274510 0.070588
0.082353 0.274510 0.070588
0.125490 0.274510 0.070588
0.168627 0.274510 0.070588
0.207843 0.274510 0.070588
0.250980 0.274510 0.070588
0.290196 0.274510 0.070588
0.333333 0.274510 0.070588
0.376471 0.274510 0.070588
0.415686 0.274510 0.070588
0.458824 0.274510 0.070588
0.501961 0.274510 0.070588
0.541176 0.274510 0.070588
0.584314 0.274510 0.070588
0.623529 0.274510 0.070588
0.666667 0.274510 0.070588
0.709804 0.274510 0.070588
0.749020 0.274510 0.070588
0.792157 0.274510 0.070588
0.835294 0.274510 0.070588
0.874510 0.274510 0.070588
0.917647 0.274510 0.070588
0.956863 0.274510 0.070588
1.000000 0.274510 0.070588
0.000000 0.333333 0.070588
0.043137 0.333333 0.070588
0.082353 0.333333 0.070588
0.125490 0.333333 0.070588
0.168627 0.333333 0.070588
0.207843 0.333333 0.070588
0.250980 0.333333 0.070588
0.290196 0.333333 0.070588
0.333333 0.333333 0.070588
0.376471 0.333333 0.070588
0.415686 0.333333 0.070588
0.458824 0.333333 0.070588
0.501961 0.333333 0.070588
0.541176 0.333333 0.070588
0.584314 0.333333 0.070588
0.623529 0.333333 0.070588
0.666667 0.333333 0.070588
0.709804 0.333333 0.070588
0.749020 0.333333 0.070588
0.792157 0.333333 0.070588
0.835294 0.333333 0.070588
0.874510 0.333333 0.070588
0.917647 0.333333 0.070588
0.956863 0.333333 0.070588
1.000000 0.333333 0.070588
0.000000 0.396078 0.070588
0.043137 0.396078 0.070588
0.082353 0.396078 0.070588
0.125490 0.396078 0.070588
0.168627 0.396078 0.070588
0.207843 0.396078 0.070588
0.250980 0.396078 0.070588
0.290196 0.396078 0.070588
0.333333 0.396078 0.070588
0.376471 0.396078 0.070588
0.415686 0.396078 0.070588
0.458824 0.396078 0.070588
0.501961 0.396078 0.070588
0.541176 0.396078 0.070588
0.584314 0.396078 0.070588
0.623529 0.396078 0.070588
0.666667 0.396078 0.070588
0.709804 0.396078 0.070588
0.749020 0.396078 0.070588
0.792157 0.396078 0.070588
0.835294 0.396078 0.070588
0.874510 0.396078 0.070588
0.917647 0.396078 0.070588
0.956863 0.396078 0.070588
1.000000 0.396078 0.070588
0.000000 0.450980 0.070588
0.043137 0.450980 0.070588
0.082353 0.450980 0.070588
0.125490 0.450980 0.070588
0.168627 0.450980 0.070588
0.207843 0.450980 0.070588
0.250980 0.450980 0.070588
0.290196 0.450980 0.070588
0.333333 0.450980 0.070588
0.376471 0.450980 0.070588
0.415686 0.450980 0.070588
0.458824 0.450980 0.070588
0.501961 0.450980 0.070588
0.541176 0.450980 0.070588
0.584314 0.450980 0.070588
0.623529 0.450980 0.070588
0.666667 0.450980 0.070588
0.709804 0.450980 0.070588
0.749020 0.450980 0.070588
0.792157 0.450980 0.070588
0.835294 0.450980 0.070588
0.874510 0.450980 0.070588
0.917647 0.450980 0.070588
0.956863 0.450980 0.070588
1.000000 0.450980 0.070588
0.000000 0.509804 0.070588
0.043137 0.509804 0.070588
0.082353 0.509804 0.070588
0.125490 0.509804 0.070588
0.168627 0.509804 0.070588
0.207843 0.509804 0.070588
0.250980 0.509804 0.070588
0.290196 0.509804 0.070588
0.333333 0.509804 0.070588
0.376471 0.509804 0.070588
0.415686 0.509804 0.070588
0.458824 0.509804 0.070588
0.501961 0.509804 0.070588
0.541176 0.509804 0.070588
0.584314 0.509804 0.070588
0.623529 0.509804 0.070588
0.666667 0.509804 0.070588
0.709804 0.509804 0.070588
0.749020 0.509804 0.070588
0.792157 0.509804 0.070588
0.835294 0.509804 0.070588
0.874510 0.509804 0.070588
0.917647 0.509804 0.070588
0.956863 0.509804 0.070588
1.000000 0.509804 0.070588
0.000000 0.560784 0.070588
0.043137 0.560784 0.070588
0.082353 0.560784 0.070588
0.125490 0.560784 0.070588
0.168627 0.560784 0.070588
0.207843 0.560784 0.070588
0.250980 0.560784 0.070588
0.290196 0.560784 0.070588
0.333333 0.560784 0.070588
0.376471 0.560784 0.070588
0.415686 0.560784 0.070588
0.458824 0.560784 0.070588
0.501961 0.560784 0.070588
0.541176 0.560784 0.070588
0.584314 0.560784 0.070588
0.623529 0.560784 0.070588
0.666667 0.560784 0.070588
0.709804 0.560784 0.070588
0.749020 0.560784 0.070588
0.792157 0.560784 0.070588
0.835294 0.560784 0.070588
0.874510 0.560784 0.070588
0.917647 0.560784 0.070588
0.956863 0.560784 0.070588
1.000000 0.560784 0.070588
0.000000 0.607843 0.070588
0.043137 0.607843 0.070588
0.082353 0.607843 0.070588
0.125490 0.607843 0.070588
0.168627 0.607843 0.070588
0.207843 0.607843 0.070588
0.250980 0.607843 0.070588
0.290196 0.607843 0.070588
0.333333 0.607843 0.070588
