LUTs/Damaging/LUT_BLUE/teal.cube
#Generated by lutCreator.js
#Coded by SirSerch
#https://github.com/SirSerch/LutCreatorJs
TITLE lutCreatorJs_25
LUT_3D_SIZE 9
0.000000 0.000000 0.000000
0.125490 0.000000 0.000000
0.250980 0.000000 0.000000
0.376471 0.000000 0.000000
0.501961 0.000000 0.000000
0.623529 0.000000 0.000000
0.749020 0.000000 0.000000
0.874510 0.000000 0.000000
1.000000 0.000000 0.000000
0.000000 0.203922 0.000000
0.125490 0.203922 0.000000
0.250980 0.203922 0.000000
0.376471 0.203922 0.000000
0.501961 0.203922 0.000000
0.623529 0.203922 0.000000
0.749020 0.203922 0.000000
0.874510 0.203922 0.000000
1.000000 0.203922 0.000000
0.000000 0.396078 0.000000
0.125490 0.396078 0.000000
0.250980 0.396078 0.000000
0.376471 0.396078 0.000000
0.501961 0.396078 0.000000
0.623529 0.396078 0.000000
0.749020 0.396078 0.000000
0.874510 0.396078 0.000000
1.000000 0.396078 0.000000
0.000000 0.560784 0.000000
0.125490 0.560784 0.000000
0.250980 0.560784 0.000000
0.376471 0.560784 0.000000
0.501961 0.560784 0.000000
0.623529 0.560784 0.000000
0.749020 0.560784 0.000000
0.874510 0.560784 0.000000
1.000000 0.560784 0.000000
0.000000 0.686275 0.000000
0.125490 0.686275 0.000000
0.250980 0.686275 0.000000
0.376471 0.686275 0.000000
0.501961 0.686275 0.000000
0.623529 0.686275 0.000000
0.749020 0.686275 0.000000
0.874510 0.686275 0.000000
1.000000 0.686275 0.000000
0.000000 0.784314 0.000000
0.125490 0.784314 0.000000
0.250980 0.784314 0.000000
0.376471 0.784314 0.000000
0.501961 0.784314 0.000000
0.623529 0.784314 0.000000
0.749020 0.784314 0.000000
0.874510 0.784314 0.000000
1.000000 0.784314 0.000000
0.000000 0.866667 0.000000
0.125490 0.866667 0.000000
0.250980 0.866667 0.000000
0.376471 0.866667 0.000000
0.501961 0.866667 0.000000
0.623529 0.866667 0.000000
0.749020 0.866667 0.000000
0.874510 0.866667 0.000000
1.000000 0.866667 0.000000
0.000000 0.937255 0.000000
0.125490 0.937255 0.000000
0.250980 0.937255 0.000000
0.376471 0.937255 0.000000
0.501961 0.937255 0.000000
0.623529 0.937255 0.000000
0.749020 0.937255 0.000000
0.874510 0.937255 0.000000
1.000000 0.937255 0.000000
0.000000 1.000000 0.000000
0.125490 1.000000 0.000000
0.250980 1.000000 0.000000
0.376471 1.000000 0.000000
0.501961 1.000000 0.000000
0.623529 1.000000 0.000000
0.749020 1.000000 0.000000
0.874510 1.000000 0.000000
1.000000 1.000000 0.000000
0.000000 0.000000 0.203922
0.125490 0.000000 0.203922
0.250980 0.000000 0.203922
0.376471 0.000000 0.203922
0.501961 0.000000 0.203922
0.623529 0.000000 0.203922
0.749020 0.000000 0.203922
0.874510 0.000000 0.203922
1.000000 0.000000 0.203922
0.000000 0.203922 0.203922
0.125490 0.203922 0.203922
0.250980 0.203922 0.203922
0.376471 0.203922 0.203922
0.501961 0.203922 0.203922
0.623529 0.203922 0.203922
0.749020 0.203922 0.203922
0.874510 0.203922 0.203922
1.000000 0.203922 0.203922
0.000000 0.396078 0.203922
0.125490 0.396078 0.203922
0.250980 0.396078 0.203922
0.376471 0.396078 0.203922
0.501961 0.396078 0.203922
0.623529 0.396078 0.203922
0.749020 0.396078 0.203922
0.874510 0.396078 0.203922
1.000000 0.396078 0.203922
0.000000 0.560784 0.203922
0.125490 0.560784 0.203922
0.250980 0.560784 0.203922
0.376471 0.560784 0.203922
0.501961 0.560784 0.203922
0.623529 0.560784 0.203922
0.749020 0.560784 0.203922
0.874510 0.560784 0.203922
1.000000 0.560784 0.203922
0.000000 0.686275 0.203922
0.125490 0.686275 0.203922
0.250980 0.686275 0.203922
0.376471 0.686275 0.203922
0.501961 0.686275 0.203922
0.623529 0.686275 0.203922
0.749020 0.686275 0.203922
0.874510 0.686275 0.203922
1.000000 0.686275 0.203922
0.000000 0.784314 0.203922
0.125490 0.784314 0.203922
0.250980 0.784314 0.203922
0.376471 0.784314 0.203922
0.501961 0.784314 0.203922
0.623529 0.784314 0.203922
0.749020 0.784314 0.203922
0.874510 0.784314 0.203922
1.000000 0.784314 0.203922
0.000000 0.866667 0.203922
0.125490 0.866667 0.203922
0.250980 0.866667 0.203922
0.376471 0.866667 0.203922
0.501961 0.866667 0.203922
0.623529 0.866667 0.203922
0.749020 0.866667 0.203922
0.874510 0.866667 0.203922
1.000000 0.866667 0.203922
0.000000 0.937255 0.203922
0.125490 0.937255 0.203922
0.250980 0.937255 0.203922
0.376471 0.937255 0.203922
0.501961 0.937255 0.203922
0.623529 0.937255 0.203922
0.749020 0.937255 0.203922
0.874510 0.937255 0.203922
1.000000 0.937255 0.203922
0.000000 1.000000 0.203922
0.125490 1.000000 0.203922
0.250980 1.000000 0.203922
0.376471 1.000000 0.203922
0.501961 1.000000 0.203922
0.623529 1.000000 0.203922
0.749020 1.000000 0.203922
0.874510 1.000000 0.203922
1.000000 1.000000 0.203922
0.000000 0.000000 0.392157
0.125490 0.000000 0.392157
0.250980 0.000000 0.392157
0.376471 0.000000 0.392157
0.501961 0.000000 0.392157
0.623529 0.000000 0.392157
0.749020 0.000000 0.392157
0.874510 0.000000 0.392157
1.000000 0.000000 0.392157
0.000000 0.203922 0.392157
0.125490 0.203922 0.392157
0.250980 0.203922 0.392157
0.376471 0.203922 0.392157
0.501961 0.203922 0.392157
0.623529 0.203922 0.392157
0.749020 0.203922 0.392157
0.874510 0.203922 0.392157
1.000000 0.203922 0.392157
0.000000 0.396078 0.392157
0.125490 0.396078 0.392157
0.250980 0.396078 0.392157
0.376471 0.396078 0.392157
0.501961 0.396078 0.392157
0.623529 0.396078 0.392157
0.749020 0.396078 0.392157
0.874510 0.396078 0.392157
1.000000 0.396078 0.392157
0.000000 0.560784 0.392157
0.125490 0.560784 0.392157
0.250980 0.560784 0.392157
0.376471 0.560784 0.392157
0.501961 0.560784 0.392157
0.623529 0.560784 0.392157
0.749020 0.560784 0.392157
0.874510 0.560784 0.392157
1.000000 0.560784 0.392157
0.000000 0.686275 0.392157
0.125490 0.686275 0.392157
0.250980 0.686275 0.392157
0.376471 0.686275 0.392157
0.501961 0.686275 0.392157
0.623529 0.686275 0.392157
0.749020 0.686275 0.392157
0.874510 0.686275 0.392157
1.000000 0.686275 0.392157
0.000000 0.784314 0.392157
0.125490 0.784314 0.392157
0.250980 0.784314 0.392157
0.376471 0.784314 0.392157
0.501961 0.784314 0.392157
0.623529 0.784314 0.392157
0.749020 0.784314 0.392157
0.874510 0.784314 0.392157
1.000000 0.784314 0.392157
0.000000 0.866667 0.392157
0.125490 0.866667 0.392157
0.250980 0.866667 0.392157
0.376471 0.866667 0.392157
0.501961 0.866667 0.392157
0.623529 0.866667 0.392157
0.749020 0.866667 0.392157
0.874510 0.866667 0.392157
1.000000 0.866667 0.392157
0.000000 0.937255 0.392157
0.125490 0.937255 0.392157
0.250980 0.937255 0.392157
0.376471 0.937255 0.392157
0.501961 0.937255 0.392157
0.623529 0.937255 0.392157
0.749020 0.937255 0.392157
0.874510 0.937255 0.392157
1.000000 0.937255 0.392157
0.000000 1.000000 0.392157
0.125490 1.000000 0.392157
0.250980 1.000000 0.392157
0.376471 1.000000 0.392157
0.501961 1.000000 0.392157
0.623529 1.000000 0.392157
0.749020 1.000000 0.392157
0.874510 1.000000 0.392157
1.000000 1.000000 0.392157
0.000000 0.000000 0.556863
0.125490 0.000000 0.556863
0.250980 0.000000 0.556863
0.376471 0.000000 0.556863
0.501961 0.000000 0.556863
0.623529 0.000000 0.556863
0.749020 0.000000 0.556863
0.874510 0.000000 0.556863
1.000000 0.000000 0.556863
0.000000 0.203922 0.556863
0.125490 0.203922 0.556863
0.250980 0.203922 0.556863
0.376471 0.203922 0.556863
0.501961 0.203922 0.556863
0.623529 0.203922 0.556863
0.749020 0.203922 0.556863
0.874510 0.203922 0.556863
1.000000 0.203922 0.556863
0.000000 0.396078 0.556863
0.125490 0.396078 0.556863
0.250980 0.396078 0.556863
0.376471 0.396078 0.556863
0.501961 0.396078 0.556863
0.623529 0.396078 0.556863
0.749020 0.396078 0.556863
0.874510 0.396078 0.556863
1.000000 0.396078 0.556863
0.000000 0.560784 0.556863
0.125490 0.560784 0.556863
0.250980 0.560784 0.556863
0.376471 0.560784 0.556863
0.501961 0.560784 0.556863
0.623529 0.560784 0.556863
0.749020 0.560784 0.556863
0.874510 0.560784 0.556863
1.000000 0.560784 0.556863
0.000000 0.686275 0.556863
0.125490 0.686275 0.556863
0.250980 0.686275 0.556863
0.376471 0.686275 0.556863
0.501961 0.686275 0.556863
0.623529 0.686275 0.556863
0.749020 0.686275 0.556863
0.874510 0.686275 0.556863
1.000000 0.686275 0.556863
0.000000 0.784314 0.556863
0.125490 0.784314 0.556863
0.250980 0.784314 0.556863
0.376471 0.784314 0.556863
0.501961 0.784314 0.556863
0.623529 0.784314 0.556863
0.749020 0.784314 0.556863
0.874510 0.784314 0.556863
1.000000 0.784314 0.556863
0.000000 0.866667 0.556863
0.125490 0.866667 0.556863
0.250980 0.866667 0.556863
0.376471 0.866667 0.556863
0.501961 0.866667 0.556863
0.623529 0.866667 0.556863
0.749020 0.866667 0.556863
0.874510 0.866667 0.556863
1.000000 0.866667 0.556863
0.000000 0.937255 0.556863
0.125490 0.937255 0.556863
0.250980 0.937255 0.556863
0.376471 0.937255 0.556863
0.501961 0.937255 0.556863
0.623529 0.937255 0.556863
0.749020 0.937255 0.556863
0.874510 0.937255 0.556863
1.000000 0.937255 0.556863
0.000000 1.000000 0.556863
0.125490 1.000000 0.556863
0.250980 1.000000 0.556863
0.376471 1.000000 0.556863
0.501961 1.000000 0.556863
0.623529 1.000000 0.556863
0.749020 1.000000 0.556863
0.874510 1.000000 0.556863
1.000000 1.000000 0.556863
0.000000 0.000000 0.686275
0.125490 0.000000 0.686275
0.250980 0.000000 0.686275
0.376471 0.000000 0.686275
0.501961 0.000000 0.686275
0.623529 0.000000 0.686275
0.749020 0.000000 0.686275
0.874510 0.000000 0.686275
1.000000 0.000000 0.686275
0.000000 0.203922 0.686275
0.125490 0.203922 0.686275
0.250980 0.203922 0.686275
0.376471 0.203922 0.686275
0.501961 0.203922 0.686275
0.623529 0.203922 0.686275
0.749020 0.203922 0.686275
0.874510 0.203922 0.686275
1.000000 0.203922 0.686275
0.000000 0.396078 0.686275
0.125490 0.396078 0.686275
0.250980 0.396078 0.686275
0.376471 0.396078 0.686275
0.501961 0.396078 0.686275
0.623529 0.396078 0.686275
0.749020 0.396078 0.686275
0.874510 0.396078 0.686275
1.000000 0.396078 0.686275
0.000000 0.560784 0.686275
0.125490 0.560784 0.686275
0.250980 0.560784 0.686275
0.376471 0.560784 0.686275
0.501961 0.560784 0.686275
0.623529 0.560784 0.686275
0.749020 0.560784 0.686275
0.874510 0.560784 0.686275
1.000000 0.560784 0.686275
0.000000 0.686275 0.686275
0.125490 0.686275 0.686275
0.250980 0.686275 0.686275
0.376471 0.686275 0.686275
0.501961 0.686275 0.686275
0.623529 0.686275 0.686275
0.749020 0.686275 0.686275
0.874510 0.686275 0.686275
1.000000 0.686275 0.686275
0.000000 0.784314 0.686275
0.125490 0.784314 0.686275
0.250980 0.784314 0.686275
0.376471 0.784314 0.686275
0.501961 0.784314 0.686275
0.623529 0.784314 0.686275
0.749020 0.784314 0.686275
0.874510 0.784314 0.686275
1.000000 0.784314 0.686275
0.000000 0.866667 0.686275
0.125490 0.866667 0.686275
0.250980 0.866667 0.686275
0.376471 0.866667 0.686275
0.501961 0.866667 0.686275
0.623529 0.866667 0.686275
0.749020 0.866667 0.686275
0.874510 0.866667 0.686275
1.000000 0.866667 0.686275
0.000000 0.937255 0.686275
0.125490 0.937255 0.686275
0.250980 0.937255 0.686275
0.376471 0.937255 0.686275
0.501961 0.937255 0.686275
0.623529 0.937255 0.686275
0.749020 0.937255 0.686275
0.874510 0.937255 0.686275
1.000000 0.937255 0.686275
0.000000 1.000000 0.686275
0.125490 1.000000 0.686275
0.250980 1.000000 0.686275
0.376471 1.000000 0.686275
0.501961 1.000000 0.686275
0.623529 1.000000 0.686275
0.749020 1.000000 0.686275
0.874510 1.000000 0.686275
1.000000 1.000000 0.686275
0.000000 0.000000 0.784314
0.125490 0.000000 0.784314
0.250980 0.000000 0.784314
0.376471 0.000000 0.784314
0.501961 0.000000 0.784314
0.623529 0.000000 0.784314
0.749020 0.000000 0.784314
0.874510 0.000000 0.784314
1.000000 0.000000 0.784314
0.000000 0.203922 0.784314
0.125490 0.203922 0.784314
0.250980 0.203922 0.784314
0.376471 0.203922 0.784314
0.501961 0.203922 0.784314
0.623529 0.203922 0.784314
0.749020 0.203922 0.784314
0.874510 0.203922 0.784314
1.000000 0.203922 0.784314
0.000000 0.396078 0.784314
0.125490 0.396078 0.784314
0.250980 0.396078 0.784314
0.376471 0.396078 0.784314
0.501961 0.396078 0.784314
0.623529 0.396078 0.784314
0.749020 0.396078 0.784314
0.874510 0.396078 0.784314
1.000000 0.396078 0.784314
0.000000 0.560784 0.784314
0.125490 0.560784 0.784314
0.250980 0.560784 0.784314
0.376471 0.560784 0.784314
0.501961 0.560784 0.784314
0.623529 0.560784 0.784314
0.749020 0.560784 0.784314
0.874510 0.560784 0.784314
1.000000 0.560784 0.784314
0.000000 0.686275 0.784314
0.125490 0.686275 0.784314
0.250980 0.686275 0.784314
0.376471 0.686275 0.784314
0.501961 0.686275 0.784314
0.623529 0.686275 0.784314
0.749020 0.686275 0.784314
0.874510 0.686275 0.784314
1.000000 0.686275 0.784314
0.000000 0.784314 0.784314
0.125490 0.784314 0.784314
0.250980 0.784314 0.784314
0.376471 0.784314 0.784314
0.501961 0.784314 0.784314
0.623529 0.784314 0.784314
0.749020 0.784314 0.784314
0.874510 0.784314 0.784314
1.000000 0.784314 0.784314
0.000000 0.866667 0.784314
0.125490 0.866667 0.784314
0.250980 0.866667 0.784314
0.376471 0.866667 0.784314
0.501961 0.866667 0.784314
0.623529 0.866667 0.784314
0.749020 0.866667 0.784314
0.874510 0.866667 0.784314
1.000000 0.866667 0.784314
0.000000 0.937255 0.784314
0.125490 0.937255 0.784314
0.250980 0.937255 0.784314
0.376471 0.937255 0.784314
0.501961 0.937255 0.784314
0.623529 0.937255 0.784314
0.749020 0.937255 0.784314
0.874510 0.937255 0.784314
1.000000 0.937255 0.784314
0.000000 1.000000 0.784314
0.125490 1.000000 0.784314
0.250980 1.000000 0.784314
0.376471 1.000000 0.784314
0.501961 1.000000 0.784314
0.623529 1.000000 0.784314
0.749020 1.000000 0.784314
0.874510 1.000000 0.784314
1.000000 1.000000 0.784314
0.000000 0.000000 0.866667
0.125490 0.000000 0.866667
0.250980 0.000000 0.866667
0.376471 0.000000 0.866667
0.501961 0.000000 0.866667
0.623529 0.000000 0.866667
0.749020 0.000000 0.866667
0.874510 0.000000 0.866667
1.000000 0.000000 0.866667
0.000000 0.203922 0.866667
0.125490 0.203922 0.866667
0.250980 0.203922 0.866667
0.376471 0.203922 0.866667
0.501961 0.203922 0.866667
0.623529 0.203922 0.866667
0.749020 0.203922 0.866667
0.874510 0.203922 0.866667
1.000000 0.203922 0.866667
0.000000 0.396078 0.866667
0.125490 0.396078 0.866667
0.250980 0.396078 0.866667
0.376471 0.396078 0.866667
0.501961 0.396078 0.866667
0.623529 0.396078 0.866667
0.749020 0.396078 0.866667
0.874510 0.396078 0.866667
1.000000 0.396078 0.866667
0.000000 0.560784 0.866667
0.125490 0.560784 0.866667
0.250980 0.560784 0.866667
0.376471 0.560784 0.866667
0.501961 0.560784 0.866667
0.623529 0.560784 0.866667
0.749020 0.560784 0.866667
0.874510 0.560784 0.866667
1.000000 0.560784 0.866667
0.000000 0.686275 0.866667
0.125490 0.686275 0.866667
0.250980 0.686275 0.866667
0.376471 0.686275 0.866667
0.501961 0.686275 0.866667
0.623529 0.686275 0.866667
0.749020 0.686275 0.866667
0.874510 0.686275 0.866667
1.000000 0.686275 0.866667
0.000000 0.784314 0.866667
0.125490 0.784314 0.866667
0.250980 0.784314 0.866667
0.376471 0.784314 0.866667
0.501961 0.784314 0.866667
0.623529 0.784314 0.866667
0.749020 0.784314 0.866667
0.874510 0.784314 0.866667
1.000000 0.784314 0.866667
0.000000 0.866667 0.866667
0.125490 0.866667 0.866667
0.250980 0.866667 0.866667
0.376471 0.866667 0.866667
0.501961 0.866667 0.866667
0.623529 0.866667 0.866667
0.749020 0.866667 0.866667
0.874510 0.866667 0.866667
1.000000 0.866667 0.866667
0.000000 0.937255 0.866667
0.125490 0.937255 0.866667
0.250980 0.937255 0.866667
0.376471 0.937255 0.866667
0.501961 0.937255 0.866667
0.623529 0.937255 0.866667
0.749020 0.937255 0.866667
0.874510 0.937255 0.866667
1.000000 0.937255 0.866667
0.000000 1.000000 0.866667
0.125490 1.000000 0.866667
0.250980 1.000000 0.866667
0.376471 1.000000 0.866667
0.501961 1.000000 0.866667
0.623529 1.000000 0.866667
0.749020 1.000000 0.866667
0.874510 1.000000 0.866667
1.000000 1.000000 0.866667
0.000000 0.000000 0.937255
0.125490 0.000000 0.937255
0.250980 0.000000 0.937255
0.376471 0.000000 0.937255
0.501961 0.000000 0.937255
0.623529 0.000000 0.937255
0.749020 0.000000 0.937255
0.874510 0.000000 0.937255
1.000000 0.000000 0.937255
0.000000 0.203922 0.937255
0.125490 0.203922 0.937255
0.250980 0.203922 0.937255
0.376471 0.203922 0.937255
0.501961 0.203922 0.937255
0.623529 0.203922 0.937255
0.749020 0.203922 0.937255
0.874510 0.203922 0.937255
1.000000 0.203922 0.937255
0.000000 0.396078 0.937255
0.125490 0.396078 0.937255
0.250980 0.396078 0.937255
0.376471 0.396078 0.937255
0.501961 0.396078 0.937255
0.623529 0.396078 0.937255
0.749020 0.396078 0.937255
0.874510 0.396078 0.937255
1.000000 0.396078 0.937255
0.000000 0.560784 0.937255
0.125490 0.560784 0.937255
0.250980 0.560784 0.937255
0.376471 0.560784 0.937255
0.501961 0.560784 0.937255
0.623529 0.560784 0.937255
0.749020 0.560784 0.937255
0.874510 0.560784 0.937255
1.000000 0.560784 0.937255
0.000000 0.686275 0.937255
0.125490 0.686275 0.937255
0.250980 0.686275 0.937255
0.376471 0.686275 0.937255
0.501961 0.686275 0.937255
0.623529 0.686275 0.937255
0.749020 0.686275 0.937255
0.874510 0.686275 0.937255
1.000000 0.686275 0.937255
0.000000 0.784314 0.937255
0.125490 0.784314 0.937255
0.250980 0.784314 0.937255
0.376471 0.784314 0.937255
0.501961 0.784314 0.937255
0.623529 0.784314 0.937255
0.749020 0.784314 0.937255
0.874510 0.784314 0.937255
1.000000 0.784314 0.937255
0.000000 0.866667 0.937255
0.125490 0.866667 0.937255
0.250980 0.866667 0.937255
0.376471 0.866667 0.937255
0.501961 0.866667 0.937255
0.623529 0.866667 0.937255
0.749020 0.866667 0.937255
0.874510 0.866667 0.937255
1.000000 0.866667 0.937255
0.000000 0.937255 0.937255
0.125490 0.937255 0.937255
0.250980 0.937255 0.937255
0.376471 0.937255 0.937255
0.501961 0.937255 0.937255
0.623529 0.937255 0.937255
0.749020 0.937255 0.937255
0.874510 0.937255 0.937255
1.000000 0.937255 0.937255
0.000000 1.000000 0.937255
0.125490 1.000000 0.937255
0.250980 1.000000 0.937255
0.376471 1.000000 0.937255
0.501961 1.000000 0.937255
0.623529 1.000000 0.937255
0.749020 1.000000 0.937255
0.874510 1.000000 0.937255
1.000000 1.000000 0.937255
0.000000 0.000000 1.000000
0.125490 0.000000 1.000000
0.250980 0.000000 1.000000
0.376471 0.000000 1.000000
0.501961 0.000000 1.000000
0.623529 0.000000 1.000000
0.749020 0.000000 1.000000
0.874510 0.000000 1.000000
1.000000 0.000000 1.000000
0.000000 0.203922 1.000000
0.125490 0.203922 1.000000
0.250980 0.203922 1.000000
0.376471 0.203922 1.000000
0.501961 0.203922 1.000000
0.623529 0.203922 1.000000
0.749020 0.203922 1.000000
0.874510 0.203922 1.000000
1.000000 0.203922 1.000000
0.000000 0.396078 1.000000
0.125490 0.396078 1.000000
0.250980 0.396078 1.000000
0.376471 0.396078 1.000000
0.501961 0.396078 1.000000
0.623529 0.396078 1.000000
0.749020 0.396078 1.000000
0.874510 0.396078 1.000000
1.000000 0.396078 1.000000
0.000000 0.560784 1.000000
0.125490 0.560784 1.000000
0.250980 0.560784 1.000000
0.376471 0.560784 1.000000
0.501961 0.560784 1.000000
0.623529 0.560784 1.000000
0.749020 0.560784 1.000000
0.874510 0.560784 1.000000
1.000000 0.560784 1.000000
0.000000 0.686275 1.000000
0.125490 0.686275 1.000000
0.250980 0.686275 1.000000
0.376471 0.686275 1.000000
0.501961 0.686275 1.000000
0.623529 0.686275 1.000000
0.749020 0.686275 1.000000
0.874510 0.686275 1.000000
1.000000 0.686275 1.000000
0.000000 0.784314 1.000000
0.125490 0.784314 1.000000
0.250980 0.784314 1.000000
0.376471 0.784314 1.000000
0.501961 0.784314 1.000000
0.623529 0.784314 1.000000
0.749020 0.784314 1.000000
0.874510 0.784314 1.000000
1.000000 0.784314 1.000000
0.000000 0.866667 1.000000
0.125490 0.866667 1.000000
0.250980 0.866667 1.000000
0.376471 0.866667 1.000000
0.501961 0.866667 1.000000
0.623529 0.866667 1.000000
0.749020 0.866667 1.000000
0.874510 0.866667 1.000000
1.000000 0.866667 1.000000
0.000000 0.937255 1.000000
0.125490 0.937255 1.000000
0.250980 0.937255 1.000000
0.376471 0.937255 1.000000
0.501961 0.937255 1.000000
0.623529 0.937255 1.000000
0.749020 0.937255 1.000000
0.874510 0.937255 1.000000
1.000000 0.937255 1.000000
0.000000 1.000000 1.000000
0.125490 1.000000 1.000000
0.250980 1.000000 1.000000
0.376471 1.000000 1.000000
0.501961 1.000000 1.000000
0.623529 1.000000 1.000000
0.749020 1.000000 1.000000
0.874510 1.000000 1.000000
1.000000 1.000000 1.000000
