LUTs/Damaging/LUT_MAGENTA/majesty.cube
#Generated by lutCreator.js
#Coded by SirSerch
#https://github.com/SirSerch/LutCreatorJs
TITLE lutCreatorJs_25
LUT_3D_SIZE 25
0.000000 0.000000 0.000000
0.043137 0.000000 0.000000
0.082353 0.000000 0.000000
0.125490 0.000000 0.000000
0.168627 0.000000 0.000000
0.207843 0.000000 0.000000
0.250980 0.000000 0.000000
0.290196 0.000000 0.000000
0.333333 0.000000 0.000000
0.376471 0.000000 0.000000
0.415686 0.000000 0.000000
0.458824 0.000000 0.000000
0.501961 0.000000 0.000000
0.541176 0.000000 0.000000
0.584314 0.000000 0.000000
0.623529 0.000000 0.000000
0.666667 0.000000 0.000000
0.709804 0.000000 0.000000
0.749020 0.000000 0.000000
0.792157 0.000000 0.000000
0.835294 0.000000 0.000000
0.874510 0.000000 0.000000
0.917647 0.000000 0.000000
0.956863 0.000000 0.000000
1.000000 0.000000 0.000000
0.000000 0.027451 0.000000
0.043137 0.027451 0.000000
0.082353 0.027451 0.000000
0.125490 0.027451 0.000000
0.168627 0.027451 0.000000
0.207843 0.027451 0.000000
0.250980 0.027451 0.000000
0.290196 0.027451 0.000000
0.333333 0.027451 0.000000
0.376471 0.027451 0.000000
0.415686 0.027451 0.000000
0.458824 0.027451 0.000000
0.501961 0.027451 0.000000
0.541176 0.027451 0.000000
0.584314 0.027451 0.000000
0.623529 0.027451 0.000000
0.666667 0.027451 0.000000
0.709804 0.027451 0.000000
0.749020 0.027451 0.000000
0.792157 0.027451 0.000000
0.835294 0.027451 0.000000
0.874510 0.027451 0.000000
0.917647 0.027451 0.000000
0.956863 0.027451 0.000000
1.000000 0.027451 0.000000
0.000000 0.050980 0.000000
0.043137 0.050980 0.000000
0.082353 0.050980 0.000000
0.125490 0.050980 0.000000
0.168627 0.050980 0.000000
0.207843 0.050980 0.000000
0.250980 0.050980 0.000000
0.290196 0.050980 0.000000
0.333333 0.050980 0.000000
0.376471 0.050980 0.000000
0.415686 0.050980 0.000000
0.458824 0.050980 0.000000
0.501961 0.050980 0.000000
0.541176 0.050980 0.000000
0.584314 0.050980 0.000000
0.623529 0.050980 0.000000
0.666667 0.050980 0.000000
0.709804 0.050980 0.000000
0.749020 0.050980 0.000000
0.792157 0.050980 0.000000
0.835294 0.050980 0.000000
0.874510 0.050980 0.000000
0.917647 0.050980 0.000000
0.956863 0.050980 0.000000
1.000000 0.050980 0.000000
0.000000 0.078431 0.000000
0.043137 0.078431 0.000000
0.082353 0.078431 0.000000
0.125490 0.078431 0.000000
0.168627 0.078431 0.000000
0.207843 0.078431 0.000000
0.250980 0.078431 0.000000
0.290196 0.078431 0.000000
0.333333 0.078431 0.000000
0.376471 0.078431 0.000000
0.415686 0.078431 0.000000
0.458824 0.078431 0.000000
0.501961 0.078431 0.000000
0.541176 0.078431 0.000000
0.584314 0.078431 0.000000
0.623529 0.078431 0.000000
0.666667 0.078431 0.000000
0.709804 0.078431 0.000000
0.749020 0.078431 0.000000
0.792157 0.078431 0.000000
0.835294 0.078431 0.000000
0.874510 0.078431 0.000000
0.917647 0.078431 0.000000
0.956863 0.078431 0.000000
1.000000 0.078431 0.000000
0.000000 0.105882 0.000000
0.043137 0.105882 0.000000
0.082353 0.105882 0.000000
0.125490 0.105882 0.000000
0.168627 0.105882 0.000000
0.207843 0.105882 0.000000
0.250980 0.105882 0.000000
0.290196 0.105882 0.000000
0.333333 0.105882 0.000000
0.376471 0.105882 0.000000
0.415686 0.105882 0.000000
0.458824 0.105882 0.000000
0.501961 0.105882 0.000000
0.541176 0.105882 0.000000
0.584314 0.105882 0.000000
0.623529 0.105882 0.000000
0.666667 0.105882 0.000000
0.709804 0.105882 0.000000
0.749020 0.105882 0.000000
0.792157 0.105882 0.000000
0.835294 0.105882 0.000000
0.874510 0.105882 0.000000
0.917647 0.105882 0.000000
0.956863 0.105882 0.000000
1.000000 0.105882 0.000000
0.000000 0.133333 0.000000
0.043137 0.133333 0.000000
0.082353 0.133333 0.000000
0.125490 0.133333 0.000000
0.168627 0.133333 0.000000
0.207843 0.133333 0.000000
0.250980 0.133333 0.000000
0.290196 0.133333 0.000000
0.333333 0.133333 0.000000
0.376471 0.133333 0.000000
0.415686 0.133333 0.000000
0.458824 0.133333 0.000000
0.501961 0.133333 0.000000
0.541176 0.133333 0.000000
0.584314 0.133333 0.000000
0.623529 0.133333 0.000000
0.666667 0.133333 0.000000
0.709804 0.133333 0.000000
0.749020 0.133333 0.000000
0.792157 0.133333 0.000000
0.835294 0.133333 0.000000
0.874510 0.133333 0.000000
0.917647 0.133333 0.000000
0.956863 0.133333 0.000000
1.000000 0.133333 0.000000
0.000000 0.164706 0.000000
0.043137 0.164706 0.000000
0.082353 0.164706 0.000000
0.125490 0.164706 0.000000
0.168627 0.164706 0.000000
0.207843 0.164706 0.000000
0.250980 0.164706 0.000000
0.290196 0.164706 0.000000
0.333333 0.164706 0.000000
0.376471 0.164706 0.000000
0.415686 0.164706 0.000000
0.458824 0.164706 0.000000
0.501961 0.164706 0.000000
0.541176 0.164706 0.000000
0.584314 0.164706 0.000000
0.623529 0.164706 0.000000
0.666667 0.164706 0.000000
0.709804 0.164706 0.000000
0.749020 0.164706 0.000000
0.792157 0.164706 0.000000
0.835294 0.164706 0.000000
0.874510 0.164706 0.000000
0.917647 0.164706 0.000000
0.956863 0.164706 0.000000
1.000000 0.164706 0.000000
0.000000 0.192157 0.000000
0.043137 0.192157 0.000000
0.082353 0.192157 0.000000
0.125490 0.192157 0.000000
0.168627 0.192157 0.000000
0.207843 0.192157 0.000000
0.250980 0.192157 0.000000
0.290196 0.192157 0.000000
0.333333 0.192157 0.000000
0.376471 0.192157 0.000000
0.415686 0.192157 0.000000
0.458824 0.192157 0.000000
0.501961 0.192157 0.000000
0.541176 0.192157 0.000000
0.584314 0.192157 0.000000
0.623529 0.192157 0.000000
0.666667 0.192157 0.000000
0.709804 0.192157 0.000000
0.749020 0.192157 0.000000
0.792157 0.192157 0.000000
0.835294 0.192157 0.000000
0.874510 0.192157 0.000000
0.917647 0.192157 0.000000
0.956863 0.192157 0.000000
1.000000 0.192157 0.000000
0.000000 0.223529 0.000000
0.043137 0.223529 0.000000
0.082353 0.223529 0.000000
0.125490 0.223529 0.000000
0.168627 0.223529 0.000000
0.207843 0.223529 0.000000
0.250980 0.223529 0.000000
0.290196 0.223529 0.000000
0.333333 0.223529 0.000000
0.376471 0.223529 0.000000
0.415686 0.223529 0.000000
0.458824 0.223529 0.000000
0.501961 0.223529 0.000000
0.541176 0.223529 0.000000
0.584314 0.223529 0.000000
0.623529 0.223529 0.000000
0.666667 0.223529 0.000000
0.709804 0.223529 0.000000
0.749020 0.223529 0.000000
0.792157 0.223529 0.000000
0.835294 0.223529 0.000000
0.874510 0.223529 0.000000
0.917647 0.223529 0.000000
0.956863 0.223529 0.000000
1.000000 0.223529 0.000000
0.000000 0.254902 0.000000
0.043137 0.254902 0.000000
0.082353 0.254902 0.000000
0.125490 0.254902 0.000000
0.168627 0.254902 0.000000
0.207843 0.254902 0.000000
0.250980 0.254902 0.000000
0.290196 0.254902 0.000000
0.333333 0.254902 0.000000
0.376471 0.254902 0.000000
0.415686 0.254902 0.000000
0.458824 0.254902 0.000000
0.501961 0.254902 0.000000
0.541176 0.254902 0.000000
0.584314 0.254902 0.000000
0.623529 0.254902 0.000000
0.666667 0.254902 0.000000
0.709804 0.254902 0.000000
0.749020 0.254902 0.000000
0.792157 0.254902 0.000000
0.835294 0.254902 0.000000
0.874510 0.254902 0.000000
0.917647 0.254902 0.000000
0.956863 0.254902 0.000000
1.000000 0.254902 0.000000
0.000000 0.286275 0.000000
0.043137 0.286275 0.000000
0.082353 0.286275 0.000000
0.125490 0.286275 0.000000
0.168627 0.286275 0.000000
0.207843 0.286275 0.000000
0.250980 0.286275 0.000000
0.290196 0.286275 0.000000
0.333333 0.286275 0.000000
0.376471 0.286275 0.000000
0.415686 0.286275 0.000000
0.458824 0.286275 0.000000
0.501961 0.286275 0.000000
0.541176 0.286275 0.000000
0.584314 0.286275 0.000000
0.623529 0.286275 0.000000
0.666667 0.286275 0.000000
0.709804 0.286275 0.000000
0.749020 0.286275 0.000000
0.792157 0.286275 0.000000
0.835294 0.286275 0.000000
0.874510 0.286275 0.000000
0.917647 0.286275 0.000000
0.956863 0.286275 0.000000
1.000000 0.286275 0.000000
0.000000 0.325490 0.000000
0.043137 0.325490 0.000000
0.082353 0.325490 0.000000
0.125490 0.325490 0.000000
0.168627 0.325490 0.000000
0.207843 0.325490 0.000000
0.250980 0.325490 0.000000
0.290196 0.325490 0.000000
0.333333 0.325490 0.000000
0.376471 0.325490 0.000000
0.415686 0.325490 0.000000
0.458824 0.325490 0.000000
0.501961 0.325490 0.000000
0.541176 0.325490 0.000000
0.584314 0.325490 0.000000
0.623529 0.325490 0.000000
0.666667 0.325490 0.000000
0.709804 0.325490 0.000000
0.749020 0.325490 0.000000
0.792157 0.325490 0.000000
0.835294 0.325490 0.000000
0.874510 0.325490 0.000000
0.917647 0.325490 0.000000
0.956863 0.325490 0.000000
1.000000 0.325490 0.000000
0.000000 0.360784 0.000000
0.043137 0.360784 0.000000
0.082353 0.360784 0.000000
0.125490 0.360784 0.000000
0.168627 0.360784 0.000000
0.207843 0.360784 0.000000
0.250980 0.360784 0.000000
0.290196 0.360784 0.000000
0.333333 0.360784 0.000000
0.376471 0.360784 0.000000
0.415686 0.360784 0.000000
0.458824 0.360784 0.000000
0.501961 0.360784 0.000000
0.541176 0.360784 0.000000
0.584314 0.360784 0.000000
0.623529 0.360784 0.000000
0.666667 0.360784 0.000000
0.709804 0.360784 0.000000
0.749020 0.360784 0.000000
0.792157 0.360784 0.000000
0.835294 0.360784 0.000000
0.874510 0.360784 0.000000
0.917647 0.360784 0.000000
0.956863 0.360784 0.000000
1.000000 0.360784 0.000000
0.000000 0.400000 0.000000
0.043137 0.400000 0.000000
0.082353 0.400000 0.000000
0.125490 0.400000 0.000000
0.168627 0.400000 0.000000
0.207843 0.400000 0.000000
0.250980 0.400000 0.000000
0.290196 0.400000 0.000000
0.333333 0.400000 0.000000
0.376471 0.400000 0.000000
0.415686 0.400000 0.000000
0.458824 0.400000 0.000000
0.501961 0.400000 0.000000
0.541176 0.400000 0.000000
0.584314 0.400000 0.000000
0.623529 0.400000 0.000000
0.666667 0.400000 0.000000
0.709804 0.400000 0.000000
0.749020 0.400000 0.000000
0.792157 0.400000 0.000000
0.835294 0.400000 0.000000
0.874510 0.400000 0.000000
0.917647 0.400000 0.000000
0.956863 0.400000 0.000000
1.000000 0.400000 0.000000
0.000000 0.439216 0.000000
0.043137 0.439216 0.000000
0.082353 0.439216 0.000000
0.125490 0.439216 0.000000
0.168627 0.439216 0.000000
0.207843 0.439216 0.000000
0.250980 0.439216 0.000000
0.290196 0.439216 0.000000
0.333333 0.439216 0.000000
0.376471 0.439216 0.000000
0.415686 0.439216 0.000000
0.458824 0.439216 0.000000
0.501961 0.439216 0.000000
0.541176 0.439216 0.000000
0.584314 0.439216 0.000000
0.623529 0.439216 0.000000
0.666667 0.439216 0.000000
0.709804 0.439216 0.000000
0.749020 0.439216 0.000000
0.792157 0.439216 0.000000
0.835294 0.439216 0.000000
0.874510 0.439216 0.000000
0.917647 0.439216 0.000000
0.956863 0.439216 0.000000
1.000000 0.439216 0.000000
0.000000 0.482353 0.000000
0.043137 0.482353 0.000000
0.082353 0.482353 0.000000
0.125490 0.482353 0.000000
0.168627 0.482353 0.000000
0.207843 0.482353 0.000000
0.250980 0.482353 0.000000
0.290196 0.482353 0.000000
0.333333 0.482353 0.000000
0.376471 0.482353 0.000000
0.415686 0.482353 0.000000
0.458824 0.482353 0.000000
0.501961 0.482353 0.000000
0.541176 0.482353 0.000000
0.584314 0.482353 0.000000
0.623529 0.482353 0.000000
0.666667 0.482353 0.000000
0.709804 0.482353 0.000000
0.749020 0.482353 0.000000
0.792157 0.482353 0.000000
0.835294 0.482353 0.000000
0.874510 0.482353 0.000000
0.917647 0.482353 0.000000
0.956863 0.482353 0.000000
1.000000 0.482353 0.000000
0.000000 0.533333 0.000000
0.043137 0.533333 0.000000
0.082353 0.533333 0.000000
0.125490 0.533333 0.000000
0.168627 0.533333 0.000000
0.207843 0.533333 0.000000
0.250980 0.533333 0.000000
0.290196 0.533333 0.000000
0.333333 0.533333 0.000000
0.376471 0.533333 0.000000
0.415686 0.533333 0.000000
0.458824 0.533333 0.000000
0.501961 0.533333 0.000000
0.541176 0.533333 0.000000
0.584314 0.533333 0.000000
0.623529 0.533333 0.000000
0.666667 0.533333 0.000000
0.709804 0.533333 0.000000
0.749020 0.533333 0.000000
0.792157 0.533333 0.000000
0.835294 0.533333 0.000000
0.874510 0.533333 0.000000
0.917647 0.533333 0.000000
0.956863 0.533333 0.000000
1.000000 0.533333 0.000000
0.000000 0.584314 0.000000
0.043137 0.584314 0.000000
0.082353 0.584314 0.000000
0.125490 0.584314 0.000000
0.168627 0.584314 0.000000
0.207843 0.584314 0.000000
0.250980 0.584314 0.000000
0.290196 0.584314 0.000000
0.333333 0.584314 0.000000
0.376471 0.584314 0.000000
0.415686 0.584314 0.000000
0.458824 0.584314 0.000000
0.501961 0.584314 0.000000
0.541176 0.584314 0.000000
0.584314 0.584314 0.000000
0.623529 0.584314 0.000000
0.666667 0.584314 0.000000
0.709804 0.584314 0.000000
0.749020 0.584314 0.000000
0.792157 0.584314 0.000000
0.835294 0.584314 0.000000
0.874510 0.584314 0.000000
0.917647 0.584314 0.000000
0.956863 0.584314 0.000000
1.000000 0.584314 0.000000
0.000000 0.635294 0.000000
0.043137 0.635294 0.000000
0.082353 0.635294 0.000000
0.125490 0.635294 0.000000
0.168627 0.635294 0.000000
0.207843 0.635294 0.000000
0.250980 0.635294 0.000000
0.290196 0.635294 0.000000
0.333333 0.635294 0.000000
0.376471 0.635294 0.000000
0.415686 0.635294 0.000000
0.458824 0.635294 0.000000
0.501961 0.635294 0.000000
0.541176 0.635294 0.000000
0.584314 0.635294 0.000000
0.623529 0.635294 0.000000
0.666667 0.635294 0.000000
0.709804 0.635294 0.000000
0.749020 0.635294 0.000000
0.792157 0.635294 0.000000
0.835294 0.635294 0.000000
0.874510 0.635294 0.000000
0.917647 0.635294 0.000000
0.956863 0.635294 0.000000
1.000000 0.635294 0.000000
0.000000 0.694118 0.000000
0.043137 0.694118 0.000000
0.082353 0.694118 0.000000
0.125490 0.694118 0.000000
0.168627 0.694118 0.000000
0.207843 0.694118 0.000000
0.250980 0.694118 0.000000
0.290196 0.694118 0.000000
0.333333 0.694118 0.000000
0.376471 0.694118 0.000000
0.415686 0.694118 0.000000
0.458824 0.694118 0.000000
0.501961 0.694118 0.000000
0.541176 0.694118 0.000000
0.584314 0.694118 0.000000
0.623529 0.694118 0.000000
0.666667 0.694118 0.000000
0.709804 0.694118 0.000000
0.749020 0.694118 0.000000
0.792157 0.694118 0.000000
0.835294 0.694118 0.000000
0.874510 0.694118 0.000000
0.917647 0.694118 0.000000
0.956863 0.694118 0.000000
1.000000 0.694118 0.000000
0.000000 0.752941 0.000000
0.043137 0.752941 0.000000
0.082353 0.752941 0.000000
0.125490 0.752941 0.000000
0.168627 0.752941 0.000000
0.207843 0.752941 0.000000
0.250980 0.752941 0.000000
0.290196 0.752941 0.000000
0.333333 0.752941 0.000000
0.376471 0.752941 0.000000
0.415686 0.752941 0.000000
0.458824 0.752941 0.000000
0.501961 0.752941 0.000000
0.541176 0.752941 0.000000
0.584314 0.752941 0.000000
0.623529 0.752941 0.000000
0.666667 0.752941 0.000000
0.709804 0.752941 0.000000
0.749020 0.752941 0.000000
0.792157 0.752941 0.000000
0.835294 0.752941 0.000000
0.874510 0.752941 0.000000
0.917647 0.752941 0.000000
0.956863 0.752941 0.000000
1.000000 0.752941 0.000000
0.000000 0.811765 0.000000
0.043137 0.811765 0.000000
0.082353 0.811765 0.000000
0.125490 0.811765 0.000000
0.168627 0.811765 0.000000
0.207843 0.811765 0.000000
0.250980 0.811765 0.000000
0.290196 0.811765 0.000000
0.333333 0.811765 0.000000
0.376471 0.811765 0.000000
0.415686 0.811765 0.000000
0.458824 0.811765 0.000000
0.501961 0.811765 0.000000
0.541176 0.811765 0.000000
0.584314 0.811765 0.000000
0.623529 0.811765 0.000000
0.666667 0.811765 0.000000
0.709804 0.811765 0.000000
0.749020 0.811765 0.000000
0.792157 0.811765 0.000000
0.835294 0.811765 0.000000
0.874510 0.811765 0.000000
0.917647 0.811765 0.000000
0.956863 0.811765 0.000000
1.000000 0.811765 0.000000
0.000000 0.874510 0.000000
0.043137 0.874510 0.000000
0.082353 0.874510 0.000000
0.125490 0.874510 0.000000
0.168627 0.874510 0.000000
0.207843 0.874510 0.000000
0.250980 0.874510 0.000000
0.290196 0.874510 0.000000
0.333333 0.874510 0.000000
0.376471 0.874510 0.000000
0.415686 0.874510 0.000000
0.458824 0.874510 0.000000
0.501961 0.874510 0.000000
0.541176 0.874510 0.000000
0.584314 0.874510 0.000000
0.623529 0.874510 0.000000
0.666667 0.874510 0.000000
0.709804 0.874510 0.000000
0.749020 0.874510 0.000000
0.792157 0.874510 0.000000
0.835294 0.874510 0.000000
0.874510 0.874510 0.000000
0.917647 0.874510 0.000000
0.956863 0.874510 0.000000
1.000000 0.874510 0.000000
0.000000 0.933333 0.000000
0.043137 0.933333 0.000000
0.082353 0.933333 0.000000
0.125490 0.933333 0.000000
0.168627 0.933333 0.000000
0.207843 0.933333 0.000000
0.250980 0.933333 0.000000
0.290196 0.933333 0.000000
0.333333 0.933333 0.000000
0.376471 0.933333 0.000000
0.415686 0.933333 0.000000
0.458824 0.933333 0.000000
0.501961 0.933333 0.000000
0.541176 0.933333 0.000000
0.584314 0.933333 0.000000
0.623529 0.933333 0.000000
0.666667 0.933333 0.000000
0.709804 0.933333 0.000000
0.749020 0.933333 0.000000
0.792157 0.933333 0.000000
0.835294 0.933333 0.000000
0.874510 0.933333 0.000000
0.917647 0.933333 0.000000
0.956863 0.933333 0.000000
1.000000 0.933333 0.000000
0.000000 1.000000 0.000000
0.043137 1.000000 0.000000
0.082353 1.000000 0.000000
0.125490 1.000000 0.000000
0.168627 1.000000 0.000000
0.207843 1.000000 0.000000
0.250980 1.000000 0.000000
0.290196 1.000000 0.000000
0.333333 1.000000 0.000000
0.376471 1.000000 0.000000
0.415686 1.000000 0.000000
0.458824 1.000000 0.000000
0.501961 1.000000 0.000000
0.541176 1.000000 0.000000
0.584314 1.000000 0.000000
0.623529 1.000000 0.000000
0.666667 1.000000 0.000000
0.709804 1.000000 0.000000
0.749020 1.000000 0.000000
0.792157 1.000000 0.000000
0.835294 1.000000 0.000000
0.874510 1.000000 0.000000
0.917647 1.000000 0.000000
0.956863 1.000000 0.000000
1.000000 1.000000 0.000000
0.000000 0.000000 0.066667
0.043137 0.000000 0.066667
0.082353 0.000000 0.066667
0.125490 0.000000 0.066667
0.168627 0.000000 0.066667
0.207843 0.000000 0.066667
0.250980 0.000000 0.066667
0.290196 0.000000 0.066667
0.333333 0.000000 0.066667
0.376471 0.000000 0.066667
0.415686 0.000000 0.066667
0.458824 0.000000 0.066667
0.501961 0.000000 0.066667
0.541176 0.000000 0.066667
0.584314 0.000000 0.066667
0.623529 0.000000 0.066667
0.666667 0.000000 0.066667
0.709804 0.000000 0.066667
0.749020 0.000000 0.066667
0.792157 0.000000 0.066667
0.835294 0.000000 0.066667
0.874510 0.000000 0.066667
0.917647 0.000000 0.066667
0.956863 0.000000 0.066667
1.000000 0.000000 0.066667
0.000000 0.027451 0.066667
0.043137 0.027451 0.066667
0.082353 0.027451 0.066667
0.125490 0.027451 0.066667
0.168627 0.027451 0.066667
0.207843 0.027451 0.066667
0.250980 0.027451 0.066667
0.290196 0.027451 0.066667
0.333333 0.027451 0.066667
0.376471 0.027451 0.066667
0.415686 0.027451 0.066667
0.458824 0.027451 0.066667
0.501961 0.027451 0.066667
0.541176 0.027451 0.066667
0.584314 0.027451 0.066667
0.623529 0.027451 0.066667
0.666667 0.027451 0.066667
0.709804 0.027451 0.066667
0.749020 0.027451 0.066667
0.792157 0.027451 0.066667
0.835294 0.027451 0.066667
0.874510 0.027451 0.066667
0.917647 0.027451 0.066667
0.956863 0.027451 0.066667
1.000000 0.027451 0.066667
0.000000 0.050980 0.066667
0.043137 0.050980 0.066667
0.082353 0.050980 0.066667
0.125490 0.050980 0.066667
0.168627 0.050980 0.066667
0.207843 0.050980 0.066667
0.250980 0.050980 0.066667
0.290196 0.050980 0.066667
0.333333 0.050980 0.066667
0.376471 0.050980 0.066667
0.415686 0.050980 0.066667
0.458824 0.050980 0.066667
0.501961 0.050980 0.066667
0.541176 0.050980 0.066667
0.584314 0.050980 0.066667
0.623529 0.050980 0.066667
0.666667 0.050980 0.066667
0.709804 0.050980 0.066667
0.749020 0.050980 0.066667
0.792157 0.050980 0.066667
0.835294 0.050980 0.066667
0.874510 0.050980 0.066667
0.917647 0.050980 0.066667
0.956863 0.050980 0.066667
1.000000 0.050980 0.066667
0.000000 0.078431 0.066667
0.043137 0.078431 0.066667
0.082353 0.078431 0.066667
0.125490 0.078431 0.066667
0.168627 0.078431 0.066667
0.207843 0.078431 0.066667
0.250980 0.078431 0.066667
0.290196 0.078431 0.066667
0.333333 0.078431 0.066667
0.376471 0.078431 0.066667
0.415686 0.078431 0.066667
0.458824 0.078431 0.066667
0.501961 0.078431 0.066667
0.541176 0.078431 0.066667
0.584314 0.078431 0.066667
0.623529 0.078431 0.066667
0.666667 0.078431 0.066667
0.709804 0.078431 0.066667
0.749020 0.078431 0.066667
0.792157 0.078431 0.066667
0.835294 0.078431 0.066667
0.874510 0.078431 0.066667
0.917647 0.078431 0.066667
0.956863 0.078431 0.066667
1.000000 0.078431 0.066667
0.000000 0.105882 0.066667
0.043137 0.105882 0.066667
0.082353 0.105882 0.066667
0.125490 0.105882 0.066667
0.168627 0.105882 0.066667
0.207843 0.105882 0.066667
0.250980 0.105882 0.066667
0.290196 0.105882 0.066667
0.333333 0.105882 0.066667
0.376471 0.105882 0.066667
0.415686 0.105882 0.066667
0.458824 0.105882 0.066667
0.501961 0.105882 0.066667
0.541176 0.105882 0.066667
0.584314 0.105882 0.066667
0.623529 0.105882 0.066667
0.666667 0.105882 0.066667
0.709804 0.105882 0.066667
0.749020 0.105882 0.066667
0.792157 0.105882 0.066667
0.835294 0.105882 0.066667
0.874510 0.105882 0.066667
0.917647 0.105882 0.066667
0.956863 0.105882 0.066667
1.000000 0.105882 0.066667
0.000000 0.133333 0.066667
0.043137 0.133333 0.066667
0.082353 0.133333 0.066667
0.125490 0.133333 0.066667
0.168627 0.133333 0.066667
0.207843 0.133333 0.066667
0.250980 0.133333 0.066667
0.290196 0.133333 0.066667
0.333333 0.133333 0.066667
0.376471 0.133333 0.066667
0.415686 0.133333 0.066667
0.458824 0.133333 0.066667
0.501961 0.133333 0.066667
0.541176 0.133333 0.066667
0.584314 0.133333 0.066667
0.623529 0.133333 0.066667
0.666667 0.133333 0.066667
0.709804 0.133333 0.066667
0.749020 0.133333 0.066667
0.792157 0.133333 0.066667
0.835294 0.133333 0.066667
0.874510 0.133333 0.066667
0.917647 0.133333 0.066667
0.956863 0.133333 0.066667
1.000000 0.133333 0.066667
0.000000 0.164706 0.066667
0.043137 0.164706 0.066667
0.082353 0.164706 0.066667
0.125490 0.164706 0.066667
0.168627 0.164706 0.066667
0.207843 0.164706 0.066667
0.250980 0.164706 0.066667
0.290196 0.164706 0.066667
0.333333 0.164706 0.066667
0.376471 0.164706 0.066667
0.415686 0.164706 0.066667
0.458824 0.164706 0.066667
0.501961 0.164706 0.066667
0.541176 0.164706 0.066667
0.584314 0.164706 0.066667
0.623529 0.164706 0.066667
0.666667 0.164706 0.066667
0.709804 0.164706 0.066667
0.749020 0.164706 0.066667
0.792157 0.164706 0.066667
0.835294 0.164706 0.066667
0.874510 0.164706 0.066667
0.917647 0.164706 0.066667
0.956863 0.164706 0.066667
1.000000 0.164706 0.066667
0.000000 0.192157 0.066667
0.043137 0.192157 0.066667
0.082353 0.192157 0.066667
0.125490 0.192157 0.066667
0.168627 0.192157 0.066667
0.207843 0.192157 0.066667
0.250980 0.192157 0.066667
0.290196 0.192157 0.066667
0.333333 0.192157 0.066667
0.376471 0.192157 0.066667
0.415686 0.192157 0.066667
0.458824 0.192157 0.066667
0.501961 0.192157 0.066667
0.541176 0.192157 0.066667
0.584314 0.192157 0.066667
0.623529 0.192157 0.066667
0.666667 0.192157 0.066667
0.709804 0.192157 0.066667
0.749020 0.192157 0.066667
0.792157 0.192157 0.066667
0.835294 0.192157 0.066667
0.874510 0.192157 0.066667
0.917647 0.192157 0.066667
0.956863 0.192157 0.066667
1.000000 0.192157 0.066667
0.000000 0.223529 0.066667
0.043137 0.223529 0.066667
0.082353 0.223529 0.066667
0.125490 0.223529 0.066667
0.168627 0.223529 0.066667
0.207843 0.223529 0.066667
0.250980 0.223529 0.066667
0.290196 0.223529 0.066667
0.333333 0.223529 0.066667
0.376471 0.223529 0.066667
0.415686 0.223529 0.066667
0.458824 0.223529 0.066667
0.501961 0.223529 0.066667
0.541176 0.223529 0.066667
0.584314 0.223529 0.066667
0.623529 0.223529 0.066667
0.666667 0.223529 0.066667
0.709804 0.223529 0.066667
0.749020 0.223529 0.066667
0.792157 0.223529 0.066667
0.835294 0.223529 0.066667
0.874510 0.223529 0.066667
0.917647 0.223529 0.066667
0.956863 0.223529 0.066667
1.000000 0.223529 0.066667
0.000000 0.254902 0.066667
0.043137 0.254902 0.066667
0.082353 0.254902 0.066667
0.125490 0.254902 0.066667
0.168627 0.254902 0.066667
0.207843 0.254902 0.066667
0.250980 0.254902 0.066667
0.290196 0.254902 0.066667
0.333333 0.254902 0.066667
0.376471 0.254902 0.066667
0.415686 0.254902 0.066667
0.458824 0.254902 0.066667
0.501961 0.254902 0.066667
0.541176 0.254902 0.066667
0.584314 0.254902 0.066667
0.623529 0.254902 0.066667
0.666667 0.254902 0.066667
0.709804 0.254902 0.066667
0.749020 0.254902 0.066667
0.792157 0.254902 0.066667
0.835294 0.254902 0.066667
0.874510 0.254902 0.066667
0.917647 0.254902 0.066667
0.956863 0.254902 0.066667
1.000000 0.254902 0.066667
0.000000 0.286275 0.066667
0.043137 0.286275 0.066667
0.082353 0.286275 0.066667
0.125490 0.286275 0.066667
0.168627 0.286275 0.066667
0.207843 0.286275 0.066667
0.250980 0.286275 0.066667
0.290196 0.286275 0.066667
0.333333 0.286275 0.066667
