LUTs/Damaging/LUT_MAGENTA/majesty.cube
#Generated by lutCreator.js
#Coded by SirSerch
#https://github.com/SirSerch/LutCreatorJs
TITLE lutCreatorJs_25
LUT_3D_SIZE 5
0.000000 0.000000 0.000000
0.250980 0.000000 0.000000
0.501961 0.000000 0.000000
0.749020 0.000000 0.000000
1.000000 0.000000 0.000000
0.000000 0.164706 0.000000
0.250980 0.164706 0.000000
0.501961 0.164706 0.000000
0.749020 0.164706 0.000000
1.000000 0.164706 0.000000
0.000000 0.360784 0.000000
0.250980 0.360784 0.000000
0.501961 0.360784 0.000000
0.749020 0.360784 0.000000
1.000000 0.360784 0.000000
0.000000 0.635294 0.000000
0.250980 0.635294 0.000000
0.501961 0.635294 0.000000
0.749020 0.635294 0.000000
1.000000 0.635294 0.000000
0.000000 1.000000 0.000000
0.250980 1.000000 0.000000
0.501961 1.000000 0.000000
0.749020 1.000000 0.000000
1.000000 1.000000 0.000000
0.000000 0.000000 0.368627
0.250980 0.000000 0.368627
0.501961 0.000000 0.368627
0.749020 0.000000 0.368627
1.000000 0.000000 0.368627
0.000000 0.164706 0.368627
0.250980 0.164706 0.368627
0.501961 0.164706 0.368627
0.749020 0.164706 0.368627
1.000000 0.164706 0.368627
0.000000 0.360784 0.368627
0.250980 0.360784 0.368627
0.501961 0.360784 0.368627
0.749020 0.360784 0.368627
1.000000 0.360784 0.368627
0.000000 0.635294 0.368627
0.250980 0.635294 0.368627
0.501961 0.635294 0.368627
0.749020 0.635294 0.368627
1.000000 0.635294 0.368627
0.000000 1.000000 0.368627
0.250980 1.000000 0.368627
0.501961 1.000000 0.368627
0.749020 1.000000 0.368627
1.000000 1.000000 0.368627
0.000000 0.000000 0.658824
0.250980 0.000000 0.658824
0.501961 0.000000 0.658824
0.749020 0.000000 0.658824
1.000000 0.000000 0.658824
0.000000 0.164706 0.658824
0.250980 0.164706 0.658824
0.501961 0.164706 0.658824
0.749020 0.164706 0.658824
1.000000 0.164706 0.658824
0.000000 0.360784 0.658824
0.250980 0.360784 0.658824
0.501961 0.360784 0.658824
0.749020 0.360784 0.658824
1.000000 0.360784 0.658824
0.000000 0.635294 0.658824
0.250980 0.635294 0.658824
0.501961 0.635294 0.658824
0.749020 0.635294 0.658824
1.000000 0.635294 0.658824
0.000000 1.000000 0.658824
0.250980 1.000000 0.658824
0.501961 1.000000 0.658824
0.749020 1.000000 0.658824
1.000000 1.000000 0.658824
0.000000 0.000000 0.850980
0.250980 0.000000 0.850980
0.501961 0.000000 0.850980
0.749020 0.000000 0.850980
1.000000 0.000000 0.850980
0.000000 0.164706 0.850980
0.250980 0.164706 0.850980
0.501961 0.164706 0.850980
0.749020 0.164706 0.850980
1.000000 0.164706 0.850980
0.000000 0.360784 0.850980
0.250980 0.360784 0.850980
0.501961 0.360784 0.850980
0.749020 0.360784 0.850980
1.000000 0.360784 0.850980
0.000000 0.635294 0.850980
0.250980 0.635294 0.850980
0.501961 0.635294 0.850980
0.749020 0.635294 0.850980
1.000000 0.635294 0.850980
0.000000 1.000000 0.850980
0.250980 1.000000 0.850980
0.501961 1.000000 0.850980
0.749020 1.000000 0.850980
1.000000 1.000000 0.850980
0.000000 0.000000 1.000000
0.250980 0.000000 1.000000
0.501961 0.000000 1.000000
0.749020 0.000000 1.000000
1.000000 0.000000 1.000000
0.000000 0.164706 1.000000
0.250980 0.164706 1.000000
0.501961 0.164706 1.000000
0.749020 0.164706 1.000000
1.000000 0.164706 1.000000
0.000000 0.360784 1.000000
0.250980 0.360784 1.000000
0.501961 0.360784 1.000000
0.749020 0.360784 1.000000
1.000000 0.360784 1.000000
0.000000 0.635294 1.000000
0.250980 0.635294 1.000000
0.501961 0.635294 1.000000
0.749020 0.635294 1.000000
1.000000 0.635294 1.000000
0.000000 1.000000 1.000000
0.250980 1.000000 1.000000
0.501961 1.000000 1.000000
0.749020 1.000000 1.000000
1.000000 1.000000 1.000000
