LUTs/Damaging/LUT_MAGENTA/majesty.cube
#Generated by lutCreator.js
#Coded by SirSerch
#https://github.com/SirSerch/LutCreatorJs
TITLE lutCreatorJs_25
LUT_3D_SIZE 9
0.000000 0.000000 0.000000
0.125490 0.000000 0.000000
0.250980 0.000000 0.000000
0.376471 0.000000 0.000000
0.501961 0.000000 0.000000
0.623529 0.000000 0.000000
0.749020 0.000000 0.000000
0.874510 0.000000 0.000000
1.000000 0.000000 0.000000
0.000000 0.078431 0.000000
0.125490 0.078431 0.000000
0.250980 0.078431 0.000000
0.376471 0.078431 0.000000
0.501961 0.078431 0.000000
0.623529 0.078431 0.000000
0.749020 0.078431 0.000000
0.874510 0.078431 0.000000
1.000000 0.078431 0.000000
0.000000 0.164706 0.000000
0.125490 0.164706 0.000000
0.250980 0.164706 0.000000
0.376471 0.164706 0.000000
0.501961 0.164706 0.000000
0.623529 0.164706 0.000000
0.749020 0.164706 0.000000
0.874510 0.164706 0.000000
1.000000 0.164706 0.000000
0.000000 0.254902 0.000000
0.125490 0.254902 0.000000
0.250980 0.254902 0.000000
0.376471 0.254902 0.000000
0.501961 0.254902 0.000000
0.623529 0.254902 0.000000
0.749020 0.254902 0.000000
0.874510 0.254902 0.000000
1.000000 0.254902 0.000000
0.000000 0.360784 0.000000
0.125490 0.360784 0.000000
0.250980 0.360784 0.000000
0.376471 0.360784 0.000000
0.501961 0.360784 0.000000
0.623529 0.360784 0.000000
0.749020 0.360784 0.000000
0.874510 0.360784 0.000000
1.000000 0.360784 0.000000
0.000000 0.482353 0.000000
0.125490 0.482353 0.000000
0.250980 0.482353 0.000000
0.376471 0.482353 0.000000
0.501961 0.482353 0.000000
0.623529 0.482353 0.000000
0.749020 0.482353 0.000000
0.874510 0.482353 0.000000
1.000000 0.482353 0.000000
0.000000 0.635294 0.000000
0.125490 0.635294 0.000000
0.250980 0.635294 0.000000
0.376471 0.635294 0.000000
0.501961 0.635294 0.000000
0.623529 0.635294 0.000000
0.749020 0.635294 0.000000
0.874510 0.635294 0.000000
1.000000 0.635294 0.000000
0.000000 0.811765 0.000000
0.125490 0.811765 0.000000
0.250980 0.811765 0.000000
0.376471 0.811765 0.000000
0.501961 0.811765 0.000000
0.623529 0.811765 0.000000
0.749020 0.811765 0.000000
0.874510 0.811765 0.000000
1.000000 0.811765 0.000000
0.000000 1.000000 0.000000
0.125490 1.000000 0.000000
0.250980 1.000000 0.000000
0.376471 1.000000 0.000000
0.501961 1.000000 0.000000
0.623529 1.000000 0.000000
0.749020 1.000000 0.000000
0.874510 1.000000 0.000000
1.000000 1.000000 0.000000
0.000000 0.000000 0.188235
0.125490 0.000000 0.188235
0.250980 0.000000 0.188235
0.376471 0.000000 0.188235
0.501961 0.000000 0.188235
0.623529 0.000000 0.188235
0.749020 0.000000 0.188235
0.874510 0.000000 0.188235
1.000000 0.000000 0.188235
0.000000 0.078431 0.188235
0.125490 0.078431 0.188235
0.250980 0.078431 0.188235
0.376471 0.078431 0.188235
0.501961 0.078431 0.188235
0.623529 0.078431 0.188235
0.749020 0.078431 0.188235
0.874510 0.078431 0.188235
1.000000 0.078431 0.188235
0.000000 0.164706 0.188235
0.125490 0.164706 0.188235
0.250980 0.164706 0.188235
0.376471 0.164706 0.188235
0.501961 0.164706 0.188235
0.623529 0.164706 0.188235
0.749020 0.164706 0.188235
0.874510 0.164706 0.188235
1.000000 0.164706 0.188235
0.000000 0.254902 0.188235
0.125490 0.254902 0.188235
0.250980 0.254902 0.188235
0.376471 0.254902 0.188235
0.501961 0.254902 0.188235
0.623529 0.254902 0.188235
0.749020 0.254902 0.188235
0.874510 0.254902 0.188235
1.000000 0.254902 0.188235
0.000000 0.360784 0.188235
0.125490 0.360784 0.188235
0.250980 0.360784 0.188235
0.376471 0.360784 0.188235
0.501961 0.360784 0.188235
0.623529 0.360784 0.188235
0.749020 0.360784 0.188235
0.874510 0.360784 0.188235
1.000000 0.360784 0.188235
0.000000 0.482353 0.188235
0.125490 0.482353 0.188235
0.250980 0.482353 0.188235
0.376471 0.482353 0.188235
0.501961 0.482353 0.188235
0.623529 0.482353 0.188235
0.749020 0.482353 0.188235
0.874510 0.482353 0.188235
1.000000 0.482353 0.188235
0.000000 0.635294 0.188235
0.125490 0.635294 0.188235
0.250980 0.635294 0.188235
0.376471 0.635294 0.188235
0.501961 0.635294 0.188235
0.623529 0.635294 0.188235
0.749020 0.635294 0.188235
0.874510 0.635294 0.188235
1.000000 0.635294 0.188235
0.000000 0.811765 0.188235
0.125490 0.811765 0.188235
0.250980 0.811765 0.188235
0.376471 0.811765 0.188235
0.501961 0.811765 0.188235
0.623529 0.811765 0.188235
0.749020 0.811765 0.188235
0.874510 0.811765 0.188235
1.000000 0.811765 0.188235
0.000000 1.000000 0.188235
0.125490 1.000000 0.188235
0.250980 1.000000 0.188235
0.376471 1.000000 0.188235
0.501961 1.000000 0.188235
0.623529 1.000000 0.188235
0.749020 1.000000 0.188235
0.874510 1.000000 0.188235
1.000000 1.000000 0.188235
0.000000 0.000000 0.368627
0.125490 0.000000 0.368627
0.250980 0.000000 0.368627
0.376471 0.000000 0.368627
0.501961 0.000000 0.368627
0.623529 0.000000 0.368627
0.749020 0.000000 0.368627
0.874510 0.000000 0.368627
1.000000 0.000000 0.368627
0.000000 0.078431 0.368627
0.125490 0.078431 0.368627
0.250980 0.078431 0.368627
0.376471 0.078431 0.368627
0.501961 0.078431 0.368627
0.623529 0.078431 0.368627
0.749020 0.078431 0.368627
0.874510 0.078431 0.368627
1.000000 0.078431 0.368627
0.000000 0.164706 0.368627
0.125490 0.164706 0.368627
0.250980 0.164706 0.368627
0.376471 0.164706 0.368627
0.501961 0.164706 0.368627
0.623529 0.164706 0.368627
0.749020 0.164706 0.368627
0.874510 0.164706 0.368627
1.000000 0.164706 0.368627
0.000000 0.254902 0.368627
0.125490 0.254902 0.368627
0.250980 0.254902 0.368627
0.376471 0.254902 0.368627
0.501961 0.254902 0.368627
0.623529 0.254902 0.368627
0.749020 0.254902 0.368627
0.874510 0.254902 0.368627
1.000000 0.254902 0.368627
0.000000 0.360784 0.368627
0.125490 0.360784 0.368627
0.250980 0.360784 0.368627
0.376471 0.360784 0.368627
0.501961 0.360784 0.368627
0.623529 0.360784 0.368627
0.749020 0.360784 0.368627
0.874510 0.360784 0.368627
1.000000 0.360784 0.368627
0.000000 0.482353 0.368627
0.125490 0.482353 0.368627
0.250980 0.482353 0.368627
0.376471 0.482353 0.368627
0.501961 0.482353 0.368627
0.623529 0.482353 0.368627
0.749020 0.482353 0.368627
0.874510 0.482353 0.368627
1.000000 0.482353 0.368627
0.000000 0.635294 0.368627
0.125490 0.635294 0.368627
0.250980 0.635294 0.368627
0.376471 0.635294 0.368627
0.501961 0.635294 0.368627
0.623529 0.635294 0.368627
0.749020 0.635294 0.368627
0.874510 0.635294 0.368627
1.000000 0.635294 0.368627
0.000000 0.811765 0.368627
0.125490 0.811765 0.368627
0.250980 0.811765 0.368627
0.376471 0.811765 0.368627
0.501961 0.811765 0.368627
0.623529 0.811765 0.368627
0.749020 0.811765 0.368627
0.874510 0.811765 0.368627
1.000000 0.811765 0.368627
0.000000 1.000000 0.368627
0.125490 1.000000 0.368627
0.250980 1.000000 0.368627
0.376471 1.000000 0.368627
0.501961 1.000000 0.368627
0.623529 1.000000 0.368627
0.749020 1.000000 0.368627
0.874510 1.000000 0.368627
1.000000 1.000000 0.368627
0.000000 0.000000 0.529412
0.125490 0.000000 0.529412
0.250980 0.000000 0.529412
0.376471 0.000000 0.529412
0.501961 0.000000 0.529412
0.623529 0.000000 0.529412
0.749020 0.000000 0.529412
0.874510 0.000000 0.529412
1.000000 0.000000 0.529412
0.000000 0.078431 0.529412
0.125490 0.078431 0.529412
0.250980 0.078431 0.529412
0.376471 0.078431 0.529412
0.501961 0.078431 0.529412
0.623529 0.078431 0.529412
0.749020 0.078431 0.529412
0.874510 0.078431 0.529412
1.000000 0.078431 0.529412
0.000000 0.164706 0.529412
0.125490 0.164706 0.529412
0.250980 0.164706 0.529412
0.376471 0.164706 0.529412
0.501961 0.164706 0.529412
0.623529 0.164706 0.529412
0.749020 0.164706 0.529412
0.874510 0.164706 0.529412
1.000000 0.164706 0.529412
0.000000 0.254902 0.529412
0.125490 0.254902 0.529412
0.250980 0.254902 0.529412
0.376471 0.254902 0.529412
0.501961 0.254902 0.529412
0.623529 0.254902 0.529412
0.749020 0.254902 0.529412
0.874510 0.254902 0.529412
1.000000 0.254902 0.529412
0.000000 0.360784 0.529412
0.125490 0.360784 0.529412
0.250980 0.360784 0.529412
0.376471 0.360784 0.529412
0.501961 0.360784 0.529412
0.623529 0.360784 0.529412
0.749020 0.360784 0.529412
0.874510 0.360784 0.529412
1.000000 0.360784 0.529412
0.000000 0.482353 0.529412
0.125490 0.482353 0.529412
0.250980 0.482353 0.529412
0.376471 0.482353 0.529412
0.501961 0.482353 0.529412
0.623529 0.482353 0.529412
0.749020 0.482353 0.529412
0.874510 0.482353 0.529412
1.000000 0.482353 0.529412
0.000000 0.635294 0.529412
0.125490 0.635294 0.529412
0.250980 0.635294 0.529412
0.376471 0.635294 0.529412
0.501961 0.635294 0.529412
0.623529 0.635294 0.529412
0.749020 0.635294 0.529412
0.874510 0.635294 0.529412
1.000000 0.635294 0.529412
0.000000 0.811765 0.529412
0.125490 0.811765 0.529412
0.250980 0.811765 0.529412
0.376471 0.811765 0.529412
0.501961 0.811765 0.529412
0.623529 0.811765 0.529412
0.749020 0.811765 0.529412
0.874510 0.811765 0.529412
1.000000 0.811765 0.529412
0.000000 1.000000 0.529412
0.125490 1.000000 0.529412
0.250980 1.000000 0.529412
0.376471 1.000000 0.529412
0.501961 1.000000 0.529412
0.623529 1.000000 0.529412
0.749020 1.000000 0.529412
0.874510 1.000000 0.529412
1.000000 1.000000 0.529412
0.000000 0.000000 0.658824
0.125490 0.000000 0.658824
0.250980 0.000000 0.658824
0.376471 0.000000 0.658824
0.501961 0.000000 0.658824
0.623529 0.000000 0.658824
0.749020 0.000000 0.658824
0.874510 0.000000 0.658824
1.000000 0.000000 0.658824
0.000000 0.078431 0.658824
0.125490 0.078431 0.658824
0.250980 0.078431 0.658824
0.376471 0.078431 0.658824
0.501961 0.078431 0.658824
0.623529 0.078431 0.658824
0.749020 0.078431 0.658824
0.874510 0.078431 0.658824
1.000000 0.078431 0.658824
0.000000 0.164706 0.658824
0.125490 0.164706 0.658824
0.250980 0.164706 0.658824
0.376471 0.164706 0.658824
0.501961 0.164706 0.658824
0.623529 0.164706 0.658824
0.749020 0.164706 0.658824
0.874510 0.164706 0.658824
1.000000 0.164706 0.658824
0.000000 0.254902 0.658824
0.125490 0.254902 0.658824
0.250980 0.254902 0.658824
0.376471 0.254902 0.658824
0.501961 0.254902 0.658824
0.623529 0.254902 0.658824
0.749020 0.254902 0.658824
0.874510 0.254902 0.658824
1.000000 0.254902 0.658824
0.000000 0.360784 0.658824
0.125490 0.360784 0.658824
0.250980 0.360784 0.658824
0.376471 0.360784 0.658824
0.501961 0.360784 0.658824
0.623529 0.360784 0.658824
0.749020 0.360784 0.658824
0.874510 0.360784 0.658824
1.000000 0.360784 0.658824
0.000000 0.482353 0.658824
0.125490 0.482353 0.658824
0.250980 0.482353 0.658824
0.376471 0.482353 0.658824
0.501961 0.482353 0.658824
0.623529 0.482353 0.658824
0.749020 0.482353 0.658824
0.874510 0.482353 0.658824
1.000000 0.482353 0.658824
0.000000 0.635294 0.658824
0.125490 0.635294 0.658824
0.250980 0.635294 0.658824
0.376471 0.635294 0.658824
0.501961 0.635294 0.658824
0.623529 0.635294 0.658824
0.749020 0.635294 0.658824
0.874510 0.635294 0.658824
1.000000 0.635294 0.658824
0.000000 0.811765 0.658824
0.125490 0.811765 0.658824
0.250980 0.811765 0.658824
0.376471 0.811765 0.658824
0.501961 0.811765 0.658824
0.623529 0.811765 0.658824
0.749020 0.811765 0.658824
0.874510 0.811765 0.658824
1.000000 0.811765 0.658824
0.000000 1.000000 0.658824
0.125490 1.000000 0.658824
0.250980 1.000000 0.658824
0.376471 1.000000 0.658824
0.501961 1.000000 0.658824
0.623529 1.000000 0.658824
0.749020 1.000000 0.658824
0.874510 1.000000 0.658824
1.000000 1.000000 0.658824
0.000000 0.000000 0.760784
0.125490 0.000000 0.760784
0.250980 0.000000 0.760784
0.376471 0.000000 0.760784
0.501961 0.000000 0.760784
0.623529 0.000000 0.760784
0.749020 0.000000 0.760784
0.874510 0.000000 0.760784
1.000000 0.000000 0.760784
0.000000 0.078431 0.760784
0.125490 0.078431 0.760784
0.250980 0.078431 0.760784
0.376471 0.078431 0.760784
0.501961 0.078431 0.760784
0.623529 0.078431 0.760784
0.749020 0.078431 0.760784
0.874510 0.078431 0.760784
1.000000 0.078431 0.760784
0.000000 0.164706 0.760784
0.125490 0.164706 0.760784
0.250980 0.164706 0.760784
0.376471 0.164706 0.760784
0.501961 0.164706 0.760784
0.623529 0.164706 0.760784
0.749020 0.164706 0.760784
0.874510 0.164706 0.760784
1.000000 0.164706 0.760784
0.000000 0.254902 0.760784
0.125490 0.254902 0.760784
0.250980 0.254902 0.760784
0.376471 0.254902 0.760784
0.501961 0.254902 0.760784
0.623529 0.254902 0.760784
0.749020 0.254902 0.760784
0.874510 0.254902 0.760784
1.000000 0.254902 0.760784
0.000000 0.360784 0.760784
0.125490 0.360784 0.760784
0.250980 0.360784 0.760784
0.376471 0.360784 0.760784
0.501961 0.360784 0.760784
0.623529 0.360784 0.760784
0.749020 0.360784 0.760784
0.874510 0.360784 0.760784
1.000000 0.360784 0.760784
0.000000 0.482353 0.760784
0.125490 0.482353 0.760784
0.250980 0.482353 0.760784
0.376471 0.482353 0.760784
0.501961 0.482353 0.760784
0.623529 0.482353 0.760784
0.749020 0.482353 0.760784
0.874510 0.482353 0.760784
1.000000 0.482353 0.760784
0.000000 0.635294 0.760784
0.125490 0.635294 0.760784
0.250980 0.635294 0.760784
0.376471 0.635294 0.760784
0.501961 0.635294 0.760784
0.623529 0.635294 0.760784
0.749020 0.635294 0.760784
0.874510 0.635294 0.760784
1.000000 0.635294 0.760784
0.000000 0.811765 0.760784
0.125490 0.811765 0.760784
0.250980 0.811765 0.760784
0.376471 0.811765 0.760784
0.501961 0.811765 0.760784
0.623529 0.811765 0.760784
0.749020 0.811765 0.760784
0.874510 0.811765 0.760784
1.000000 0.811765 0.760784
0.000000 1.000000 0.760784
0.125490 1.000000 0.760784
0.250980 1.000000 0.760784
0.376471 1.000000 0.760784
0.501961 1.000000 0.760784
0.623529 1.000000 0.760784
0.749020 1.000000 0.760784
0.874510 1.000000 0.760784
1.000000 1.000000 0.760784
0.000000 0.000000 0.850980
0.125490 0.000000 0.850980
0.250980 0.000000 0.850980
0.376471 0.000000 0.850980
0.501961 0.000000 0.850980
0.623529 0.000000 0.850980
0.749020 0.000000 0.850980
0.874510 0.000000 0.850980
1.000000 0.000000 0.850980
0.000000 0.078431 0.850980
0.125490 0.078431 0.850980
0.250980 0.078431 0.850980
0.376471 0.078431 0.850980
0.501961 0.078431 0.850980
0.623529 0.078431 0.850980
0.749020 0.078431 0.850980
0.874510 0.078431 0.850980
1.000000 0.078431 0.850980
0.000000 0.164706 0.850980
0.125490 0.164706 0.850980
0.250980 0.164706 0.850980
0.376471 0.164706 0.850980
0.501961 0.164706 0.850980
0.623529 0.164706 0.850980
0.749020 0.164706 0.850980
0.874510 0.164706 0.850980
1.000000 0.164706 0.850980
0.000000 0.254902 0.850980
0.125490 0.254902 0.850980
0.250980 0.254902 0.850980
0.376471 0.254902 0.850980
0.501961 0.254902 0.850980
0.623529 0.254902 0.850980
0.749020 0.254902 0.850980
0.874510 0.254902 0.850980
1.000000 0.254902 0.850980
0.000000 0.360784 0.850980
0.125490 0.360784 0.850980
0.250980 0.360784 0.850980
0.376471 0.360784 0.850980
0.501961 0.360784 0.850980
0.623529 0.360784 0.850980
0.749020 0.360784 0.850980
0.874510 0.360784 0.850980
1.000000 0.360784 0.850980
0.000000 0.482353 0.850980
0.125490 0.482353 0.850980
0.250980 0.482353 0.850980
0.376471 0.482353 0.850980
0.501961 0.482353 0.850980
0.623529 0.482353 0.850980
0.749020 0.482353 0.850980
0.874510 0.482353 0.850980
1.000000 0.482353 0.850980
0.000000 0.635294 0.850980
0.125490 0.635294 0.850980
0.250980 0.635294 0.850980
0.376471 0.635294 0.850980
0.501961 0.635294 0.850980
0.623529 0.635294 0.850980
0.749020 0.635294 0.850980
0.874510 0.635294 0.850980
1.000000 0.635294 0.850980
0.000000 0.811765 0.850980
0.125490 0.811765 0.850980
0.250980 0.811765 0.850980
0.376471 0.811765 0.850980
0.501961 0.811765 0.850980
0.623529 0.811765 0.850980
0.749020 0.811765 0.850980
0.874510 0.811765 0.850980
1.000000 0.811765 0.850980
0.000000 1.000000 0.850980
0.125490 1.000000 0.850980
0.250980 1.000000 0.850980
0.376471 1.000000 0.850980
0.501961 1.000000 0.850980
0.623529 1.000000 0.850980
0.749020 1.000000 0.850980
0.874510 1.000000 0.850980
1.000000 1.000000 0.850980
0.000000 0.000000 0.929412
0.125490 0.000000 0.929412
0.250980 0.000000 0.929412
0.376471 0.000000 0.929412
0.501961 0.000000 0.929412
0.623529 0.000000 0.929412
0.749020 0.000000 0.929412
0.874510 0.000000 0.929412
1.000000 0.000000 0.929412
0.000000 0.078431 0.929412
0.125490 0.078431 0.929412
0.250980 0.078431 0.929412
0.376471 0.078431 0.929412
0.501961 0.078431 0.929412
0.623529 0.078431 0.929412
0.749020 0.078431 0.929412
0.874510 0.078431 0.929412
1.000000 0.078431 0.929412
0.000000 0.164706 0.929412
0.125490 0.164706 0.929412
0.250980 0.164706 0.929412
0.376471 0.164706 0.929412
0.501961 0.164706 0.929412
0.623529 0.164706 0.929412
0.749020 0.164706 0.929412
0.874510 0.164706 0.929412
1.000000 0.164706 0.929412
0.000000 0.254902 0.929412
0.125490 0.254902 0.929412
0.250980 0.254902 0.929412
0.376471 0.254902 0.929412
0.501961 0.254902 0.929412
0.623529 0.254902 0.929412
0.749020 0.254902 0.929412
0.874510 0.254902 0.929412
1.000000 0.254902 0.929412
0.000000 0.360784 0.929412
0.125490 0.360784 0.929412
0.250980 0.360784 0.929412
0.376471 0.360784 0.929412
0.501961 0.360784 0.929412
0.623529 0.360784 0.929412
0.749020 0.360784 0.929412
0.874510 0.360784 0.929412
1.000000 0.360784 0.929412
0.000000 0.482353 0.929412
0.125490 0.482353 0.929412
0.250980 0.482353 0.929412
0.376471 0.482353 0.929412
0.501961 0.482353 0.929412
0.623529 0.482353 0.929412
0.749020 0.482353 0.929412
0.874510 0.482353 0.929412
1.000000 0.482353 0.929412
0.000000 0.635294 0.929412
0.125490 0.635294 0.929412
0.250980 0.635294 0.929412
0.376471 0.635294 0.929412
0.501961 0.635294 0.929412
0.623529 0.635294 0.929412
0.749020 0.635294 0.929412
0.874510 0.635294 0.929412
1.000000 0.635294 0.929412
0.000000 0.811765 0.929412
0.125490 0.811765 0.929412
0.250980 0.811765 0.929412
0.376471 0.811765 0.929412
0.501961 0.811765 0.929412
0.623529 0.811765 0.929412
0.749020 0.811765 0.929412
0.874510 0.811765 0.929412
1.000000 0.811765 0.929412
0.000000 1.000000 0.929412
0.125490 1.000000 0.929412
0.250980 1.000000 0.929412
0.376471 1.000000 0.929412
0.501961 1.000000 0.929412
0.623529 1.000000 0.929412
0.749020 1.000000 0.929412
0.874510 1.000000 0.929412
1.000000 1.000000 0.929412
0.000000 0.000000 1.000000
0.125490 0.000000 1.000000
0.250980 0.000000 1.000000
0.376471 0.000000 1.000000
0.501961 0.000000 1.000000
0.623529 0.000000 1.000000
0.749020 0.000000 1.000000
0.874510 0.000000 1.000000
1.000000 0.000000 1.000000
0.000000 0.078431 1.000000
0.125490 0.078431 1.000000
0.250980 0.078431 1.000000
0.376471 0.078431 1.000000
0.501961 0.078431 1.000000
0.623529 0.078431 1.000000
0.749020 0.078431 1.000000
0.874510 0.078431 1.000000
1.000000 0.078431 1.000000
0.000000 0.164706 1.000000
0.125490 0.164706 1.000000
0.250980 0.164706 1.000000
0.376471 0.164706 1.000000
0.501961 0.164706 1.000000
0.623529 0.164706 1.000000
0.749020 0.164706 1.000000
0.874510 0.164706 1.000000
1.000000 0.164706 1.000000
0.000000 0.254902 1.000000
0.125490 0.254902 1.000000
0.250980 0.254902 1.000000
0.376471 0.254902 1.000000
0.501961 0.254902 1.000000
0.623529 0.254902 1.000000
0.749020 0.254902 1.000000
0.874510 0.254902 1.000000
1.000000 0.254902 1.000000
0.000000 0.360784 1.000000
0.125490 0.360784 1.000000
0.250980 0.360784 1.000000
0.376471 0.360784 1.000000
0.501961 0.360784 1.000000
0.623529 0.360784 1.000000
0.749020 0.360784 1.000000
0.874510 0.360784 1.000000
1.000000 0.360784 1.000000
0.000000 0.482353 1.000000
0.125490 0.482353 1.000000
0.250980 0.482353 1.000000
0.376471 0.482353 1.000000
0.501961 0.482353 1.000000
0.623529 0.482353 1.000000
0.749020 0.482353 1.000000
0.874510 0.482353 1.000000
1.000000 0.482353 1.000000
0.000000 0.635294 1.000000
0.125490 0.635294 1.000000
0.250980 0.635294 1.000000
0.376471 0.635294 1.000000
0.501961 0.635294 1.000000
0.623529 0.635294 1.000000
0.749020 0.635294 1.000000
0.874510 0.635294 1.000000
1.000000 0.635294 1.000000
0.000000 0.811765 1.000000
0.125490 0.811765 1.000000
0.250980 0.811765 1.000000
0.376471 0.811765 1.000000
0.501961 0.811765 1.000000
0.623529 0.811765 1.000000
0.749020 0.811765 1.000000
0.874510 0.811765 1.000000
1.000000 0.811765 1.000000
0.000000 1.000000 1.000000
0.125490 1.000000 1.000000
0.250980 1.000000 1.000000
0.376471 1.000000 1.000000
0.501961 1.000000 1.000000
0.623529 1.000000 1.000000
0.749020 1.000000 1.000000
0.874510 1.000000 1.000000
1.000000 1.000000 1.000000
