LUTs/Damaging/LUT_MAGENTA/neon.cube
#Generated by lutCreator.js
#Coded by SirSerch
#https://github.com/SirSerch/LutCreatorJs
TITLE lutCreatorJs_25
LUT_3D_SIZE 9
0.000000 0.000000 0.000000
0.188235 0.000000 0.000000
0.368627 0.000000 0.000000
0.525490 0.000000 0.000000
0.654902 0.000000 0.000000
0.756863 0.000000 0.000000
0.847059 0.000000 0.000000
0.925490 0.000000 0.000000
1.000000 0.000000 0.000000
0.000000 0.082353 0.000000
0.188235 0.082353 0.000000
0.368627 0.082353 0.000000
0.525490 0.082353 0.000000
0.654902 0.082353 0.000000
0.756863 0.082353 0.000000
0.847059 0.082353 0.000000
0.925490 0.082353 0.000000
1.000000 0.082353 0.000000
0.000000 0.164706 0.000000
0.188235 0.164706 0.000000
0.368627 0.164706 0.000000
0.525490 0.164706 0.000000
0.654902 0.164706 0.000000
0.756863 0.164706 0.000000
0.847059 0.164706 0.000000
0.925490 0.164706 0.000000
1.000000 0.164706 0.000000
0.000000 0.258824 0.000000
0.188235 0.258824 0.000000
0.368627 0.258824 0.000000
0.525490 0.258824 0.000000
0.654902 0.258824 0.000000
0.756863 0.258824 0.000000
0.847059 0.258824 0.000000
0.925490 0.258824 0.000000
1.000000 0.258824 0.000000
0.000000 0.364706 0.000000
0.188235 0.364706 0.000000
0.368627 0.364706 0.000000
0.525490 0.364706 0.000000
0.654902 0.364706 0.000000
0.756863 0.364706 0.000000
0.847059 0.364706 0.000000
0.925490 0.364706 0.000000
1.000000 0.364706 0.000000
0.000000 0.486275 0.000000
0.188235 0.486275 0.000000
0.368627 0.486275 0.000000
0.525490 0.486275 0.000000
0.654902 0.486275 0.000000
0.756863 0.486275 0.000000
0.847059 0.486275 0.000000
0.925490 0.486275 0.000000
1.000000 0.486275 0.000000
0.000000 0.635294 0.000000
0.188235 0.635294 0.000000
0.368627 0.635294 0.000000
0.525490 0.635294 0.000000
0.654902 0.635294 0.000000
0.756863 0.635294 0.000000
0.847059 0.635294 0.000000
0.925490 0.635294 0.000000
1.000000 0.635294 0.000000
0.000000 0.811765 0.000000
0.188235 0.811765 0.000000
0.368627 0.811765 0.000000
0.525490 0.811765 0.000000
0.654902 0.811765 0.000000
0.756863 0.811765 0.000000
0.847059 0.811765 0.000000
0.925490 0.811765 0.000000
1.000000 0.811765 0.000000
0.000000 1.000000 0.000000
0.188235 1.000000 0.000000
0.368627 1.000000 0.000000
0.525490 1.000000 0.000000
0.654902 1.000000 0.000000
0.756863 1.000000 0.000000
0.847059 1.000000 0.000000
0.925490 1.000000 0.000000
1.000000 1.000000 0.000000
0.000000 0.000000 0.125490
0.188235 0.000000 0.125490
0.368627 0.000000 0.125490
0.525490 0.000000 0.125490
0.654902 0.000000 0.125490
0.756863 0.000000 0.125490
0.847059 0.000000 0.125490
0.925490 0.000000 0.125490
1.000000 0.000000 0.125490
0.000000 0.082353 0.125490
0.188235 0.082353 0.125490
0.368627 0.082353 0.125490
0.525490 0.082353 0.125490
0.654902 0.082353 0.125490
0.756863 0.082353 0.125490
0.847059 0.082353 0.125490
0.925490 0.082353 0.125490
1.000000 0.082353 0.125490
0.000000 0.164706 0.125490
0.188235 0.164706 0.125490
0.368627 0.164706 0.125490
0.525490 0.164706 0.125490
0.654902 0.164706 0.125490
0.756863 0.164706 0.125490
0.847059 0.164706 0.125490
0.925490 0.164706 0.125490
1.000000 0.164706 0.125490
0.000000 0.258824 0.125490
0.188235 0.258824 0.125490
0.368627 0.258824 0.125490
0.525490 0.258824 0.125490
0.654902 0.258824 0.125490
0.756863 0.258824 0.125490
0.847059 0.258824 0.125490
0.925490 0.258824 0.125490
1.000000 0.258824 0.125490
0.000000 0.364706 0.125490
0.188235 0.364706 0.125490
0.368627 0.364706 0.125490
0.525490 0.364706 0.125490
0.654902 0.364706 0.125490
0.756863 0.364706 0.125490
0.847059 0.364706 0.125490
0.925490 0.364706 0.125490
1.000000 0.364706 0.125490
0.000000 0.486275 0.125490
0.188235 0.486275 0.125490
0.368627 0.486275 0.125490
0.525490 0.486275 0.125490
0.654902 0.486275 0.125490
0.756863 0.486275 0.125490
0.847059 0.486275 0.125490
0.925490 0.486275 0.125490
1.000000 0.486275 0.125490
0.000000 0.635294 0.125490
0.188235 0.635294 0.125490
0.368627 0.635294 0.125490
0.525490 0.635294 0.125490
0.654902 0.635294 0.125490
0.756863 0.635294 0.125490
0.847059 0.635294 0.125490
0.925490 0.635294 0.125490
1.000000 0.635294 0.125490
0.000000 0.811765 0.125490
0.188235 0.811765 0.125490
0.368627 0.811765 0.125490
0.525490 0.811765 0.125490
0.654902 0.811765 0.125490
0.756863 0.811765 0.125490
0.847059 0.811765 0.125490
0.925490 0.811765 0.125490
1.000000 0.811765 0.125490
0.000000 1.000000 0.125490
0.188235 1.000000 0.125490
0.368627 1.000000 0.125490
0.525490 1.000000 0.125490
0.654902 1.000000 0.125490
0.756863 1.000000 0.125490
0.847059 1.000000 0.125490
0.925490 1.000000 0.125490
1.000000 1.000000 0.125490
0.000000 0.000000 0.250980
0.188235 0.000000 0.250980
0.368627 0.000000 0.250980
0.525490 0.000000 0.250980
0.654902 0.000000 0.250980
0.756863 0.000000 0.250980
0.847059 0.000000 0.250980
0.925490 0.000000 0.250980
1.000000 0.000000 0.250980
0.000000 0.082353 0.250980
0.188235 0.082353 0.250980
0.368627 0.082353 0.250980
0.525490 0.082353 0.250980
0.654902 0.082353 0.250980
0.756863 0.082353 0.250980
0.847059 0.082353 0.250980
0.925490 0.082353 0.250980
1.000000 0.082353 0.250980
0.000000 0.164706 0.250980
0.188235 0.164706 0.250980
0.368627 0.164706 0.250980
0.525490 0.164706 0.250980
0.654902 0.164706 0.250980
0.756863 0.164706 0.250980
0.847059 0.164706 0.250980
0.925490 0.164706 0.250980
1.000000 0.164706 0.250980
0.000000 0.258824 0.250980
0.188235 0.258824 0.250980
0.368627 0.258824 0.250980
0.525490 0.258824 0.250980
0.654902 0.258824 0.250980
0.756863 0.258824 0.250980
0.847059 0.258824 0.250980
0.925490 0.258824 0.250980
1.000000 0.258824 0.250980
0.000000 0.364706 0.250980
0.188235 0.364706 0.250980
0.368627 0.364706 0.250980
0.525490 0.364706 0.250980
0.654902 0.364706 0.250980
0.756863 0.364706 0.250980
0.847059 0.364706 0.250980
0.925490 0.364706 0.250980
1.000000 0.364706 0.250980
0.000000 0.486275 0.250980
0.188235 0.486275 0.250980
0.368627 0.486275 0.250980
0.525490 0.486275 0.250980
0.654902 0.486275 0.250980
0.756863 0.486275 0.250980
0.847059 0.486275 0.250980
0.925490 0.486275 0.250980
1.000000 0.486275 0.250980
0.000000 0.635294 0.250980
0.188235 0.635294 0.250980
0.368627 0.635294 0.250980
0.525490 0.635294 0.250980
0.654902 0.635294 0.250980
0.756863 0.635294 0.250980
0.847059 0.635294 0.250980
0.925490 0.635294 0.250980
1.000000 0.635294 0.250980
0.000000 0.811765 0.250980
0.188235 0.811765 0.250980
0.368627 0.811765 0.250980
0.525490 0.811765 0.250980
0.654902 0.811765 0.250980
0.756863 0.811765 0.250980
0.847059 0.811765 0.250980
0.925490 0.811765 0.250980
1.000000 0.811765 0.250980
0.000000 1.000000 0.250980
0.188235 1.000000 0.250980
0.368627 1.000000 0.250980
0.525490 1.000000 0.250980
0.654902 1.000000 0.250980
0.756863 1.000000 0.250980
0.847059 1.000000 0.250980
0.925490 1.000000 0.250980
1.000000 1.000000 0.250980
0.000000 0.000000 0.376471
0.188235 0.000000 0.376471
0.368627 0.000000 0.376471
0.525490 0.000000 0.376471
0.654902 0.000000 0.376471
0.756863 0.000000 0.376471
0.847059 0.000000 0.376471
0.925490 0.000000 0.376471
1.000000 0.000000 0.376471
0.000000 0.082353 0.376471
0.188235 0.082353 0.376471
0.368627 0.082353 0.376471
0.525490 0.082353 0.376471
0.654902 0.082353 0.376471
0.756863 0.082353 0.376471
0.847059 0.082353 0.376471
0.925490 0.082353 0.376471
1.000000 0.082353 0.376471
0.000000 0.164706 0.376471
0.188235 0.164706 0.376471
0.368627 0.164706 0.376471
0.525490 0.164706 0.376471
0.654902 0.164706 0.376471
0.756863 0.164706 0.376471
0.847059 0.164706 0.376471
0.925490 0.164706 0.376471
1.000000 0.164706 0.376471
0.000000 0.258824 0.376471
0.188235 0.258824 0.376471
0.368627 0.258824 0.376471
0.525490 0.258824 0.376471
0.654902 0.258824 0.376471
0.756863 0.258824 0.376471
0.847059 0.258824 0.376471
0.925490 0.258824 0.376471
1.000000 0.258824 0.376471
0.000000 0.364706 0.376471
0.188235 0.364706 0.376471
0.368627 0.364706 0.376471
0.525490 0.364706 0.376471
0.654902 0.364706 0.376471
0.756863 0.364706 0.376471
0.847059 0.364706 0.376471
0.925490 0.364706 0.376471
1.000000 0.364706 0.376471
0.000000 0.486275 0.376471
0.188235 0.486275 0.376471
0.368627 0.486275 0.376471
0.525490 0.486275 0.376471
0.654902 0.486275 0.376471
0.756863 0.486275 0.376471
0.847059 0.486275 0.376471
0.925490 0.486275 0.376471
1.000000 0.486275 0.376471
0.000000 0.635294 0.376471
0.188235 0.635294 0.376471
0.368627 0.635294 0.376471
0.525490 0.635294 0.376471
0.654902 0.635294 0.376471
0.756863 0.635294 0.376471
0.847059 0.635294 0.376471
0.925490 0.635294 0.376471
1.000000 0.635294 0.376471
0.000000 0.811765 0.376471
0.188235 0.811765 0.376471
0.368627 0.811765 0.376471
0.525490 0.811765 0.376471
0.654902 0.811765 0.376471
0.756863 0.811765 0.376471
0.847059 0.811765 0.376471
0.925490 0.811765 0.376471
1.000000 0.811765 0.376471
0.000000 1.000000 0.376471
0.188235 1.000000 0.376471
0.368627 1.000000 0.376471
0.525490 1.000000 0.376471
0.654902 1.000000 0.376471
0.756863 1.000000 0.376471
0.847059 1.000000 0.376471
0.925490 1.000000 0.376471
1.000000 1.000000 0.376471
0.000000 0.000000 0.501961
0.188235 0.000000 0.501961
0.368627 0.000000 0.501961
0.525490 0.000000 0.501961
0.654902 0.000000 0.501961
0.756863 0.000000 0.501961
0.847059 0.000000 0.501961
0.925490 0.000000 0.501961
1.000000 0.000000 0.501961
0.000000 0.082353 0.501961
0.188235 0.082353 0.501961
0.368627 0.082353 0.501961
0.525490 0.082353 0.501961
0.654902 0.082353 0.501961
0.756863 0.082353 0.501961
0.847059 0.082353 0.501961
0.925490 0.082353 0.501961
1.000000 0.082353 0.501961
0.000000 0.164706 0.501961
0.188235 0.164706 0.501961
0.368627 0.164706 0.501961
0.525490 0.164706 0.501961
0.654902 0.164706 0.501961
0.756863 0.164706 0.501961
0.847059 0.164706 0.501961
0.925490 0.164706 0.501961
1.000000 0.164706 0.501961
0.000000 0.258824 0.501961
0.188235 0.258824 0.501961
0.368627 0.258824 0.501961
0.525490 0.258824 0.501961
0.654902 0.258824 0.501961
0.756863 0.258824 0.501961
0.847059 0.258824 0.501961
0.925490 0.258824 0.501961
1.000000 0.258824 0.501961
0.000000 0.364706 0.501961
0.188235 0.364706 0.501961
0.368627 0.364706 0.501961
0.525490 0.364706 0.501961
0.654902 0.364706 0.501961
0.756863 0.364706 0.501961
0.847059 0.364706 0.501961
0.925490 0.364706 0.501961
1.000000 0.364706 0.501961
0.000000 0.486275 0.501961
0.188235 0.486275 0.501961
0.368627 0.486275 0.501961
0.525490 0.486275 0.501961
0.654902 0.486275 0.501961
0.756863 0.486275 0.501961
0.847059 0.486275 0.501961
0.925490 0.486275 0.501961
1.000000 0.486275 0.501961
0.000000 0.635294 0.501961
0.188235 0.635294 0.501961
0.368627 0.635294 0.501961
0.525490 0.635294 0.501961
0.654902 0.635294 0.501961
0.756863 0.635294 0.501961
0.847059 0.635294 0.501961
0.925490 0.635294 0.501961
1.000000 0.635294 0.501961
0.000000 0.811765 0.501961
0.188235 0.811765 0.501961
0.368627 0.811765 0.501961
0.525490 0.811765 0.501961
0.654902 0.811765 0.501961
0.756863 0.811765 0.501961
0.847059 0.811765 0.501961
0.925490 0.811765 0.501961
1.000000 0.811765 0.501961
0.000000 1.000000 0.501961
0.188235 1.000000 0.501961
0.368627 1.000000 0.501961
0.525490 1.000000 0.501961
0.654902 1.000000 0.501961
0.756863 1.000000 0.501961
0.847059 1.000000 0.501961
0.925490 1.000000 0.501961
1.000000 1.000000 0.501961
0.000000 0.000000 0.623529
0.188235 0.000000 0.623529
0.368627 0.000000 0.623529
0.525490 0.000000 0.623529
0.654902 0.000000 0.623529
0.756863 0.000000 0.623529
0.847059 0.000000 0.623529
0.925490 0.000000 0.623529
1.000000 0.000000 0.623529
0.000000 0.082353 0.623529
0.188235 0.082353 0.623529
0.368627 0.082353 0.623529
0.525490 0.082353 0.623529
0.654902 0.082353 0.623529
0.756863 0.082353 0.623529
0.847059 0.082353 0.623529
0.925490 0.082353 0.623529
1.000000 0.082353 0.623529
0.000000 0.164706 0.623529
0.188235 0.164706 0.623529
0.368627 0.164706 0.623529
0.525490 0.164706 0.623529
0.654902 0.164706 0.623529
0.756863 0.164706 0.623529
0.847059 0.164706 0.623529
0.925490 0.164706 0.623529
1.000000 0.164706 0.623529
0.000000 0.258824 0.623529
0.188235 0.258824 0.623529
0.368627 0.258824 0.623529
0.525490 0.258824 0.623529
0.654902 0.258824 0.623529
0.756863 0.258824 0.623529
0.847059 0.258824 0.623529
0.925490 0.258824 0.623529
1.000000 0.258824 0.623529
0.000000 0.364706 0.623529
0.188235 0.364706 0.623529
0.368627 0.364706 0.623529
0.525490 0.364706 0.623529
0.654902 0.364706 0.623529
0.756863 0.364706 0.623529
0.847059 0.364706 0.623529
0.925490 0.364706 0.623529
1.000000 0.364706 0.623529
0.000000 0.486275 0.623529
0.188235 0.486275 0.623529
0.368627 0.486275 0.623529
0.525490 0.486275 0.623529
0.654902 0.486275 0.623529
0.756863 0.486275 0.623529
0.847059 0.486275 0.623529
0.925490 0.486275 0.623529
1.000000 0.486275 0.623529
0.000000 0.635294 0.623529
0.188235 0.635294 0.623529
0.368627 0.635294 0.623529
0.525490 0.635294 0.623529
0.654902 0.635294 0.623529
0.756863 0.635294 0.623529
0.847059 0.635294 0.623529
0.925490 0.635294 0.623529
1.000000 0.635294 0.623529
0.000000 0.811765 0.623529
0.188235 0.811765 0.623529
0.368627 0.811765 0.623529
0.525490 0.811765 0.623529
0.654902 0.811765 0.623529
0.756863 0.811765 0.623529
0.847059 0.811765 0.623529
0.925490 0.811765 0.623529
1.000000 0.811765 0.623529
0.000000 1.000000 0.623529
0.188235 1.000000 0.623529
0.368627 1.000000 0.623529
0.525490 1.000000 0.623529
0.654902 1.000000 0.623529
0.756863 1.000000 0.623529
0.847059 1.000000 0.623529
0.925490 1.000000 0.623529
1.000000 1.000000 0.623529
0.000000 0.000000 0.749020
0.188235 0.000000 0.749020
0.368627 0.000000 0.749020
0.525490 0.000000 0.749020
0.654902 0.000000 0.749020
0.756863 0.000000 0.749020
0.847059 0.000000 0.749020
0.925490 0.000000 0.749020
1.000000 0.000000 0.749020
0.000000 0.082353 0.749020
0.188235 0.082353 0.749020
0.368627 0.082353 0.749020
0.525490 0.082353 0.749020
0.654902 0.082353 0.749020
0.756863 0.082353 0.749020
0.847059 0.082353 0.749020
0.925490 0.082353 0.749020
1.000000 0.082353 0.749020
0.000000 0.164706 0.749020
0.188235 0.164706 0.749020
0.368627 0.164706 0.749020
0.525490 0.164706 0.749020
0.654902 0.164706 0.749020
0.756863 0.164706 0.749020
0.847059 0.164706 0.749020
0.925490 0.164706 0.749020
1.000000 0.164706 0.749020
0.000000 0.258824 0.749020
0.188235 0.258824 0.749020
0.368627 0.258824 0.749020
0.525490 0.258824 0.749020
0.654902 0.258824 0.749020
0.756863 0.258824 0.749020
0.847059 0.258824 0.749020
0.925490 0.258824 0.749020
1.000000 0.258824 0.749020
0.000000 0.364706 0.749020
0.188235 0.364706 0.749020
0.368627 0.364706 0.749020
0.525490 0.364706 0.749020
0.654902 0.364706 0.749020
0.756863 0.364706 0.749020
0.847059 0.364706 0.749020
0.925490 0.364706 0.749020
1.000000 0.364706 0.749020
0.000000 0.486275 0.749020
0.188235 0.486275 0.749020
0.368627 0.486275 0.749020
0.525490 0.486275 0.749020
0.654902 0.486275 0.749020
0.756863 0.486275 0.749020
0.847059 0.486275 0.749020
0.925490 0.486275 0.749020
1.000000 0.486275 0.749020
0.000000 0.635294 0.749020
0.188235 0.635294 0.749020
0.368627 0.635294 0.749020
0.525490 0.635294 0.749020
0.654902 0.635294 0.749020
0.756863 0.635294 0.749020
0.847059 0.635294 0.749020
0.925490 0.635294 0.749020
1.000000 0.635294 0.749020
0.000000 0.811765 0.749020
0.188235 0.811765 0.749020
0.368627 0.811765 0.749020
0.525490 0.811765 0.749020
0.654902 0.811765 0.749020
0.756863 0.811765 0.749020
0.847059 0.811765 0.749020
0.925490 0.811765 0.749020
1.000000 0.811765 0.749020
0.000000 1.000000 0.749020
0.188235 1.000000 0.749020
0.368627 1.000000 0.749020
0.525490 1.000000 0.749020
0.654902 1.000000 0.749020
0.756863 1.000000 0.749020
0.847059 1.000000 0.749020
0.925490 1.000000 0.749020
1.000000 1.000000 0.749020
0.000000 0.000000 0.874510
0.188235 0.000000 0.874510
0.368627 0.000000 0.874510
0.525490 0.000000 0.874510
0.654902 0.000000 0.874510
0.756863 0.000000 0.874510
0.847059 0.000000 0.874510
0.925490 0.000000 0.874510
1.000000 0.000000 0.874510
0.000000 0.082353 0.874510
0.188235 0.082353 0.874510
0.368627 0.082353 0.874510
0.525490 0.082353 0.874510
0.654902 0.082353 0.874510
0.756863 0.082353 0.874510
0.847059 0.082353 0.874510
0.925490 0.082353 0.874510
1.000000 0.082353 0.874510
0.000000 0.164706 0.874510
0.188235 0.164706 0.874510
0.368627 0.164706 0.874510
0.525490 0.164706 0.874510
0.654902 0.164706 0.874510
0.756863 0.164706 0.874510
0.847059 0.164706 0.874510
0.925490 0.164706 0.874510
1.000000 0.164706 0.874510
0.000000 0.258824 0.874510
0.188235 0.258824 0.874510
0.368627 0.258824 0.874510
0.525490 0.258824 0.874510
0.654902 0.258824 0.874510
0.756863 0.258824 0.874510
0.847059 0.258824 0.874510
0.925490 0.258824 0.874510
1.000000 0.258824 0.874510
0.000000 0.364706 0.874510
0.188235 0.364706 0.874510
0.368627 0.364706 0.874510
0.525490 0.364706 0.874510
0.654902 0.364706 0.874510
0.756863 0.364706 0.874510
0.847059 0.364706 0.874510
0.925490 0.364706 0.874510
1.000000 0.364706 0.874510
0.000000 0.486275 0.874510
0.188235 0.486275 0.874510
0.368627 0.486275 0.874510
0.525490 0.486275 0.874510
0.654902 0.486275 0.874510
0.756863 0.486275 0.874510
0.847059 0.486275 0.874510
0.925490 0.486275 0.874510
1.000000 0.486275 0.874510
0.000000 0.635294 0.874510
0.188235 0.635294 0.874510
0.368627 0.635294 0.874510
0.525490 0.635294 0.874510
0.654902 0.635294 0.874510
0.756863 0.635294 0.874510
0.847059 0.635294 0.874510
0.925490 0.635294 0.874510
1.000000 0.635294 0.874510
0.000000 0.811765 0.874510
0.188235 0.811765 0.874510
0.368627 0.811765 0.874510
0.525490 0.811765 0.874510
0.654902 0.811765 0.874510
0.756863 0.811765 0.874510
0.847059 0.811765 0.874510
0.925490 0.811765 0.874510
1.000000 0.811765 0.874510
0.000000 1.000000 0.874510
0.188235 1.000000 0.874510
0.368627 1.000000 0.874510
0.525490 1.000000 0.874510
0.654902 1.000000 0.874510
0.756863 1.000000 0.874510
0.847059 1.000000 0.874510
0.925490 1.000000 0.874510
1.000000 1.000000 0.874510
0.000000 0.000000 1.000000
0.188235 0.000000 1.000000
0.368627 0.000000 1.000000
0.525490 0.000000 1.000000
0.654902 0.000000 1.000000
0.756863 0.000000 1.000000
0.847059 0.000000 1.000000
0.925490 0.000000 1.000000
1.000000 0.000000 1.000000
0.000000 0.082353 1.000000
0.188235 0.082353 1.000000
0.368627 0.082353 1.000000
0.525490 0.082353 1.000000
0.654902 0.082353 1.000000
0.756863 0.082353 1.000000
0.847059 0.082353 1.000000
0.925490 0.082353 1.000000
1.000000 0.082353 1.000000
0.000000 0.164706 1.000000
0.188235 0.164706 1.000000
0.368627 0.164706 1.000000
0.525490 0.164706 1.000000
0.654902 0.164706 1.000000
0.756863 0.164706 1.000000
0.847059 0.164706 1.000000
0.925490 0.164706 1.000000
1.000000 0.164706 1.000000
0.000000 0.258824 1.000000
0.188235 0.258824 1.000000
0.368627 0.258824 1.000000
0.525490 0.258824 1.000000
0.654902 0.258824 1.000000
0.756863 0.258824 1.000000
0.847059 0.258824 1.000000
0.925490 0.258824 1.000000
1.000000 0.258824 1.000000
0.000000 0.364706 1.000000
0.188235 0.364706 1.000000
0.368627 0.364706 1.000000
0.525490 0.364706 1.000000
0.654902 0.364706 1.000000
0.756863 0.364706 1.000000
0.847059 0.364706 1.000000
0.925490 0.364706 1.000000
1.000000 0.364706 1.000000
0.000000 0.486275 1.000000
0.188235 0.486275 1.000000
0.368627 0.486275 1.000000
0.525490 0.486275 1.000000
0.654902 0.486275 1.000000
0.756863 0.486275 1.000000
0.847059 0.486275 1.000000
0.925490 0.486275 1.000000
1.000000 0.486275 1.000000
0.000000 0.635294 1.000000
0.188235 0.635294 1.000000
0.368627 0.635294 1.000000
0.525490 0.635294 1.000000
0.654902 0.635294 1.000000
0.756863 0.635294 1.000000
0.847059 0.635294 1.000000
0.925490 0.635294 1.000000
1.000000 0.635294 1.000000
0.000000 0.811765 1.000000
0.188235 0.811765 1.000000
0.368627 0.811765 1.000000
0.525490 0.811765 1.000000
0.654902 0.811765 1.000000
0.756863 0.811765 1.000000
0.847059 0.811765 1.000000
0.925490 0.811765 1.000000
1.000000 0.811765 1.000000
0.000000 1.000000 1.000000
0.188235 1.000000 1.000000
0.368627 1.000000 1.000000
0.525490 1.000000 1.000000
0.654902 1.000000 1.000000
0.756863 1.000000 1.000000
0.847059 1.000000 1.000000
0.925490 1.000000 1.000000
1.000000 1.000000 1.000000
