LUTs/Damaging/LUT_MAGENTA/neon.cube
#Generated by lutCreator.js
#Coded by SirSerch
#https://github.com/SirSerch/LutCreatorJs
TITLE lutCreatorJs_25
LUT_3D_SIZE 25
0.000000 0.000000 0.000000
0.066667 0.000000 0.000000
0.125490 0.000000 0.000000
0.188235 0.000000 0.000000
0.250980 0.000000 0.000000
0.309804 0.000000 0.000000
0.368627 0.000000 0.000000
0.419608 0.000000 0.000000
0.474510 0.000000 0.000000
0.525490 0.000000 0.000000
0.568627 0.000000 0.000000
0.615686 0.000000 0.000000
0.654902 0.000000 0.000000
0.690196 0.000000 0.000000
0.725490 0.000000 0.000000
0.756863 0.000000 0.000000
0.788235 0.000000 0.000000
0.819608 0.000000 0.000000
0.847059 0.000000 0.000000
0.874510 0.000000 0.000000
0.901961 0.000000 0.000000
0.925490 0.000000 0.000000
0.952941 0.000000 0.000000
0.976471 0.000000 0.000000
1.000000 0.000000 0.000000
0.000000 0.027451 0.000000
0.066667 0.027451 0.000000
0.125490 0.027451 0.000000
0.188235 0.027451 0.000000
0.250980 0.027451 0.000000
0.309804 0.027451 0.000000
0.368627 0.027451 0.000000
0.419608 0.027451 0.000000
0.474510 0.027451 0.000000
0.525490 0.027451 0.000000
0.568627 0.027451 0.000000
0.615686 0.027451 0.000000
0.654902 0.027451 0.000000
0.690196 0.027451 0.000000
0.725490 0.027451 0.000000
0.756863 0.027451 0.000000
0.788235 0.027451 0.000000
0.819608 0.027451 0.000000
0.847059 0.027451 0.000000
0.874510 0.027451 0.000000
0.901961 0.027451 0.000000
0.925490 0.027451 0.000000
0.952941 0.027451 0.000000
0.976471 0.027451 0.000000
1.000000 0.027451 0.000000
0.000000 0.050980 0.000000
0.066667 0.050980 0.000000
0.125490 0.050980 0.000000
0.188235 0.050980 0.000000
0.250980 0.050980 0.000000
0.309804 0.050980 0.000000
0.368627 0.050980 0.000000
0.419608 0.050980 0.000000
0.474510 0.050980 0.000000
0.525490 0.050980 0.000000
0.568627 0.050980 0.000000
0.615686 0.050980 0.000000
0.654902 0.050980 0.000000
0.690196 0.050980 0.000000
0.725490 0.050980 0.000000
0.756863 0.050980 0.000000
0.788235 0.050980 0.000000
0.819608 0.050980 0.000000
0.847059 0.050980 0.000000
0.874510 0.050980 0.000000
0.901961 0.050980 0.000000
0.925490 0.050980 0.000000
0.952941 0.050980 0.000000
0.976471 0.050980 0.000000
1.000000 0.050980 0.000000
0.000000 0.082353 0.000000
0.066667 0.082353 0.000000
0.125490 0.082353 0.000000
0.188235 0.082353 0.000000
0.250980 0.082353 0.000000
0.309804 0.082353 0.000000
0.368627 0.082353 0.000000
0.419608 0.082353 0.000000
0.474510 0.082353 0.000000
0.525490 0.082353 0.000000
0.568627 0.082353 0.000000
0.615686 0.082353 0.000000
0.654902 0.082353 0.000000
0.690196 0.082353 0.000000
0.725490 0.082353 0.000000
0.756863 0.082353 0.000000
0.788235 0.082353 0.000000
0.819608 0.082353 0.000000
0.847059 0.082353 0.000000
0.874510 0.082353 0.000000
0.901961 0.082353 0.000000
0.925490 0.082353 0.000000
0.952941 0.082353 0.000000
0.976471 0.082353 0.000000
1.000000 0.082353 0.000000
0.000000 0.109804 0.000000
0.066667 0.109804 0.000000
0.125490 0.109804 0.000000
0.188235 0.109804 0.000000
0.250980 0.109804 0.000000
0.309804 0.109804 0.000000
0.368627 0.109804 0.000000
0.419608 0.109804 0.000000
0.474510 0.109804 0.000000
0.525490 0.109804 0.000000
0.568627 0.109804 0.000000
0.615686 0.109804 0.000000
0.654902 0.109804 0.000000
0.690196 0.109804 0.000000
0.725490 0.109804 0.000000
0.756863 0.109804 0.000000
0.788235 0.109804 0.000000
0.819608 0.109804 0.000000
0.847059 0.109804 0.000000
0.874510 0.109804 0.000000
0.901961 0.109804 0.000000
0.925490 0.109804 0.000000
0.952941 0.109804 0.000000
0.976471 0.109804 0.000000
1.000000 0.109804 0.000000
0.000000 0.137255 0.000000
0.066667 0.137255 0.000000
0.125490 0.137255 0.000000
0.188235 0.137255 0.000000
0.250980 0.137255 0.000000
0.309804 0.137255 0.000000
0.368627 0.137255 0.000000
0.419608 0.137255 0.000000
0.474510 0.137255 0.000000
0.525490 0.137255 0.000000
0.568627 0.137255 0.000000
0.615686 0.137255 0.000000
0.654902 0.137255 0.000000
0.690196 0.137255 0.000000
0.725490 0.137255 0.000000
0.756863 0.137255 0.000000
0.788235 0.137255 0.000000
0.819608 0.137255 0.000000
0.847059 0.137255 0.000000
0.874510 0.137255 0.000000
0.901961 0.137255 0.000000
0.925490 0.137255 0.000000
0.952941 0.137255 0.000000
0.976471 0.137255 0.000000
1.000000 0.137255 0.000000
0.000000 0.164706 0.000000
0.066667 0.164706 0.000000
0.125490 0.164706 0.000000
0.188235 0.164706 0.000000
0.250980 0.164706 0.000000
0.309804 0.164706 0.000000
0.368627 0.164706 0.000000
0.419608 0.164706 0.000000
0.474510 0.164706 0.000000
0.525490 0.164706 0.000000
0.568627 0.164706 0.000000
0.615686 0.164706 0.000000
0.654902 0.164706 0.000000
0.690196 0.164706 0.000000
0.725490 0.164706 0.000000
0.756863 0.164706 0.000000
0.788235 0.164706 0.000000
0.819608 0.164706 0.000000
0.847059 0.164706 0.000000
0.874510 0.164706 0.000000
0.901961 0.164706 0.000000
0.925490 0.164706 0.000000
0.952941 0.164706 0.000000
0.976471 0.164706 0.000000
1.000000 0.164706 0.000000
0.000000 0.192157 0.000000
0.066667 0.192157 0.000000
0.125490 0.192157 0.000000
0.188235 0.192157 0.000000
0.250980 0.192157 0.000000
0.309804 0.192157 0.000000
0.368627 0.192157 0.000000
0.419608 0.192157 0.000000
0.474510 0.192157 0.000000
0.525490 0.192157 0.000000
0.568627 0.192157 0.000000
0.615686 0.192157 0.000000
0.654902 0.192157 0.000000
0.690196 0.192157 0.000000
0.725490 0.192157 0.000000
0.756863 0.192157 0.000000
0.788235 0.192157 0.000000
0.819608 0.192157 0.000000
0.847059 0.192157 0.000000
0.874510 0.192157 0.000000
0.901961 0.192157 0.000000
0.925490 0.192157 0.000000
0.952941 0.192157 0.000000
0.976471 0.192157 0.000000
1.000000 0.192157 0.000000
0.000000 0.227451 0.000000
0.066667 0.227451 0.000000
0.125490 0.227451 0.000000
0.188235 0.227451 0.000000
0.250980 0.227451 0.000000
0.309804 0.227451 0.000000
0.368627 0.227451 0.000000
0.419608 0.227451 0.000000
0.474510 0.227451 0.000000
0.525490 0.227451 0.000000
0.568627 0.227451 0.000000
0.615686 0.227451 0.000000
0.654902 0.227451 0.000000
0.690196 0.227451 0.000000
0.725490 0.227451 0.000000
0.756863 0.227451 0.000000
0.788235 0.227451 0.000000
0.819608 0.227451 0.000000
0.847059 0.227451 0.000000
0.874510 0.227451 0.000000
0.901961 0.227451 0.000000
0.925490 0.227451 0.000000
0.952941 0.227451 0.000000
0.976471 0.227451 0.000000
1.000000 0.227451 0.000000
0.000000 0.258824 0.000000
0.066667 0.258824 0.000000
0.125490 0.258824 0.000000
0.188235 0.258824 0.000000
0.250980 0.258824 0.000000
0.309804 0.258824 0.000000
0.368627 0.258824 0.000000
0.419608 0.258824 0.000000
0.474510 0.258824 0.000000
0.525490 0.258824 0.000000
0.568627 0.258824 0.000000
0.615686 0.258824 0.000000
0.654902 0.258824 0.000000
0.690196 0.258824 0.000000
0.725490 0.258824 0.000000
0.756863 0.258824 0.000000
0.788235 0.258824 0.000000
0.819608 0.258824 0.000000
0.847059 0.258824 0.000000
0.874510 0.258824 0.000000
0.901961 0.258824 0.000000
0.925490 0.258824 0.000000
0.952941 0.258824 0.000000
0.976471 0.258824 0.000000
1.000000 0.258824 0.000000
0.000000 0.290196 0.000000
0.066667 0.290196 0.000000
0.125490 0.290196 0.000000
0.188235 0.290196 0.000000
0.250980 0.290196 0.000000
0.309804 0.290196 0.000000
0.368627 0.290196 0.000000
0.419608 0.290196 0.000000
0.474510 0.290196 0.000000
0.525490 0.290196 0.000000
0.568627 0.290196 0.000000
0.615686 0.290196 0.000000
0.654902 0.290196 0.000000
0.690196 0.290196 0.000000
0.725490 0.290196 0.000000
0.756863 0.290196 0.000000
0.788235 0.290196 0.000000
0.819608 0.290196 0.000000
0.847059 0.290196 0.000000
0.874510 0.290196 0.000000
0.901961 0.290196 0.000000
0.925490 0.290196 0.000000
0.952941 0.290196 0.000000
0.976471 0.290196 0.000000
1.000000 0.290196 0.000000
0.000000 0.329412 0.000000
0.066667 0.329412 0.000000
0.125490 0.329412 0.000000
0.188235 0.329412 0.000000
0.250980 0.329412 0.000000
0.309804 0.329412 0.000000
0.368627 0.329412 0.000000
0.419608 0.329412 0.000000
0.474510 0.329412 0.000000
0.525490 0.329412 0.000000
0.568627 0.329412 0.000000
0.615686 0.329412 0.000000
0.654902 0.329412 0.000000
0.690196 0.329412 0.000000
0.725490 0.329412 0.000000
0.756863 0.329412 0.000000
0.788235 0.329412 0.000000
0.819608 0.329412 0.000000
0.847059 0.329412 0.000000
0.874510 0.329412 0.000000
0.901961 0.329412 0.000000
0.925490 0.329412 0.000000
0.952941 0.329412 0.000000
0.976471 0.329412 0.000000
1.000000 0.329412 0.000000
0.000000 0.364706 0.000000
0.066667 0.364706 0.000000
0.125490 0.364706 0.000000
0.188235 0.364706 0.000000
0.250980 0.364706 0.000000
0.309804 0.364706 0.000000
0.368627 0.364706 0.000000
0.419608 0.364706 0.000000
0.474510 0.364706 0.000000
0.525490 0.364706 0.000000
0.568627 0.364706 0.000000
0.615686 0.364706 0.000000
0.654902 0.364706 0.000000
0.690196 0.364706 0.000000
0.725490 0.364706 0.000000
0.756863 0.364706 0.000000
0.788235 0.364706 0.000000
0.819608 0.364706 0.000000
0.847059 0.364706 0.000000
0.874510 0.364706 0.000000
0.901961 0.364706 0.000000
0.925490 0.364706 0.000000
0.952941 0.364706 0.000000
0.976471 0.364706 0.000000
1.000000 0.364706 0.000000
0.000000 0.403922 0.000000
0.066667 0.403922 0.000000
0.125490 0.403922 0.000000
0.188235 0.403922 0.000000
0.250980 0.403922 0.000000
0.309804 0.403922 0.000000
0.368627 0.403922 0.000000
0.419608 0.403922 0.000000
0.474510 0.403922 0.000000
0.525490 0.403922 0.000000
0.568627 0.403922 0.000000
0.615686 0.403922 0.000000
0.654902 0.403922 0.000000
0.690196 0.403922 0.000000
0.725490 0.403922 0.000000
0.756863 0.403922 0.000000
0.788235 0.403922 0.000000
0.819608 0.403922 0.000000
0.847059 0.403922 0.000000
0.874510 0.403922 0.000000
0.901961 0.403922 0.000000
0.925490 0.403922 0.000000
0.952941 0.403922 0.000000
0.976471 0.403922 0.000000
1.000000 0.403922 0.000000
0.000000 0.443137 0.000000
0.066667 0.443137 0.000000
0.125490 0.443137 0.000000
0.188235 0.443137 0.000000
0.250980 0.443137 0.000000
0.309804 0.443137 0.000000
0.368627 0.443137 0.000000
0.419608 0.443137 0.000000
0.474510 0.443137 0.000000
0.525490 0.443137 0.000000
0.568627 0.443137 0.000000
0.615686 0.443137 0.000000
0.654902 0.443137 0.000000
0.690196 0.443137 0.000000
0.725490 0.443137 0.000000
0.756863 0.443137 0.000000
0.788235 0.443137 0.000000
0.819608 0.443137 0.000000
0.847059 0.443137 0.000000
0.874510 0.443137 0.000000
0.901961 0.443137 0.000000
0.925490 0.443137 0.000000
0.952941 0.443137 0.000000
0.976471 0.443137 0.000000
1.000000 0.443137 0.000000
0.000000 0.486275 0.000000
0.066667 0.486275 0.000000
0.125490 0.486275 0.000000
0.188235 0.486275 0.000000
0.250980 0.486275 0.000000
0.309804 0.486275 0.000000
0.368627 0.486275 0.000000
0.419608 0.486275 0.000000
0.474510 0.486275 0.000000
0.525490 0.486275 0.000000
0.568627 0.486275 0.000000
0.615686 0.486275 0.000000
0.654902 0.486275 0.000000
0.690196 0.486275 0.000000
0.725490 0.486275 0.000000
0.756863 0.486275 0.000000
0.788235 0.486275 0.000000
0.819608 0.486275 0.000000
0.847059 0.486275 0.000000
0.874510 0.486275 0.000000
0.901961 0.486275 0.000000
0.925490 0.486275 0.000000
0.952941 0.486275 0.000000
0.976471 0.486275 0.000000
1.000000 0.486275 0.000000
0.000000 0.533333 0.000000
0.066667 0.533333 0.000000
0.125490 0.533333 0.000000
0.188235 0.533333 0.000000
0.250980 0.533333 0.000000
0.309804 0.533333 0.000000
0.368627 0.533333 0.000000
0.419608 0.533333 0.000000
0.474510 0.533333 0.000000
0.525490 0.533333 0.000000
0.568627 0.533333 0.000000
0.615686 0.533333 0.000000
0.654902 0.533333 0.000000
0.690196 0.533333 0.000000
0.725490 0.533333 0.000000
0.756863 0.533333 0.000000
0.788235 0.533333 0.000000
0.819608 0.533333 0.000000
0.847059 0.533333 0.000000
0.874510 0.533333 0.000000
0.901961 0.533333 0.000000
0.925490 0.533333 0.000000
0.952941 0.533333 0.000000
0.976471 0.533333 0.000000
1.000000 0.533333 0.000000
0.000000 0.588235 0.000000
0.066667 0.588235 0.000000
0.125490 0.588235 0.000000
0.188235 0.588235 0.000000
0.250980 0.588235 0.000000
0.309804 0.588235 0.000000
0.368627 0.588235 0.000000
0.419608 0.588235 0.000000
0.474510 0.588235 0.000000
0.525490 0.588235 0.000000
0.568627 0.588235 0.000000
0.615686 0.588235 0.000000
0.654902 0.588235 0.000000
0.690196 0.588235 0.000000
0.725490 0.588235 0.000000
0.756863 0.588235 0.000000
0.788235 0.588235 0.000000
0.819608 0.588235 0.000000
0.847059 0.588235 0.000000
0.874510 0.588235 0.000000
0.901961 0.588235 0.000000
0.925490 0.588235 0.000000
0.952941 0.588235 0.000000
0.976471 0.588235 0.000000
1.000000 0.588235 0.000000
0.000000 0.635294 0.000000
0.066667 0.635294 0.000000
0.125490 0.635294 0.000000
0.188235 0.635294 0.000000
0.250980 0.635294 0.000000
0.309804 0.635294 0.000000
0.368627 0.635294 0.000000
0.419608 0.635294 0.000000
0.474510 0.635294 0.000000
0.525490 0.635294 0.000000
0.568627 0.635294 0.000000
0.615686 0.635294 0.000000
0.654902 0.635294 0.000000
0.690196 0.635294 0.000000
0.725490 0.635294 0.000000
0.756863 0.635294 0.000000
0.788235 0.635294 0.000000
0.819608 0.635294 0.000000
0.847059 0.635294 0.000000
0.874510 0.635294 0.000000
0.901961 0.635294 0.000000
0.925490 0.635294 0.000000
0.952941 0.635294 0.000000
0.976471 0.635294 0.000000
1.000000 0.635294 0.000000
0.000000 0.694118 0.000000
0.066667 0.694118 0.000000
0.125490 0.694118 0.000000
0.188235 0.694118 0.000000
0.250980 0.694118 0.000000
0.309804 0.694118 0.000000
0.368627 0.694118 0.000000
0.419608 0.694118 0.000000
0.474510 0.694118 0.000000
0.525490 0.694118 0.000000
0.568627 0.694118 0.000000
0.615686 0.694118 0.000000
0.654902 0.694118 0.000000
0.690196 0.694118 0.000000
0.725490 0.694118 0.000000
0.756863 0.694118 0.000000
0.788235 0.694118 0.000000
0.819608 0.694118 0.000000
0.847059 0.694118 0.000000
0.874510 0.694118 0.000000
0.901961 0.694118 0.000000
0.925490 0.694118 0.000000
0.952941 0.694118 0.000000
0.976471 0.694118 0.000000
1.000000 0.694118 0.000000
0.000000 0.756863 0.000000
0.066667 0.756863 0.000000
0.125490 0.756863 0.000000
0.188235 0.756863 0.000000
0.250980 0.756863 0.000000
0.309804 0.756863 0.000000
0.368627 0.756863 0.000000
0.419608 0.756863 0.000000
0.474510 0.756863 0.000000
0.525490 0.756863 0.000000
0.568627 0.756863 0.000000
0.615686 0.756863 0.000000
0.654902 0.756863 0.000000
0.690196 0.756863 0.000000
0.725490 0.756863 0.000000
0.756863 0.756863 0.000000
0.788235 0.756863 0.000000
0.819608 0.756863 0.000000
0.847059 0.756863 0.000000
0.874510 0.756863 0.000000
0.901961 0.756863 0.000000
0.925490 0.756863 0.000000
0.952941 0.756863 0.000000
0.976471 0.756863 0.000000
1.000000 0.756863 0.000000
0.000000 0.811765 0.000000
0.066667 0.811765 0.000000
0.125490 0.811765 0.000000
0.188235 0.811765 0.000000
0.250980 0.811765 0.000000
0.309804 0.811765 0.000000
0.368627 0.811765 0.000000
0.419608 0.811765 0.000000
0.474510 0.811765 0.000000
0.525490 0.811765 0.000000
0.568627 0.811765 0.000000
0.615686 0.811765 0.000000
0.654902 0.811765 0.000000
0.690196 0.811765 0.000000
0.725490 0.811765 0.000000
0.756863 0.811765 0.000000
0.788235 0.811765 0.000000
0.819608 0.811765 0.000000
0.847059 0.811765 0.000000
0.874510 0.811765 0.000000
0.901961 0.811765 0.000000
0.925490 0.811765 0.000000
0.952941 0.811765 0.000000
0.976471 0.811765 0.000000
1.000000 0.811765 0.000000
0.000000 0.874510 0.000000
0.066667 0.874510 0.000000
0.125490 0.874510 0.000000
0.188235 0.874510 0.000000
0.250980 0.874510 0.000000
0.309804 0.874510 0.000000
0.368627 0.874510 0.000000
0.419608 0.874510 0.000000
0.474510 0.874510 0.000000
0.525490 0.874510 0.000000
0.568627 0.874510 0.000000
0.615686 0.874510 0.000000
0.654902 0.874510 0.000000
0.690196 0.874510 0.000000
0.725490 0.874510 0.000000
0.756863 0.874510 0.000000
0.788235 0.874510 0.000000
0.819608 0.874510 0.000000
0.847059 0.874510 0.000000
0.874510 0.874510 0.000000
0.901961 0.874510 0.000000
0.925490 0.874510 0.000000
0.952941 0.874510 0.000000
0.976471 0.874510 0.000000
1.000000 0.874510 0.000000
0.000000 0.933333 0.000000
0.066667 0.933333 0.000000
0.125490 0.933333 0.000000
0.188235 0.933333 0.000000
0.250980 0.933333 0.000000
0.309804 0.933333 0.000000
0.368627 0.933333 0.000000
0.419608 0.933333 0.000000
0.474510 0.933333 0.000000
0.525490 0.933333 0.000000
0.568627 0.933333 0.000000
0.615686 0.933333 0.000000
0.654902 0.933333 0.000000
0.690196 0.933333 0.000000
0.725490 0.933333 0.000000
0.756863 0.933333 0.000000
0.788235 0.933333 0.000000
0.819608 0.933333 0.000000
0.847059 0.933333 0.000000
0.874510 0.933333 0.000000
0.901961 0.933333 0.000000
0.925490 0.933333 0.000000
0.952941 0.933333 0.000000
0.976471 0.933333 0.000000
1.000000 0.933333 0.000000
0.000000 1.000000 0.000000
0.066667 1.000000 0.000000
0.125490 1.000000 0.000000
0.188235 1.000000 0.000000
0.250980 1.000000 0.000000
0.309804 1.000000 0.000000
0.368627 1.000000 0.000000
0.419608 1.000000 0.000000
0.474510 1.000000 0.000000
0.525490 1.000000 0.000000
0.568627 1.000000 0.000000
0.615686 1.000000 0.000000
0.654902 1.000000 0.000000
0.690196 1.000000 0.000000
0.725490 1.000000 0.000000
0.756863 1.000000 0.000000
0.788235 1.000000 0.000000
0.819608 1.000000 0.000000
0.847059 1.000000 0.000000
0.874510 1.000000 0.000000
0.901961 1.000000 0.000000
0.925490 1.000000 0.000000
0.952941 1.000000 0.000000
0.976471 1.000000 0.000000
1.000000 1.000000 0.000000
0.000000 0.000000 0.043137
0.066667 0.000000 0.043137
0.125490 0.000000 0.043137
0.188235 0.000000 0.043137
0.250980 0.000000 0.043137
0.309804 0.000000 0.043137
0.368627 0.000000 0.043137
0.419608 0.000000 0.043137
0.474510 0.000000 0.043137
0.525490 0.000000 0.043137
0.568627 0.000000 0.043137
0.615686 0.000000 0.043137
0.654902 0.000000 0.043137
0.690196 0.000000 0.043137
0.725490 0.000000 0.043137
0.756863 0.000000 0.043137
0.788235 0.000000 0.043137
0.819608 0.000000 0.043137
0.847059 0.000000 0.043137
0.874510 0.000000 0.043137
0.901961 0.000000 0.043137
0.925490 0.000000 0.043137
0.952941 0.000000 0.043137
0.976471 0.000000 0.043137
1.000000 0.000000 0.043137
0.000000 0.027451 0.043137
0.066667 0.027451 0.043137
0.125490 0.027451 0.043137
0.188235 0.027451 0.043137
0.250980 0.027451 0.043137
0.309804 0.027451 0.043137
0.368627 0.027451 0.043137
0.419608 0.027451 0.043137
0.474510 0.027451 0.043137
0.525490 0.027451 0.043137
0.568627 0.027451 0.043137
0.615686 0.027451 0.043137
0.654902 0.027451 0.043137
0.690196 0.027451 0.043137
0.725490 0.027451 0.043137
0.756863 0.027451 0.043137
0.788235 0.027451 0.043137
0.819608 0.027451 0.043137
0.847059 0.027451 0.043137
0.874510 0.027451 0.043137
0.901961 0.027451 0.043137
0.925490 0.027451 0.043137
0.952941 0.027451 0.043137
0.976471 0.027451 0.043137
1.000000 0.027451 0.043137
0.000000 0.050980 0.043137
0.066667 0.050980 0.043137
0.125490 0.050980 0.043137
0.188235 0.050980 0.043137
0.250980 0.050980 0.043137
0.309804 0.050980 0.043137
0.368627 0.050980 0.043137
0.419608 0.050980 0.043137
0.474510 0.050980 0.043137
0.525490 0.050980 0.043137
0.568627 0.050980 0.043137
0.615686 0.050980 0.043137
0.654902 0.050980 0.043137
0.690196 0.050980 0.043137
0.725490 0.050980 0.043137
0.756863 0.050980 0.043137
0.788235 0.050980 0.043137
0.819608 0.050980 0.043137
0.847059 0.050980 0.043137
0.874510 0.050980 0.043137
0.901961 0.050980 0.043137
0.925490 0.050980 0.043137
0.952941 0.050980 0.043137
0.976471 0.050980 0.043137
1.000000 0.050980 0.043137
0.000000 0.082353 0.043137
0.066667 0.082353 0.043137
0.125490 0.082353 0.043137
0.188235 0.082353 0.043137
0.250980 0.082353 0.043137
0.309804 0.082353 0.043137
0.368627 0.082353 0.043137
0.419608 0.082353 0.043137
0.474510 0.082353 0.043137
0.525490 0.082353 0.043137
0.568627 0.082353 0.043137
0.615686 0.082353 0.043137
0.654902 0.082353 0.043137
0.690196 0.082353 0.043137
0.725490 0.082353 0.043137
0.756863 0.082353 0.043137
0.788235 0.082353 0.043137
0.819608 0.082353 0.043137
0.847059 0.082353 0.043137
0.874510 0.082353 0.043137
0.901961 0.082353 0.043137
0.925490 0.082353 0.043137
0.952941 0.082353 0.043137
0.976471 0.082353 0.043137
1.000000 0.082353 0.043137
0.000000 0.109804 0.043137
0.066667 0.109804 0.043137
0.125490 0.109804 0.043137
0.188235 0.109804 0.043137
0.250980 0.109804 0.043137
0.309804 0.109804 0.043137
0.368627 0.109804 0.043137
0.419608 0.109804 0.043137
0.474510 0.109804 0.043137
0.525490 0.109804 0.043137
0.568627 0.109804 0.043137
0.615686 0.109804 0.043137
0.654902 0.109804 0.043137
0.690196 0.109804 0.043137
0.725490 0.109804 0.043137
0.756863 0.109804 0.043137
0.788235 0.109804 0.043137
0.819608 0.109804 0.043137
0.847059 0.109804 0.043137
0.874510 0.109804 0.043137
0.901961 0.109804 0.043137
0.925490 0.109804 0.043137
0.952941 0.109804 0.043137
0.976471 0.109804 0.043137
1.000000 0.109804 0.043137
0.000000 0.137255 0.043137
0.066667 0.137255 0.043137
0.125490 0.137255 0.043137
0.188235 0.137255 0.043137
0.250980 0.137255 0.043137
0.309804 0.137255 0.043137
0.368627 0.137255 0.043137
0.419608 0.137255 0.043137
0.474510 0.137255 0.043137
0.525490 0.137255 0.043137
0.568627 0.137255 0.043137
0.615686 0.137255 0.043137
0.654902 0.137255 0.043137
0.690196 0.137255 0.043137
0.725490 0.137255 0.043137
0.756863 0.137255 0.043137
0.788235 0.137255 0.043137
0.819608 0.137255 0.043137
0.847059 0.137255 0.043137
0.874510 0.137255 0.043137
0.901961 0.137255 0.043137
0.925490 0.137255 0.043137
0.952941 0.137255 0.043137
0.976471 0.137255 0.043137
1.000000 0.137255 0.043137
0.000000 0.164706 0.043137
0.066667 0.164706 0.043137
0.125490 0.164706 0.043137
0.188235 0.164706 0.043137
0.250980 0.164706 0.043137
0.309804 0.164706 0.043137
0.368627 0.164706 0.043137
0.419608 0.164706 0.043137
0.474510 0.164706 0.043137
0.525490 0.164706 0.043137
0.568627 0.164706 0.043137
0.615686 0.164706 0.043137
0.654902 0.164706 0.043137
0.690196 0.164706 0.043137
0.725490 0.164706 0.043137
0.756863 0.164706 0.043137
0.788235 0.164706 0.043137
0.819608 0.164706 0.043137
0.847059 0.164706 0.043137
0.874510 0.164706 0.043137
0.901961 0.164706 0.043137
0.925490 0.164706 0.043137
0.952941 0.164706 0.043137
0.976471 0.164706 0.043137
1.000000 0.164706 0.043137
0.000000 0.192157 0.043137
0.066667 0.192157 0.043137
0.125490 0.192157 0.043137
0.188235 0.192157 0.043137
0.250980 0.192157 0.043137
0.309804 0.192157 0.043137
0.368627 0.192157 0.043137
0.419608 0.192157 0.043137
0.474510 0.192157 0.043137
0.525490 0.192157 0.043137
0.568627 0.192157 0.043137
0.615686 0.192157 0.043137
0.654902 0.192157 0.043137
0.690196 0.192157 0.043137
0.725490 0.192157 0.043137
0.756863 0.192157 0.043137
0.788235 0.192157 0.043137
0.819608 0.192157 0.043137
0.847059 0.192157 0.043137
0.874510 0.192157 0.043137
0.901961 0.192157 0.043137
0.925490 0.192157 0.043137
0.952941 0.192157 0.043137
0.976471 0.192157 0.043137
1.000000 0.192157 0.043137
0.000000 0.227451 0.043137
0.066667 0.227451 0.043137
0.125490 0.227451 0.043137
0.188235 0.227451 0.043137
0.250980 0.227451 0.043137
0.309804 0.227451 0.043137
0.368627 0.227451 0.043137
0.419608 0.227451 0.043137
0.474510 0.227451 0.043137
0.525490 0.227451 0.043137
0.568627 0.227451 0.043137
0.615686 0.227451 0.043137
0.654902 0.227451 0.043137
0.690196 0.227451 0.043137
0.725490 0.227451 0.043137
0.756863 0.227451 0.043137
0.788235 0.227451 0.043137
0.819608 0.227451 0.043137
0.847059 0.227451 0.043137
0.874510 0.227451 0.043137
0.901961 0.227451 0.043137
0.925490 0.227451 0.043137
0.952941 0.227451 0.043137
0.976471 0.227451 0.043137
1.000000 0.227451 0.043137
0.000000 0.258824 0.043137
0.066667 0.258824 0.043137
0.125490 0.258824 0.043137
0.188235 0.258824 0.043137
0.250980 0.258824 0.043137
0.309804 0.258824 0.043137
0.368627 0.258824 0.043137
0.419608 0.258824 0.043137
0.474510 0.258824 0.043137
0.525490 0.258824 0.043137
0.568627 0.258824 0.043137
0.615686 0.258824 0.043137
0.654902 0.258824 0.043137
0.690196 0.258824 0.043137
0.725490 0.258824 0.043137
0.756863 0.258824 0.043137
0.788235 0.258824 0.043137
0.819608 0.258824 0.043137
0.847059 0.258824 0.043137
0.874510 0.258824 0.043137
0.901961 0.258824 0.043137
0.925490 0.258824 0.043137
0.952941 0.258824 0.043137
0.976471 0.258824 0.043137
1.000000 0.258824 0.043137
0.000000 0.290196 0.043137
0.066667 0.290196 0.043137
0.125490 0.290196 0.043137
0.188235 0.290196 0.043137
0.250980 0.290196 0.043137
0.309804 0.290196 0.043137
0.368627 0.290196 0.043137
0.419608 0.290196 0.043137
0.474510 0.290196 0.043137
