LUTs/Damaging/LUT_MAGENTA/neon.cube
#Generated by lutCreator.js
#Coded by SirSerch
#https://github.com/SirSerch/LutCreatorJs
TITLE lutCreatorJs_25
LUT_3D_SIZE 5
0.000000 0.000000 0.000000
0.368627 0.000000 0.000000
0.654902 0.000000 0.000000
0.847059 0.000000 0.000000
1.000000 0.000000 0.000000
0.000000 0.164706 0.000000
0.368627 0.164706 0.000000
0.654902 0.164706 0.000000
0.847059 0.164706 0.000000
1.000000 0.164706 0.000000
0.000000 0.364706 0.000000
0.368627 0.364706 0.000000
0.654902 0.364706 0.000000
0.847059 0.364706 0.000000
1.000000 0.364706 0.000000
0.000000 0.635294 0.000000
0.368627 0.635294 0.000000
0.654902 0.635294 0.000000
0.847059 0.635294 0.000000
1.000000 0.635294 0.000000
0.000000 1.000000 0.000000
0.368627 1.000000 0.000000
0.654902 1.000000 0.000000
0.847059 1.000000 0.000000
1.000000 1.000000 0.000000
0.000000 0.000000 0.250980
0.368627 0.000000 0.250980
0.654902 0.000000 0.250980
0.847059 0.000000 0.250980
1.000000 0.000000 0.250980
0.000000 0.164706 0.250980
0.368627 0.164706 0.250980
0.654902 0.164706 0.250980
0.847059 0.164706 0.250980
1.000000 0.164706 0.250980
0.000000 0.364706 0.250980
0.368627 0.364706 0.250980
0.654902 0.364706 0.250980
0.847059 0.364706 0.250980
1.000000 0.364706 0.250980
0.000000 0.635294 0.250980
0.368627 0.635294 0.250980
0.654902 0.635294 0.250980
0.847059 0.635294 0.250980
1.000000 0.635294 0.250980
0.000000 1.000000 0.250980
0.368627 1.000000 0.250980
0.654902 1.000000 0.250980
0.847059 1.000000 0.250980
1.000000 1.000000 0.250980
0.000000 0.000000 0.501961
0.368627 0.000000 0.501961
0.654902 0.000000 0.501961
0.847059 0.000000 0.501961
1.000000 0.000000 0.501961
0.000000 0.164706 0.501961
0.368627 0.164706 0.501961
0.654902 0.164706 0.501961
0.847059 0.164706 0.501961
1.000000 0.164706 0.501961
0.000000 0.364706 0.501961
0.368627 0.364706 0.501961
0.654902 0.364706 0.501961
0.847059 0.364706 0.501961
1.000000 0.364706 0.501961
0.000000 0.635294 0.501961
0.368627 0.635294 0.501961
0.654902 0.635294 0.501961
0.847059 0.635294 0.501961
1.000000 0.635294 0.501961
0.000000 1.000000 0.501961
0.368627 1.000000 0.501961
0.654902 1.000000 0.501961
0.847059 1.000000 0.501961
1.000000 1.000000 0.501961
0.000000 0.000000 0.749020
0.368627 0.000000 0.749020
0.654902 0.000000 0.749020
0.847059 0.000000 0.749020
1.000000 0.000000 0.749020
0.000000 0.164706 0.749020
0.368627 0.164706 0.749020
0.654902 0.164706 0.749020
0.847059 0.164706 0.749020
1.000000 0.164706 0.749020
0.000000 0.364706 0.749020
0.368627 0.364706 0.749020
0.654902 0.364706 0.749020
0.847059 0.364706 0.749020
1.000000 0.364706 0.749020
0.000000 0.635294 0.749020
0.368627 0.635294 0.749020
0.654902 0.635294 0.749020
0.847059 0.635294 0.749020
1.000000 0.635294 0.749020
0.000000 1.000000 0.749020
0.368627 1.000000 0.749020
0.654902 1.000000 0.749020
0.847059 1.000000 0.749020
1.000000 1.000000 0.749020
0.000000 0.000000 1.000000
0.368627 0.000000 1.000000
0.654902 0.000000 1.000000
0.847059 0.000000 1.000000
1.000000 0.000000 1.000000
0.000000 0.164706 1.000000
0.368627 0.164706 1.000000
0.654902 0.164706 1.000000
0.847059 0.164706 1.000000
1.000000 0.164706 1.000000
0.000000 0.364706 1.000000
0.368627 0.364706 1.000000
0.654902 0.364706 1.000000
0.847059 0.364706 1.000000
1.000000 0.364706 1.000000
0.000000 0.635294 1.000000
0.368627 0.635294 1.000000
0.654902 0.635294 1.000000
0.847059 0.635294 1.000000
1.000000 0.635294 1.000000
0.000000 1.000000 1.000000
0.368627 1.000000 1.000000
0.654902 1.000000 1.000000
0.847059 1.000000 1.000000
1.000000 1.000000 1.000000
