LUTs/Damaging/LUT_MAGENTA/purple.cube
#Generated by lutCreator.js
#Coded by SirSerch
#https://github.com/SirSerch/LutCreatorJs
TITLE lutCreatorJs_25
LUT_3D_SIZE 25
0.000000 0.000000 0.000000
0.066667 0.000000 0.000000
0.125490 0.000000 0.000000
0.192157 0.000000 0.000000
0.254902 0.000000 0.000000
0.309804 0.000000 0.000000
0.372549 0.000000 0.000000
0.423529 0.000000 0.000000
0.478431 0.000000 0.000000
0.529412 0.000000 0.000000
0.572549 0.000000 0.000000
0.615686 0.000000 0.000000
0.654902 0.000000 0.000000
0.690196 0.000000 0.000000
0.725490 0.000000 0.000000
0.756863 0.000000 0.000000
0.788235 0.000000 0.000000
0.819608 0.000000 0.000000
0.847059 0.000000 0.000000
0.874510 0.000000 0.000000
0.901961 0.000000 0.000000
0.925490 0.000000 0.000000
0.952941 0.000000 0.000000
0.972549 0.000000 0.000000
1.000000 0.000000 0.000000
0.000000 0.043137 0.000000
0.066667 0.043137 0.000000
0.125490 0.043137 0.000000
0.192157 0.043137 0.000000
0.254902 0.043137 0.000000
0.309804 0.043137 0.000000
0.372549 0.043137 0.000000
0.423529 0.043137 0.000000
0.478431 0.043137 0.000000
0.529412 0.043137 0.000000
0.572549 0.043137 0.000000
0.615686 0.043137 0.000000
0.654902 0.043137 0.000000
0.690196 0.043137 0.000000
0.725490 0.043137 0.000000
0.756863 0.043137 0.000000
0.788235 0.043137 0.000000
0.819608 0.043137 0.000000
0.847059 0.043137 0.000000
0.874510 0.043137 0.000000
0.901961 0.043137 0.000000
0.925490 0.043137 0.000000
0.952941 0.043137 0.000000
0.972549 0.043137 0.000000
1.000000 0.043137 0.000000
0.000000 0.082353 0.000000
0.066667 0.082353 0.000000
0.125490 0.082353 0.000000
0.192157 0.082353 0.000000
0.254902 0.082353 0.000000
0.309804 0.082353 0.000000
0.372549 0.082353 0.000000
0.423529 0.082353 0.000000
0.478431 0.082353 0.000000
0.529412 0.082353 0.000000
0.572549 0.082353 0.000000
0.615686 0.082353 0.000000
0.654902 0.082353 0.000000
0.690196 0.082353 0.000000
0.725490 0.082353 0.000000
0.756863 0.082353 0.000000
0.788235 0.082353 0.000000
0.819608 0.082353 0.000000
0.847059 0.082353 0.000000
0.874510 0.082353 0.000000
0.901961 0.082353 0.000000
0.925490 0.082353 0.000000
0.952941 0.082353 0.000000
0.972549 0.082353 0.000000
1.000000 0.082353 0.000000
0.000000 0.125490 0.000000
0.066667 0.125490 0.000000
0.125490 0.125490 0.000000
0.192157 0.125490 0.000000
0.254902 0.125490 0.000000
0.309804 0.125490 0.000000
0.372549 0.125490 0.000000
0.423529 0.125490 0.000000
0.478431 0.125490 0.000000
0.529412 0.125490 0.000000
0.572549 0.125490 0.000000
0.615686 0.125490 0.000000
0.654902 0.125490 0.000000
0.690196 0.125490 0.000000
0.725490 0.125490 0.000000
0.756863 0.125490 0.000000
0.788235 0.125490 0.000000
0.819608 0.125490 0.000000
0.847059 0.125490 0.000000
0.874510 0.125490 0.000000
0.901961 0.125490 0.000000
0.925490 0.125490 0.000000
0.952941 0.125490 0.000000
0.972549 0.125490 0.000000
1.000000 0.125490 0.000000
0.000000 0.168627 0.000000
0.066667 0.168627 0.000000
0.125490 0.168627 0.000000
0.192157 0.168627 0.000000
0.254902 0.168627 0.000000
0.309804 0.168627 0.000000
0.372549 0.168627 0.000000
0.423529 0.168627 0.000000
0.478431 0.168627 0.000000
0.529412 0.168627 0.000000
0.572549 0.168627 0.000000
0.615686 0.168627 0.000000
0.654902 0.168627 0.000000
0.690196 0.168627 0.000000
0.725490 0.168627 0.000000
0.756863 0.168627 0.000000
0.788235 0.168627 0.000000
0.819608 0.168627 0.000000
0.847059 0.168627 0.000000
0.874510 0.168627 0.000000
0.901961 0.168627 0.000000
0.925490 0.168627 0.000000
0.952941 0.168627 0.000000
0.972549 0.168627 0.000000
1.000000 0.168627 0.000000
0.000000 0.207843 0.000000
0.066667 0.207843 0.000000
0.125490 0.207843 0.000000
0.192157 0.207843 0.000000
0.254902 0.207843 0.000000
0.309804 0.207843 0.000000
0.372549 0.207843 0.000000
0.423529 0.207843 0.000000
0.478431 0.207843 0.000000
0.529412 0.207843 0.000000
0.572549 0.207843 0.000000
0.615686 0.207843 0.000000
0.654902 0.207843 0.000000
0.690196 0.207843 0.000000
0.725490 0.207843 0.000000
0.756863 0.207843 0.000000
0.788235 0.207843 0.000000
0.819608 0.207843 0.000000
0.847059 0.207843 0.000000
0.874510 0.207843 0.000000
0.901961 0.207843 0.000000
0.925490 0.207843 0.000000
0.952941 0.207843 0.000000
0.972549 0.207843 0.000000
1.000000 0.207843 0.000000
0.000000 0.250980 0.000000
0.066667 0.250980 0.000000
0.125490 0.250980 0.000000
0.192157 0.250980 0.000000
0.254902 0.250980 0.000000
0.309804 0.250980 0.000000
0.372549 0.250980 0.000000
0.423529 0.250980 0.000000
0.478431 0.250980 0.000000
0.529412 0.250980 0.000000
0.572549 0.250980 0.000000
0.615686 0.250980 0.000000
0.654902 0.250980 0.000000
0.690196 0.250980 0.000000
0.725490 0.250980 0.000000
0.756863 0.250980 0.000000
0.788235 0.250980 0.000000
0.819608 0.250980 0.000000
0.847059 0.250980 0.000000
0.874510 0.250980 0.000000
0.901961 0.250980 0.000000
0.925490 0.250980 0.000000
0.952941 0.250980 0.000000
0.972549 0.250980 0.000000
1.000000 0.250980 0.000000
0.000000 0.290196 0.000000
0.066667 0.290196 0.000000
0.125490 0.290196 0.000000
0.192157 0.290196 0.000000
0.254902 0.290196 0.000000
0.309804 0.290196 0.000000
0.372549 0.290196 0.000000
0.423529 0.290196 0.000000
0.478431 0.290196 0.000000
0.529412 0.290196 0.000000
0.572549 0.290196 0.000000
0.615686 0.290196 0.000000
0.654902 0.290196 0.000000
0.690196 0.290196 0.000000
0.725490 0.290196 0.000000
0.756863 0.290196 0.000000
0.788235 0.290196 0.000000
0.819608 0.290196 0.000000
0.847059 0.290196 0.000000
0.874510 0.290196 0.000000
0.901961 0.290196 0.000000
0.925490 0.290196 0.000000
0.952941 0.290196 0.000000
0.972549 0.290196 0.000000
1.000000 0.290196 0.000000
0.000000 0.333333 0.000000
0.066667 0.333333 0.000000
0.125490 0.333333 0.000000
0.192157 0.333333 0.000000
0.254902 0.333333 0.000000
0.309804 0.333333 0.000000
0.372549 0.333333 0.000000
0.423529 0.333333 0.000000
0.478431 0.333333 0.000000
0.529412 0.333333 0.000000
0.572549 0.333333 0.000000
0.615686 0.333333 0.000000
0.654902 0.333333 0.000000
0.690196 0.333333 0.000000
0.725490 0.333333 0.000000
0.756863 0.333333 0.000000
0.788235 0.333333 0.000000
0.819608 0.333333 0.000000
0.847059 0.333333 0.000000
0.874510 0.333333 0.000000
0.901961 0.333333 0.000000
0.925490 0.333333 0.000000
0.952941 0.333333 0.000000
0.972549 0.333333 0.000000
1.000000 0.333333 0.000000
0.000000 0.376471 0.000000
0.066667 0.376471 0.000000
0.125490 0.376471 0.000000
0.192157 0.376471 0.000000
0.254902 0.376471 0.000000
0.309804 0.376471 0.000000
0.372549 0.376471 0.000000
0.423529 0.376471 0.000000
0.478431 0.376471 0.000000
0.529412 0.376471 0.000000
0.572549 0.376471 0.000000
0.615686 0.376471 0.000000
0.654902 0.376471 0.000000
0.690196 0.376471 0.000000
0.725490 0.376471 0.000000
0.756863 0.376471 0.000000
0.788235 0.376471 0.000000
0.819608 0.376471 0.000000
0.847059 0.376471 0.000000
0.874510 0.376471 0.000000
0.901961 0.376471 0.000000
0.925490 0.376471 0.000000
0.952941 0.376471 0.000000
0.972549 0.376471 0.000000
1.000000 0.376471 0.000000
0.000000 0.415686 0.000000
0.066667 0.415686 0.000000
0.125490 0.415686 0.000000
0.192157 0.415686 0.000000
0.254902 0.415686 0.000000
0.309804 0.415686 0.000000
0.372549 0.415686 0.000000
0.423529 0.415686 0.000000
0.478431 0.415686 0.000000
0.529412 0.415686 0.000000
0.572549 0.415686 0.000000
0.615686 0.415686 0.000000
0.654902 0.415686 0.000000
0.690196 0.415686 0.000000
0.725490 0.415686 0.000000
0.756863 0.415686 0.000000
0.788235 0.415686 0.000000
0.819608 0.415686 0.000000
0.847059 0.415686 0.000000
0.874510 0.415686 0.000000
0.901961 0.415686 0.000000
0.925490 0.415686 0.000000
0.952941 0.415686 0.000000
0.972549 0.415686 0.000000
1.000000 0.415686 0.000000
0.000000 0.458824 0.000000
0.066667 0.458824 0.000000
0.125490 0.458824 0.000000
0.192157 0.458824 0.000000
0.254902 0.458824 0.000000
0.309804 0.458824 0.000000
0.372549 0.458824 0.000000
0.423529 0.458824 0.000000
0.478431 0.458824 0.000000
0.529412 0.458824 0.000000
0.572549 0.458824 0.000000
0.615686 0.458824 0.000000
0.654902 0.458824 0.000000
0.690196 0.458824 0.000000
0.725490 0.458824 0.000000
0.756863 0.458824 0.000000
0.788235 0.458824 0.000000
0.819608 0.458824 0.000000
0.847059 0.458824 0.000000
0.874510 0.458824 0.000000
0.901961 0.458824 0.000000
0.925490 0.458824 0.000000
0.952941 0.458824 0.000000
0.972549 0.458824 0.000000
1.000000 0.458824 0.000000
0.000000 0.501961 0.000000
0.066667 0.501961 0.000000
0.125490 0.501961 0.000000
0.192157 0.501961 0.000000
0.254902 0.501961 0.000000
0.309804 0.501961 0.000000
0.372549 0.501961 0.000000
0.423529 0.501961 0.000000
0.478431 0.501961 0.000000
0.529412 0.501961 0.000000
0.572549 0.501961 0.000000
0.615686 0.501961 0.000000
0.654902 0.501961 0.000000
0.690196 0.501961 0.000000
0.725490 0.501961 0.000000
0.756863 0.501961 0.000000
0.788235 0.501961 0.000000
0.819608 0.501961 0.000000
0.847059 0.501961 0.000000
0.874510 0.501961 0.000000
0.901961 0.501961 0.000000
0.925490 0.501961 0.000000
0.952941 0.501961 0.000000
0.972549 0.501961 0.000000
1.000000 0.501961 0.000000
0.000000 0.541176 0.000000
0.066667 0.541176 0.000000
0.125490 0.541176 0.000000
0.192157 0.541176 0.000000
0.254902 0.541176 0.000000
0.309804 0.541176 0.000000
0.372549 0.541176 0.000000
0.423529 0.541176 0.000000
0.478431 0.541176 0.000000
0.529412 0.541176 0.000000
0.572549 0.541176 0.000000
0.615686 0.541176 0.000000
0.654902 0.541176 0.000000
0.690196 0.541176 0.000000
0.725490 0.541176 0.000000
0.756863 0.541176 0.000000
0.788235 0.541176 0.000000
0.819608 0.541176 0.000000
0.847059 0.541176 0.000000
0.874510 0.541176 0.000000
0.901961 0.541176 0.000000
0.925490 0.541176 0.000000
0.952941 0.541176 0.000000
0.972549 0.541176 0.000000
1.000000 0.541176 0.000000
0.000000 0.584314 0.000000
0.066667 0.584314 0.000000
0.125490 0.584314 0.000000
0.192157 0.584314 0.000000
0.254902 0.584314 0.000000
0.309804 0.584314 0.000000
0.372549 0.584314 0.000000
0.423529 0.584314 0.000000
0.478431 0.584314 0.000000
0.529412 0.584314 0.000000
0.572549 0.584314 0.000000
0.615686 0.584314 0.000000
0.654902 0.584314 0.000000
0.690196 0.584314 0.000000
0.725490 0.584314 0.000000
0.756863 0.584314 0.000000
0.788235 0.584314 0.000000
0.819608 0.584314 0.000000
0.847059 0.584314 0.000000
0.874510 0.584314 0.000000
0.901961 0.584314 0.000000
0.925490 0.584314 0.000000
0.952941 0.584314 0.000000
0.972549 0.584314 0.000000
1.000000 0.584314 0.000000
0.000000 0.623529 0.000000
0.066667 0.623529 0.000000
0.125490 0.623529 0.000000
0.192157 0.623529 0.000000
0.254902 0.623529 0.000000
0.309804 0.623529 0.000000
0.372549 0.623529 0.000000
0.423529 0.623529 0.000000
0.478431 0.623529 0.000000
0.529412 0.623529 0.000000
0.572549 0.623529 0.000000
0.615686 0.623529 0.000000
0.654902 0.623529 0.000000
0.690196 0.623529 0.000000
0.725490 0.623529 0.000000
0.756863 0.623529 0.000000
0.788235 0.623529 0.000000
0.819608 0.623529 0.000000
0.847059 0.623529 0.000000
0.874510 0.623529 0.000000
0.901961 0.623529 0.000000
0.925490 0.623529 0.000000
0.952941 0.623529 0.000000
0.972549 0.623529 0.000000
1.000000 0.623529 0.000000
0.000000 0.666667 0.000000
0.066667 0.666667 0.000000
0.125490 0.666667 0.000000
0.192157 0.666667 0.000000
0.254902 0.666667 0.000000
0.309804 0.666667 0.000000
0.372549 0.666667 0.000000
0.423529 0.666667 0.000000
0.478431 0.666667 0.000000
0.529412 0.666667 0.000000
0.572549 0.666667 0.000000
0.615686 0.666667 0.000000
0.654902 0.666667 0.000000
0.690196 0.666667 0.000000
0.725490 0.666667 0.000000
0.756863 0.666667 0.000000
0.788235 0.666667 0.000000
0.819608 0.666667 0.000000
0.847059 0.666667 0.000000
0.874510 0.666667 0.000000
0.901961 0.666667 0.000000
0.925490 0.666667 0.000000
0.952941 0.666667 0.000000
0.972549 0.666667 0.000000
1.000000 0.666667 0.000000
0.000000 0.709804 0.000000
0.066667 0.709804 0.000000
0.125490 0.709804 0.000000
0.192157 0.709804 0.000000
0.254902 0.709804 0.000000
0.309804 0.709804 0.000000
0.372549 0.709804 0.000000
0.423529 0.709804 0.000000
0.478431 0.709804 0.000000
0.529412 0.709804 0.000000
0.572549 0.709804 0.000000
0.615686 0.709804 0.000000
0.654902 0.709804 0.000000
0.690196 0.709804 0.000000
0.725490 0.709804 0.000000
0.756863 0.709804 0.000000
0.788235 0.709804 0.000000
0.819608 0.709804 0.000000
0.847059 0.709804 0.000000
0.874510 0.709804 0.000000
0.901961 0.709804 0.000000
0.925490 0.709804 0.000000
0.952941 0.709804 0.000000
0.972549 0.709804 0.000000
1.000000 0.709804 0.000000
0.000000 0.749020 0.000000
0.066667 0.749020 0.000000
0.125490 0.749020 0.000000
0.192157 0.749020 0.000000
0.254902 0.749020 0.000000
0.309804 0.749020 0.000000
0.372549 0.749020 0.000000
0.423529 0.749020 0.000000
0.478431 0.749020 0.000000
0.529412 0.749020 0.000000
0.572549 0.749020 0.000000
0.615686 0.749020 0.000000
0.654902 0.749020 0.000000
0.690196 0.749020 0.000000
0.725490 0.749020 0.000000
0.756863 0.749020 0.000000
0.788235 0.749020 0.000000
0.819608 0.749020 0.000000
0.847059 0.749020 0.000000
0.874510 0.749020 0.000000
0.901961 0.749020 0.000000
0.925490 0.749020 0.000000
0.952941 0.749020 0.000000
0.972549 0.749020 0.000000
1.000000 0.749020 0.000000
0.000000 0.792157 0.000000
0.066667 0.792157 0.000000
0.125490 0.792157 0.000000
0.192157 0.792157 0.000000
0.254902 0.792157 0.000000
0.309804 0.792157 0.000000
0.372549 0.792157 0.000000
0.423529 0.792157 0.000000
0.478431 0.792157 0.000000
0.529412 0.792157 0.000000
0.572549 0.792157 0.000000
0.615686 0.792157 0.000000
0.654902 0.792157 0.000000
0.690196 0.792157 0.000000
0.725490 0.792157 0.000000
0.756863 0.792157 0.000000
0.788235 0.792157 0.000000
0.819608 0.792157 0.000000
0.847059 0.792157 0.000000
0.874510 0.792157 0.000000
0.901961 0.792157 0.000000
0.925490 0.792157 0.000000
0.952941 0.792157 0.000000
0.972549 0.792157 0.000000
1.000000 0.792157 0.000000
0.000000 0.835294 0.000000
0.066667 0.835294 0.000000
0.125490 0.835294 0.000000
0.192157 0.835294 0.000000
0.254902 0.835294 0.000000
0.309804 0.835294 0.000000
0.372549 0.835294 0.000000
0.423529 0.835294 0.000000
0.478431 0.835294 0.000000
0.529412 0.835294 0.000000
0.572549 0.835294 0.000000
0.615686 0.835294 0.000000
0.654902 0.835294 0.000000
0.690196 0.835294 0.000000
0.725490 0.835294 0.000000
0.756863 0.835294 0.000000
0.788235 0.835294 0.000000
0.819608 0.835294 0.000000
0.847059 0.835294 0.000000
0.874510 0.835294 0.000000
0.901961 0.835294 0.000000
0.925490 0.835294 0.000000
0.952941 0.835294 0.000000
0.972549 0.835294 0.000000
1.000000 0.835294 0.000000
0.000000 0.874510 0.000000
0.066667 0.874510 0.000000
0.125490 0.874510 0.000000
0.192157 0.874510 0.000000
0.254902 0.874510 0.000000
0.309804 0.874510 0.000000
0.372549 0.874510 0.000000
0.423529 0.874510 0.000000
0.478431 0.874510 0.000000
0.529412 0.874510 0.000000
0.572549 0.874510 0.000000
0.615686 0.874510 0.000000
0.654902 0.874510 0.000000
0.690196 0.874510 0.000000
0.725490 0.874510 0.000000
0.756863 0.874510 0.000000
0.788235 0.874510 0.000000
0.819608 0.874510 0.000000
0.847059 0.874510 0.000000
0.874510 0.874510 0.000000
0.901961 0.874510 0.000000
0.925490 0.874510 0.000000
0.952941 0.874510 0.000000
0.972549 0.874510 0.000000
1.000000 0.874510 0.000000
0.000000 0.917647 0.000000
0.066667 0.917647 0.000000
0.125490 0.917647 0.000000
0.192157 0.917647 0.000000
0.254902 0.917647 0.000000
0.309804 0.917647 0.000000
0.372549 0.917647 0.000000
0.423529 0.917647 0.000000
0.478431 0.917647 0.000000
0.529412 0.917647 0.000000
0.572549 0.917647 0.000000
0.615686 0.917647 0.000000
0.654902 0.917647 0.000000
0.690196 0.917647 0.000000
0.725490 0.917647 0.000000
0.756863 0.917647 0.000000
0.788235 0.917647 0.000000
0.819608 0.917647 0.000000
0.847059 0.917647 0.000000
0.874510 0.917647 0.000000
0.901961 0.917647 0.000000
0.925490 0.917647 0.000000
0.952941 0.917647 0.000000
0.972549 0.917647 0.000000
1.000000 0.917647 0.000000
0.000000 0.956863 0.000000
0.066667 0.956863 0.000000
0.125490 0.956863 0.000000
0.192157 0.956863 0.000000
0.254902 0.956863 0.000000
0.309804 0.956863 0.000000
0.372549 0.956863 0.000000
0.423529 0.956863 0.000000
0.478431 0.956863 0.000000
0.529412 0.956863 0.000000
0.572549 0.956863 0.000000
0.615686 0.956863 0.000000
0.654902 0.956863 0.000000
0.690196 0.956863 0.000000
0.725490 0.956863 0.000000
0.756863 0.956863 0.000000
0.788235 0.956863 0.000000
0.819608 0.956863 0.000000
0.847059 0.956863 0.000000
0.874510 0.956863 0.000000
0.901961 0.956863 0.000000
0.925490 0.956863 0.000000
0.952941 0.956863 0.000000
0.972549 0.956863 0.000000
1.000000 0.956863 0.000000
0.000000 1.000000 0.000000
0.066667 1.000000 0.000000
0.125490 1.000000 0.000000
0.192157 1.000000 0.000000
0.254902 1.000000 0.000000
0.309804 1.000000 0.000000
0.372549 1.000000 0.000000
0.423529 1.000000 0.000000
0.478431 1.000000 0.000000
0.529412 1.000000 0.000000
0.572549 1.000000 0.000000
0.615686 1.000000 0.000000
0.654902 1.000000 0.000000
0.690196 1.000000 0.000000
0.725490 1.000000 0.000000
0.756863 1.000000 0.000000
0.788235 1.000000 0.000000
0.819608 1.000000 0.000000
0.847059 1.000000 0.000000
0.874510 1.000000 0.000000
0.901961 1.000000 0.000000
0.925490 1.000000 0.000000
0.952941 1.000000 0.000000
0.972549 1.000000 0.000000
1.000000 1.000000 0.000000
0.000000 0.000000 0.082353
0.066667 0.000000 0.082353
0.125490 0.000000 0.082353
0.192157 0.000000 0.082353
0.254902 0.000000 0.082353
0.309804 0.000000 0.082353
0.372549 0.000000 0.082353
0.423529 0.000000 0.082353
0.478431 0.000000 0.082353
0.529412 0.000000 0.082353
0.572549 0.000000 0.082353
0.615686 0.000000 0.082353
0.654902 0.000000 0.082353
0.690196 0.000000 0.082353
0.725490 0.000000 0.082353
0.756863 0.000000 0.082353
0.788235 0.000000 0.082353
0.819608 0.000000 0.082353
0.847059 0.000000 0.082353
0.874510 0.000000 0.082353
0.901961 0.000000 0.082353
0.925490 0.000000 0.082353
0.952941 0.000000 0.082353
0.972549 0.000000 0.082353
1.000000 0.000000 0.082353
0.000000 0.043137 0.082353
0.066667 0.043137 0.082353
0.125490 0.043137 0.082353
0.192157 0.043137 0.082353
0.254902 0.043137 0.082353
0.309804 0.043137 0.082353
0.372549 0.043137 0.082353
0.423529 0.043137 0.082353
0.478431 0.043137 0.082353
0.529412 0.043137 0.082353
0.572549 0.043137 0.082353
0.615686 0.043137 0.082353
0.654902 0.043137 0.082353
0.690196 0.043137 0.082353
0.725490 0.043137 0.082353
0.756863 0.043137 0.082353
0.788235 0.043137 0.082353
0.819608 0.043137 0.082353
0.847059 0.043137 0.082353
0.874510 0.043137 0.082353
0.901961 0.043137 0.082353
0.925490 0.043137 0.082353
0.952941 0.043137 0.082353
0.972549 0.043137 0.082353
1.000000 0.043137 0.082353
0.000000 0.082353 0.082353
0.066667 0.082353 0.082353
0.125490 0.082353 0.082353
0.192157 0.082353 0.082353
0.254902 0.082353 0.082353
0.309804 0.082353 0.082353
0.372549 0.082353 0.082353
0.423529 0.082353 0.082353
0.478431 0.082353 0.082353
0.529412 0.082353 0.082353
0.572549 0.082353 0.082353
0.615686 0.082353 0.082353
0.654902 0.082353 0.082353
0.690196 0.082353 0.082353
0.725490 0.082353 0.082353
0.756863 0.082353 0.082353
0.788235 0.082353 0.082353
0.819608 0.082353 0.082353
0.847059 0.082353 0.082353
0.874510 0.082353 0.082353
0.901961 0.082353 0.082353
0.925490 0.082353 0.082353
0.952941 0.082353 0.082353
0.972549 0.082353 0.082353
1.000000 0.082353 0.082353
0.000000 0.125490 0.082353
0.066667 0.125490 0.082353
0.125490 0.125490 0.082353
0.192157 0.125490 0.082353
0.254902 0.125490 0.082353
0.309804 0.125490 0.082353
0.372549 0.125490 0.082353
0.423529 0.125490 0.082353
0.478431 0.125490 0.082353
0.529412 0.125490 0.082353
0.572549 0.125490 0.082353
0.615686 0.125490 0.082353
0.654902 0.125490 0.082353
0.690196 0.125490 0.082353
0.725490 0.125490 0.082353
0.756863 0.125490 0.082353
0.788235 0.125490 0.082353
0.819608 0.125490 0.082353
0.847059 0.125490 0.082353
0.874510 0.125490 0.082353
0.901961 0.125490 0.082353
0.925490 0.125490 0.082353
0.952941 0.125490 0.082353
0.972549 0.125490 0.082353
1.000000 0.125490 0.082353
0.000000 0.168627 0.082353
0.066667 0.168627 0.082353
0.125490 0.168627 0.082353
0.192157 0.168627 0.082353
0.254902 0.168627 0.082353
0.309804 0.168627 0.082353
0.372549 0.168627 0.082353
0.423529 0.168627 0.082353
0.478431 0.168627 0.082353
0.529412 0.168627 0.082353
0.572549 0.168627 0.082353
0.615686 0.168627 0.082353
0.654902 0.168627 0.082353
0.690196 0.168627 0.082353
0.725490 0.168627 0.082353
0.756863 0.168627 0.082353
0.788235 0.168627 0.082353
0.819608 0.168627 0.082353
0.847059 0.168627 0.082353
0.874510 0.168627 0.082353
0.901961 0.168627 0.082353
0.925490 0.168627 0.082353
0.952941 0.168627 0.082353
0.972549 0.168627 0.082353
1.000000 0.168627 0.082353
0.000000 0.207843 0.082353
0.066667 0.207843 0.082353
0.125490 0.207843 0.082353
0.192157 0.207843 0.082353
0.254902 0.207843 0.082353
0.309804 0.207843 0.082353
0.372549 0.207843 0.082353
0.423529 0.207843 0.082353
0.478431 0.207843 0.082353
0.529412 0.207843 0.082353
0.572549 0.207843 0.082353
0.615686 0.207843 0.082353
0.654902 0.207843 0.082353
0.690196 0.207843 0.082353
0.725490 0.207843 0.082353
0.756863 0.207843 0.082353
0.788235 0.207843 0.082353
0.819608 0.207843 0.082353
0.847059 0.207843 0.082353
0.874510 0.207843 0.082353
0.901961 0.207843 0.082353
0.925490 0.207843 0.082353
0.952941 0.207843 0.082353
0.972549 0.207843 0.082353
1.000000 0.207843 0.082353
0.000000 0.250980 0.082353
0.066667 0.250980 0.082353
0.125490 0.250980 0.082353
0.192157 0.250980 0.082353
0.254902 0.250980 0.082353
0.309804 0.250980 0.082353
0.372549 0.250980 0.082353
0.423529 0.250980 0.082353
0.478431 0.250980 0.082353
0.529412 0.250980 0.082353
0.572549 0.250980 0.082353
0.615686 0.250980 0.082353
0.654902 0.250980 0.082353
0.690196 0.250980 0.082353
0.725490 0.250980 0.082353
0.756863 0.250980 0.082353
0.788235 0.250980 0.082353
0.819608 0.250980 0.082353
0.847059 0.250980 0.082353
0.874510 0.250980 0.082353
0.901961 0.250980 0.082353
0.925490 0.250980 0.082353
0.952941 0.250980 0.082353
0.972549 0.250980 0.082353
1.000000 0.250980 0.082353
0.000000 0.290196 0.082353
0.066667 0.290196 0.082353
0.125490 0.290196 0.082353
0.192157 0.290196 0.082353
0.254902 0.290196 0.082353
0.309804 0.290196 0.082353
0.372549 0.290196 0.082353
0.423529 0.290196 0.082353
0.478431 0.290196 0.082353
0.529412 0.290196 0.082353
0.572549 0.290196 0.082353
0.615686 0.290196 0.082353
0.654902 0.290196 0.082353
0.690196 0.290196 0.082353
0.725490 0.290196 0.082353
0.756863 0.290196 0.082353
0.788235 0.290196 0.082353
0.819608 0.290196 0.082353
0.847059 0.290196 0.082353
0.874510 0.290196 0.082353
0.901961 0.290196 0.082353
0.925490 0.290196 0.082353
0.952941 0.290196 0.082353
0.972549 0.290196 0.082353
1.000000 0.290196 0.082353
0.000000 0.333333 0.082353
0.066667 0.333333 0.082353
0.125490 0.333333 0.082353
0.192157 0.333333 0.082353
0.254902 0.333333 0.082353
0.309804 0.333333 0.082353
0.372549 0.333333 0.082353
0.423529 0.333333 0.082353
0.478431 0.333333 0.082353
0.529412 0.333333 0.082353
0.572549 0.333333 0.082353
0.615686 0.333333 0.082353
0.654902 0.333333 0.082353
0.690196 0.333333 0.082353
0.725490 0.333333 0.082353
0.756863 0.333333 0.082353
0.788235 0.333333 0.082353
0.819608 0.333333 0.082353
0.847059 0.333333 0.082353
0.874510 0.333333 0.082353
0.901961 0.333333 0.082353
0.925490 0.333333 0.082353
0.952941 0.333333 0.082353
0.972549 0.333333 0.082353
1.000000 0.333333 0.082353
0.000000 0.376471 0.082353
0.066667 0.376471 0.082353
0.125490 0.376471 0.082353
0.192157 0.376471 0.082353
0.254902 0.376471 0.082353
0.309804 0.376471 0.082353
0.372549 0.376471 0.082353
0.423529 0.376471 0.082353
0.478431 0.376471 0.082353
0.529412 0.376471 0.082353
0.572549 0.376471 0.082353
0.615686 0.376471 0.082353
0.654902 0.376471 0.082353
0.690196 0.376471 0.082353
0.725490 0.376471 0.082353
0.756863 0.376471 0.082353
0.788235 0.376471 0.082353
0.819608 0.376471 0.082353
0.847059 0.376471 0.082353
0.874510 0.376471 0.082353
0.901961 0.376471 0.082353
0.925490 0.376471 0.082353
0.952941 0.376471 0.082353
0.972549 0.376471 0.082353
1.000000 0.376471 0.082353
0.000000 0.415686 0.082353
0.066667 0.415686 0.082353
0.125490 0.415686 0.082353
0.192157 0.415686 0.082353
0.254902 0.415686 0.082353
0.309804 0.415686 0.082353
0.372549 0.415686 0.082353
0.423529 0.415686 0.082353
0.478431 0.415686 0.082353
