LUTs/Damaging/LUT_MAGENTA/purple.cube
#Generated by lutCreator.js
#Coded by SirSerch
#https://github.com/SirSerch/LutCreatorJs
TITLE lutCreatorJs_25
LUT_3D_SIZE 5
0.000000 0.000000 0.000000
0.372549 0.000000 0.000000
0.654902 0.000000 0.000000
0.847059 0.000000 0.000000
1.000000 0.000000 0.000000
0.000000 0.250980 0.000000
0.372549 0.250980 0.000000
0.654902 0.250980 0.000000
0.847059 0.250980 0.000000
1.000000 0.250980 0.000000
0.000000 0.501961 0.000000
0.372549 0.501961 0.000000
0.654902 0.501961 0.000000
0.847059 0.501961 0.000000
1.000000 0.501961 0.000000
0.000000 0.749020 0.000000
0.372549 0.749020 0.000000
0.654902 0.749020 0.000000
0.847059 0.749020 0.000000
1.000000 0.749020 0.000000
0.000000 1.000000 0.000000
0.372549 1.000000 0.000000
0.654902 1.000000 0.000000
0.847059 1.000000 0.000000
1.000000 1.000000 0.000000
0.000000 0.000000 0.447059
0.372549 0.000000 0.447059
0.654902 0.000000 0.447059
0.847059 0.000000 0.447059
1.000000 0.000000 0.447059
0.000000 0.250980 0.447059
0.372549 0.250980 0.447059
0.654902 0.250980 0.447059
0.847059 0.250980 0.447059
1.000000 0.250980 0.447059
0.000000 0.501961 0.447059
0.372549 0.501961 0.447059
0.654902 0.501961 0.447059
0.847059 0.501961 0.447059
1.000000 0.501961 0.447059
0.000000 0.749020 0.447059
0.372549 0.749020 0.447059
0.654902 0.749020 0.447059
0.847059 0.749020 0.447059
1.000000 0.749020 0.447059
0.000000 1.000000 0.447059
0.372549 1.000000 0.447059
0.654902 1.000000 0.447059
0.847059 1.000000 0.447059
1.000000 1.000000 0.447059
0.000000 0.000000 0.729412
0.372549 0.000000 0.729412
0.654902 0.000000 0.729412
0.847059 0.000000 0.729412
1.000000 0.000000 0.729412
0.000000 0.250980 0.729412
0.372549 0.250980 0.729412
0.654902 0.250980 0.729412
0.847059 0.250980 0.729412
1.000000 0.250980 0.729412
0.000000 0.501961 0.729412
0.372549 0.501961 0.729412
0.654902 0.501961 0.729412
0.847059 0.501961 0.729412
1.000000 0.501961 0.729412
0.000000 0.749020 0.729412
0.372549 0.749020 0.729412
0.654902 0.749020 0.729412
0.847059 0.749020 0.729412
1.000000 0.749020 0.729412
0.000000 1.000000 0.729412
0.372549 1.000000 0.729412
0.654902 1.000000 0.729412
0.847059 1.000000 0.729412
1.000000 1.000000 0.729412
0.000000 0.000000 0.890196
0.372549 0.000000 0.890196
0.654902 0.000000 0.890196
0.847059 0.000000 0.890196
1.000000 0.000000 0.890196
0.000000 0.250980 0.890196
0.372549 0.250980 0.890196
0.654902 0.250980 0.890196
0.847059 0.250980 0.890196
1.000000 0.250980 0.890196
0.000000 0.501961 0.890196
0.372549 0.501961 0.890196
0.654902 0.501961 0.890196
0.847059 0.501961 0.890196
1.000000 0.501961 0.890196
0.000000 0.749020 0.890196
0.372549 0.749020 0.890196
0.654902 0.749020 0.890196
0.847059 0.749020 0.890196
1.000000 0.749020 0.890196
0.000000 1.000000 0.890196
0.372549 1.000000 0.890196
0.654902 1.000000 0.890196
0.847059 1.000000 0.890196
1.000000 1.000000 0.890196
0.000000 0.000000 1.000000
0.372549 0.000000 1.000000
0.654902 0.000000 1.000000
0.847059 0.000000 1.000000
1.000000 0.000000 1.000000
0.000000 0.250980 1.000000
0.372549 0.250980 1.000000
0.654902 0.250980 1.000000
0.847059 0.250980 1.000000
1.000000 0.250980 1.000000
0.000000 0.501961 1.000000
0.372549 0.501961 1.000000
0.654902 0.501961 1.000000
0.847059 0.501961 1.000000
1.000000 0.501961 1.000000
0.000000 0.749020 1.000000
0.372549 0.749020 1.000000
0.654902 0.749020 1.000000
0.847059 0.749020 1.000000
1.000000 0.749020 1.000000
0.000000 1.000000 1.000000
0.372549 1.000000 1.000000
0.654902 1.000000 1.000000
0.847059 1.000000 1.000000
1.000000 1.000000 1.000000
