LUTs/Damaging/LUT_MAGENTA/purple.cube
#Generated by lutCreator.js
#Coded by SirSerch
#https://github.com/SirSerch/LutCreatorJs
TITLE lutCreatorJs_25
LUT_3D_SIZE 9
0.000000 0.000000 0.000000
0.192157 0.000000 0.000000
0.372549 0.000000 0.000000
0.529412 0.000000 0.000000
0.654902 0.000000 0.000000
0.756863 0.000000 0.000000
0.847059 0.000000 0.000000
0.925490 0.000000 0.000000
1.000000 0.000000 0.000000
0.000000 0.125490 0.000000
0.192157 0.125490 0.000000
0.372549 0.125490 0.000000
0.529412 0.125490 0.000000
0.654902 0.125490 0.000000
0.756863 0.125490 0.000000
0.847059 0.125490 0.000000
0.925490 0.125490 0.000000
1.000000 0.125490 0.000000
0.000000 0.250980 0.000000
0.192157 0.250980 0.000000
0.372549 0.250980 0.000000
0.529412 0.250980 0.000000
0.654902 0.250980 0.000000
0.756863 0.250980 0.000000
0.847059 0.250980 0.000000
0.925490 0.250980 0.000000
1.000000 0.250980 0.000000
0.000000 0.376471 0.000000
0.192157 0.376471 0.000000
0.372549 0.376471 0.000000
0.529412 0.376471 0.000000
0.654902 0.376471 0.000000
0.756863 0.376471 0.000000
0.847059 0.376471 0.000000
0.925490 0.376471 0.000000
1.000000 0.376471 0.000000
0.000000 0.501961 0.000000
0.192157 0.501961 0.000000
0.372549 0.501961 0.000000
0.529412 0.501961 0.000000
0.654902 0.501961 0.000000
0.756863 0.501961 0.000000
0.847059 0.501961 0.000000
0.925490 0.501961 0.000000
1.000000 0.501961 0.000000
0.000000 0.623529 0.000000
0.192157 0.623529 0.000000
0.372549 0.623529 0.000000
0.529412 0.623529 0.000000
0.654902 0.623529 0.000000
0.756863 0.623529 0.000000
0.847059 0.623529 0.000000
0.925490 0.623529 0.000000
1.000000 0.623529 0.000000
0.000000 0.749020 0.000000
0.192157 0.749020 0.000000
0.372549 0.749020 0.000000
0.529412 0.749020 0.000000
0.654902 0.749020 0.000000
0.756863 0.749020 0.000000
0.847059 0.749020 0.000000
0.925490 0.749020 0.000000
1.000000 0.749020 0.000000
0.000000 0.874510 0.000000
0.192157 0.874510 0.000000
0.372549 0.874510 0.000000
0.529412 0.874510 0.000000
0.654902 0.874510 0.000000
0.756863 0.874510 0.000000
0.847059 0.874510 0.000000
0.925490 0.874510 0.000000
1.000000 0.874510 0.000000
0.000000 1.000000 0.000000
0.192157 1.000000 0.000000
0.372549 1.000000 0.000000
0.529412 1.000000 0.000000
0.654902 1.000000 0.000000
0.756863 1.000000 0.000000
0.847059 1.000000 0.000000
0.925490 1.000000 0.000000
1.000000 1.000000 0.000000
0.000000 0.000000 0.235294
0.192157 0.000000 0.235294
0.372549 0.000000 0.235294
0.529412 0.000000 0.235294
0.654902 0.000000 0.235294
0.756863 0.000000 0.235294
0.847059 0.000000 0.235294
0.925490 0.000000 0.235294
1.000000 0.000000 0.235294
0.000000 0.125490 0.235294
0.192157 0.125490 0.235294
0.372549 0.125490 0.235294
0.529412 0.125490 0.235294
0.654902 0.125490 0.235294
0.756863 0.125490 0.235294
0.847059 0.125490 0.235294
0.925490 0.125490 0.235294
1.000000 0.125490 0.235294
0.000000 0.250980 0.235294
0.192157 0.250980 0.235294
0.372549 0.250980 0.235294
0.529412 0.250980 0.235294
0.654902 0.250980 0.235294
0.756863 0.250980 0.235294
0.847059 0.250980 0.235294
0.925490 0.250980 0.235294
1.000000 0.250980 0.235294
0.000000 0.376471 0.235294
0.192157 0.376471 0.235294
0.372549 0.376471 0.235294
0.529412 0.376471 0.235294
0.654902 0.376471 0.235294
0.756863 0.376471 0.235294
0.847059 0.376471 0.235294
0.925490 0.376471 0.235294
1.000000 0.376471 0.235294
0.000000 0.501961 0.235294
0.192157 0.501961 0.235294
0.372549 0.501961 0.235294
0.529412 0.501961 0.235294
0.654902 0.501961 0.235294
0.756863 0.501961 0.235294
0.847059 0.501961 0.235294
0.925490 0.501961 0.235294
1.000000 0.501961 0.235294
0.000000 0.623529 0.235294
0.192157 0.623529 0.235294
0.372549 0.623529 0.235294
0.529412 0.623529 0.235294
0.654902 0.623529 0.235294
0.756863 0.623529 0.235294
0.847059 0.623529 0.235294
0.925490 0.623529 0.235294
1.000000 0.623529 0.235294
0.000000 0.749020 0.235294
0.192157 0.749020 0.235294
0.372549 0.749020 0.235294
0.529412 0.749020 0.235294
0.654902 0.749020 0.235294
0.756863 0.749020 0.235294
0.847059 0.749020 0.235294
0.925490 0.749020 0.235294
1.000000 0.749020 0.235294
0.000000 0.874510 0.235294
0.192157 0.874510 0.235294
0.372549 0.874510 0.235294
0.529412 0.874510 0.235294
0.654902 0.874510 0.235294
0.756863 0.874510 0.235294
0.847059 0.874510 0.235294
0.925490 0.874510 0.235294
1.000000 0.874510 0.235294
0.000000 1.000000 0.235294
0.192157 1.000000 0.235294
0.372549 1.000000 0.235294
0.529412 1.000000 0.235294
0.654902 1.000000 0.235294
0.756863 1.000000 0.235294
0.847059 1.000000 0.235294
0.925490 1.000000 0.235294
1.000000 1.000000 0.235294
0.000000 0.000000 0.447059
0.192157 0.000000 0.447059
0.372549 0.000000 0.447059
0.529412 0.000000 0.447059
0.654902 0.000000 0.447059
0.756863 0.000000 0.447059
0.847059 0.000000 0.447059
0.925490 0.000000 0.447059
1.000000 0.000000 0.447059
0.000000 0.125490 0.447059
0.192157 0.125490 0.447059
0.372549 0.125490 0.447059
0.529412 0.125490 0.447059
0.654902 0.125490 0.447059
0.756863 0.125490 0.447059
0.847059 0.125490 0.447059
0.925490 0.125490 0.447059
1.000000 0.125490 0.447059
0.000000 0.250980 0.447059
0.192157 0.250980 0.447059
0.372549 0.250980 0.447059
0.529412 0.250980 0.447059
0.654902 0.250980 0.447059
0.756863 0.250980 0.447059
0.847059 0.250980 0.447059
0.925490 0.250980 0.447059
1.000000 0.250980 0.447059
0.000000 0.376471 0.447059
0.192157 0.376471 0.447059
0.372549 0.376471 0.447059
0.529412 0.376471 0.447059
0.654902 0.376471 0.447059
0.756863 0.376471 0.447059
0.847059 0.376471 0.447059
0.925490 0.376471 0.447059
1.000000 0.376471 0.447059
0.000000 0.501961 0.447059
0.192157 0.501961 0.447059
0.372549 0.501961 0.447059
0.529412 0.501961 0.447059
0.654902 0.501961 0.447059
0.756863 0.501961 0.447059
0.847059 0.501961 0.447059
0.925490 0.501961 0.447059
1.000000 0.501961 0.447059
0.000000 0.623529 0.447059
0.192157 0.623529 0.447059
0.372549 0.623529 0.447059
0.529412 0.623529 0.447059
0.654902 0.623529 0.447059
0.756863 0.623529 0.447059
0.847059 0.623529 0.447059
0.925490 0.623529 0.447059
1.000000 0.623529 0.447059
0.000000 0.749020 0.447059
0.192157 0.749020 0.447059
0.372549 0.749020 0.447059
0.529412 0.749020 0.447059
0.654902 0.749020 0.447059
0.756863 0.749020 0.447059
0.847059 0.749020 0.447059
0.925490 0.749020 0.447059
1.000000 0.749020 0.447059
0.000000 0.874510 0.447059
0.192157 0.874510 0.447059
0.372549 0.874510 0.447059
0.529412 0.874510 0.447059
0.654902 0.874510 0.447059
0.756863 0.874510 0.447059
0.847059 0.874510 0.447059
0.925490 0.874510 0.447059
1.000000 0.874510 0.447059
0.000000 1.000000 0.447059
0.192157 1.000000 0.447059
0.372549 1.000000 0.447059
0.529412 1.000000 0.447059
0.654902 1.000000 0.447059
0.756863 1.000000 0.447059
0.847059 1.000000 0.447059
0.925490 1.000000 0.447059
1.000000 1.000000 0.447059
0.000000 0.000000 0.611765
0.192157 0.000000 0.611765
0.372549 0.000000 0.611765
0.529412 0.000000 0.611765
0.654902 0.000000 0.611765
0.756863 0.000000 0.611765
0.847059 0.000000 0.611765
0.925490 0.000000 0.611765
1.000000 0.000000 0.611765
0.000000 0.125490 0.611765
0.192157 0.125490 0.611765
0.372549 0.125490 0.611765
0.529412 0.125490 0.611765
0.654902 0.125490 0.611765
0.756863 0.125490 0.611765
0.847059 0.125490 0.611765
0.925490 0.125490 0.611765
1.000000 0.125490 0.611765
0.000000 0.250980 0.611765
0.192157 0.250980 0.611765
0.372549 0.250980 0.611765
0.529412 0.250980 0.611765
0.654902 0.250980 0.611765
0.756863 0.250980 0.611765
0.847059 0.250980 0.611765
0.925490 0.250980 0.611765
1.000000 0.250980 0.611765
0.000000 0.376471 0.611765
0.192157 0.376471 0.611765
0.372549 0.376471 0.611765
0.529412 0.376471 0.611765
0.654902 0.376471 0.611765
0.756863 0.376471 0.611765
0.847059 0.376471 0.611765
0.925490 0.376471 0.611765
1.000000 0.376471 0.611765
0.000000 0.501961 0.611765
0.192157 0.501961 0.611765
0.372549 0.501961 0.611765
0.529412 0.501961 0.611765
0.654902 0.501961 0.611765
0.756863 0.501961 0.611765
0.847059 0.501961 0.611765
0.925490 0.501961 0.611765
1.000000 0.501961 0.611765
0.000000 0.623529 0.611765
0.192157 0.623529 0.611765
0.372549 0.623529 0.611765
0.529412 0.623529 0.611765
0.654902 0.623529 0.611765
0.756863 0.623529 0.611765
0.847059 0.623529 0.611765
0.925490 0.623529 0.611765
1.000000 0.623529 0.611765
0.000000 0.749020 0.611765
0.192157 0.749020 0.611765
0.372549 0.749020 0.611765
0.529412 0.749020 0.611765
0.654902 0.749020 0.611765
0.756863 0.749020 0.611765
0.847059 0.749020 0.611765
0.925490 0.749020 0.611765
1.000000 0.749020 0.611765
0.000000 0.874510 0.611765
0.192157 0.874510 0.611765
0.372549 0.874510 0.611765
0.529412 0.874510 0.611765
0.654902 0.874510 0.611765
0.756863 0.874510 0.611765
0.847059 0.874510 0.611765
0.925490 0.874510 0.611765
1.000000 0.874510 0.611765
0.000000 1.000000 0.611765
0.192157 1.000000 0.611765
0.372549 1.000000 0.611765
0.529412 1.000000 0.611765
0.654902 1.000000 0.611765
0.756863 1.000000 0.611765
0.847059 1.000000 0.611765
0.925490 1.000000 0.611765
1.000000 1.000000 0.611765
0.000000 0.000000 0.729412
0.192157 0.000000 0.729412
0.372549 0.000000 0.729412
0.529412 0.000000 0.729412
0.654902 0.000000 0.729412
0.756863 0.000000 0.729412
0.847059 0.000000 0.729412
0.925490 0.000000 0.729412
1.000000 0.000000 0.729412
0.000000 0.125490 0.729412
0.192157 0.125490 0.729412
0.372549 0.125490 0.729412
0.529412 0.125490 0.729412
0.654902 0.125490 0.729412
0.756863 0.125490 0.729412
0.847059 0.125490 0.729412
0.925490 0.125490 0.729412
1.000000 0.125490 0.729412
0.000000 0.250980 0.729412
0.192157 0.250980 0.729412
0.372549 0.250980 0.729412
0.529412 0.250980 0.729412
0.654902 0.250980 0.729412
0.756863 0.250980 0.729412
0.847059 0.250980 0.729412
0.925490 0.250980 0.729412
1.000000 0.250980 0.729412
0.000000 0.376471 0.729412
0.192157 0.376471 0.729412
0.372549 0.376471 0.729412
0.529412 0.376471 0.729412
0.654902 0.376471 0.729412
0.756863 0.376471 0.729412
0.847059 0.376471 0.729412
0.925490 0.376471 0.729412
1.000000 0.376471 0.729412
0.000000 0.501961 0.729412
0.192157 0.501961 0.729412
0.372549 0.501961 0.729412
0.529412 0.501961 0.729412
0.654902 0.501961 0.729412
0.756863 0.501961 0.729412
0.847059 0.501961 0.729412
0.925490 0.501961 0.729412
1.000000 0.501961 0.729412
0.000000 0.623529 0.729412
0.192157 0.623529 0.729412
0.372549 0.623529 0.729412
0.529412 0.623529 0.729412
0.654902 0.623529 0.729412
0.756863 0.623529 0.729412
0.847059 0.623529 0.729412
0.925490 0.623529 0.729412
1.000000 0.623529 0.729412
0.000000 0.749020 0.729412
0.192157 0.749020 0.729412
0.372549 0.749020 0.729412
0.529412 0.749020 0.729412
0.654902 0.749020 0.729412
0.756863 0.749020 0.729412
0.847059 0.749020 0.729412
0.925490 0.749020 0.729412
1.000000 0.749020 0.729412
0.000000 0.874510 0.729412
0.192157 0.874510 0.729412
0.372549 0.874510 0.729412
0.529412 0.874510 0.729412
0.654902 0.874510 0.729412
0.756863 0.874510 0.729412
0.847059 0.874510 0.729412
0.925490 0.874510 0.729412
1.000000 0.874510 0.729412
0.000000 1.000000 0.729412
0.192157 1.000000 0.729412
0.372549 1.000000 0.729412
0.529412 1.000000 0.729412
0.654902 1.000000 0.729412
0.756863 1.000000 0.729412
0.847059 1.000000 0.729412
0.925490 1.000000 0.729412
1.000000 1.000000 0.729412
0.000000 0.000000 0.815686
0.192157 0.000000 0.815686
0.372549 0.000000 0.815686
0.529412 0.000000 0.815686
0.654902 0.000000 0.815686
0.756863 0.000000 0.815686
0.847059 0.000000 0.815686
0.925490 0.000000 0.815686
1.000000 0.000000 0.815686
0.000000 0.125490 0.815686
0.192157 0.125490 0.815686
0.372549 0.125490 0.815686
0.529412 0.125490 0.815686
0.654902 0.125490 0.815686
0.756863 0.125490 0.815686
0.847059 0.125490 0.815686
0.925490 0.125490 0.815686
1.000000 0.125490 0.815686
0.000000 0.250980 0.815686
0.192157 0.250980 0.815686
0.372549 0.250980 0.815686
0.529412 0.250980 0.815686
0.654902 0.250980 0.815686
0.756863 0.250980 0.815686
0.847059 0.250980 0.815686
0.925490 0.250980 0.815686
1.000000 0.250980 0.815686
0.000000 0.376471 0.815686
0.192157 0.376471 0.815686
0.372549 0.376471 0.815686
0.529412 0.376471 0.815686
0.654902 0.376471 0.815686
0.756863 0.376471 0.815686
0.847059 0.376471 0.815686
0.925490 0.376471 0.815686
1.000000 0.376471 0.815686
0.000000 0.501961 0.815686
0.192157 0.501961 0.815686
0.372549 0.501961 0.815686
0.529412 0.501961 0.815686
0.654902 0.501961 0.815686
0.756863 0.501961 0.815686
0.847059 0.501961 0.815686
0.925490 0.501961 0.815686
1.000000 0.501961 0.815686
0.000000 0.623529 0.815686
0.192157 0.623529 0.815686
0.372549 0.623529 0.815686
0.529412 0.623529 0.815686
0.654902 0.623529 0.815686
0.756863 0.623529 0.815686
0.847059 0.623529 0.815686
0.925490 0.623529 0.815686
1.000000 0.623529 0.815686
0.000000 0.749020 0.815686
0.192157 0.749020 0.815686
0.372549 0.749020 0.815686
0.529412 0.749020 0.815686
0.654902 0.749020 0.815686
0.756863 0.749020 0.815686
0.847059 0.749020 0.815686
0.925490 0.749020 0.815686
1.000000 0.749020 0.815686
0.000000 0.874510 0.815686
0.192157 0.874510 0.815686
0.372549 0.874510 0.815686
0.529412 0.874510 0.815686
0.654902 0.874510 0.815686
0.756863 0.874510 0.815686
0.847059 0.874510 0.815686
0.925490 0.874510 0.815686
1.000000 0.874510 0.815686
0.000000 1.000000 0.815686
0.192157 1.000000 0.815686
0.372549 1.000000 0.815686
0.529412 1.000000 0.815686
0.654902 1.000000 0.815686
0.756863 1.000000 0.815686
0.847059 1.000000 0.815686
0.925490 1.000000 0.815686
1.000000 1.000000 0.815686
0.000000 0.000000 0.890196
0.192157 0.000000 0.890196
0.372549 0.000000 0.890196
0.529412 0.000000 0.890196
0.654902 0.000000 0.890196
0.756863 0.000000 0.890196
0.847059 0.000000 0.890196
0.925490 0.000000 0.890196
1.000000 0.000000 0.890196
0.000000 0.125490 0.890196
0.192157 0.125490 0.890196
0.372549 0.125490 0.890196
0.529412 0.125490 0.890196
0.654902 0.125490 0.890196
0.756863 0.125490 0.890196
0.847059 0.125490 0.890196
0.925490 0.125490 0.890196
1.000000 0.125490 0.890196
0.000000 0.250980 0.890196
0.192157 0.250980 0.890196
0.372549 0.250980 0.890196
0.529412 0.250980 0.890196
0.654902 0.250980 0.890196
0.756863 0.250980 0.890196
0.847059 0.250980 0.890196
0.925490 0.250980 0.890196
1.000000 0.250980 0.890196
0.000000 0.376471 0.890196
0.192157 0.376471 0.890196
0.372549 0.376471 0.890196
0.529412 0.376471 0.890196
0.654902 0.376471 0.890196
0.756863 0.376471 0.890196
0.847059 0.376471 0.890196
0.925490 0.376471 0.890196
1.000000 0.376471 0.890196
0.000000 0.501961 0.890196
0.192157 0.501961 0.890196
0.372549 0.501961 0.890196
0.529412 0.501961 0.890196
0.654902 0.501961 0.890196
0.756863 0.501961 0.890196
0.847059 0.501961 0.890196
0.925490 0.501961 0.890196
1.000000 0.501961 0.890196
0.000000 0.623529 0.890196
0.192157 0.623529 0.890196
0.372549 0.623529 0.890196
0.529412 0.623529 0.890196
0.654902 0.623529 0.890196
0.756863 0.623529 0.890196
0.847059 0.623529 0.890196
0.925490 0.623529 0.890196
1.000000 0.623529 0.890196
0.000000 0.749020 0.890196
0.192157 0.749020 0.890196
0.372549 0.749020 0.890196
0.529412 0.749020 0.890196
0.654902 0.749020 0.890196
0.756863 0.749020 0.890196
0.847059 0.749020 0.890196
0.925490 0.749020 0.890196
1.000000 0.749020 0.890196
0.000000 0.874510 0.890196
0.192157 0.874510 0.890196
0.372549 0.874510 0.890196
0.529412 0.874510 0.890196
0.654902 0.874510 0.890196
0.756863 0.874510 0.890196
0.847059 0.874510 0.890196
0.925490 0.874510 0.890196
1.000000 0.874510 0.890196
0.000000 1.000000 0.890196
0.192157 1.000000 0.890196
0.372549 1.000000 0.890196
0.529412 1.000000 0.890196
0.654902 1.000000 0.890196
0.756863 1.000000 0.890196
0.847059 1.000000 0.890196
0.925490 1.000000 0.890196
1.000000 1.000000 0.890196
0.000000 0.000000 0.949020
0.192157 0.000000 0.949020
0.372549 0.000000 0.949020
0.529412 0.000000 0.949020
0.654902 0.000000 0.949020
0.756863 0.000000 0.949020
0.847059 0.000000 0.949020
0.925490 0.000000 0.949020
1.000000 0.000000 0.949020
0.000000 0.125490 0.949020
0.192157 0.125490 0.949020
0.372549 0.125490 0.949020
0.529412 0.125490 0.949020
0.654902 0.125490 0.949020
0.756863 0.125490 0.949020
0.847059 0.125490 0.949020
0.925490 0.125490 0.949020
1.000000 0.125490 0.949020
0.000000 0.250980 0.949020
0.192157 0.250980 0.949020
0.372549 0.250980 0.949020
0.529412 0.250980 0.949020
0.654902 0.250980 0.949020
0.756863 0.250980 0.949020
0.847059 0.250980 0.949020
0.925490 0.250980 0.949020
1.000000 0.250980 0.949020
0.000000 0.376471 0.949020
0.192157 0.376471 0.949020
0.372549 0.376471 0.949020
0.529412 0.376471 0.949020
0.654902 0.376471 0.949020
0.756863 0.376471 0.949020
0.847059 0.376471 0.949020
0.925490 0.376471 0.949020
1.000000 0.376471 0.949020
0.000000 0.501961 0.949020
0.192157 0.501961 0.949020
0.372549 0.501961 0.949020
0.529412 0.501961 0.949020
0.654902 0.501961 0.949020
0.756863 0.501961 0.949020
0.847059 0.501961 0.949020
0.925490 0.501961 0.949020
1.000000 0.501961 0.949020
0.000000 0.623529 0.949020
0.192157 0.623529 0.949020
0.372549 0.623529 0.949020
0.529412 0.623529 0.949020
0.654902 0.623529 0.949020
0.756863 0.623529 0.949020
0.847059 0.623529 0.949020
0.925490 0.623529 0.949020
1.000000 0.623529 0.949020
0.000000 0.749020 0.949020
0.192157 0.749020 0.949020
0.372549 0.749020 0.949020
0.529412 0.749020 0.949020
0.654902 0.749020 0.949020
0.756863 0.749020 0.949020
0.847059 0.749020 0.949020
0.925490 0.749020 0.949020
1.000000 0.749020 0.949020
0.000000 0.874510 0.949020
0.192157 0.874510 0.949020
0.372549 0.874510 0.949020
0.529412 0.874510 0.949020
0.654902 0.874510 0.949020
0.756863 0.874510 0.949020
0.847059 0.874510 0.949020
0.925490 0.874510 0.949020
1.000000 0.874510 0.949020
0.000000 1.000000 0.949020
0.192157 1.000000 0.949020
0.372549 1.000000 0.949020
0.529412 1.000000 0.949020
0.654902 1.000000 0.949020
0.756863 1.000000 0.949020
0.847059 1.000000 0.949020
0.925490 1.000000 0.949020
1.000000 1.000000 0.949020
0.000000 0.000000 1.000000
0.192157 0.000000 1.000000
0.372549 0.000000 1.000000
0.529412 0.000000 1.000000
0.654902 0.000000 1.000000
0.756863 0.000000 1.000000
0.847059 0.000000 1.000000
0.925490 0.000000 1.000000
1.000000 0.000000 1.000000
0.000000 0.125490 1.000000
0.192157 0.125490 1.000000
0.372549 0.125490 1.000000
0.529412 0.125490 1.000000
0.654902 0.125490 1.000000
0.756863 0.125490 1.000000
0.847059 0.125490 1.000000
0.925490 0.125490 1.000000
1.000000 0.125490 1.000000
0.000000 0.250980 1.000000
0.192157 0.250980 1.000000
0.372549 0.250980 1.000000
0.529412 0.250980 1.000000
0.654902 0.250980 1.000000
0.756863 0.250980 1.000000
0.847059 0.250980 1.000000
0.925490 0.250980 1.000000
1.000000 0.250980 1.000000
0.000000 0.376471 1.000000
0.192157 0.376471 1.000000
0.372549 0.376471 1.000000
0.529412 0.376471 1.000000
0.654902 0.376471 1.000000
0.756863 0.376471 1.000000
0.847059 0.376471 1.000000
0.925490 0.376471 1.000000
1.000000 0.376471 1.000000
0.000000 0.501961 1.000000
0.192157 0.501961 1.000000
0.372549 0.501961 1.000000
0.529412 0.501961 1.000000
0.654902 0.501961 1.000000
0.756863 0.501961 1.000000
0.847059 0.501961 1.000000
0.925490 0.501961 1.000000
1.000000 0.501961 1.000000
0.000000 0.623529 1.000000
0.192157 0.623529 1.000000
0.372549 0.623529 1.000000
0.529412 0.623529 1.000000
0.654902 0.623529 1.000000
0.756863 0.623529 1.000000
0.847059 0.623529 1.000000
0.925490 0.623529 1.000000
1.000000 0.623529 1.000000
0.000000 0.749020 1.000000
0.192157 0.749020 1.000000
0.372549 0.749020 1.000000
0.529412 0.749020 1.000000
0.654902 0.749020 1.000000
0.756863 0.749020 1.000000
0.847059 0.749020 1.000000
0.925490 0.749020 1.000000
1.000000 0.749020 1.000000
0.000000 0.874510 1.000000
0.192157 0.874510 1.000000
0.372549 0.874510 1.000000
0.529412 0.874510 1.000000
0.654902 0.874510 1.000000
0.756863 0.874510 1.000000
0.847059 0.874510 1.000000
0.925490 0.874510 1.000000
1.000000 0.874510 1.000000
0.000000 1.000000 1.000000
0.192157 1.000000 1.000000
0.372549 1.000000 1.000000
0.529412 1.000000 1.000000
0.654902 1.000000 1.000000
0.756863 1.000000 1.000000
0.847059 1.000000 1.000000
0.925490 1.000000 1.000000
1.000000 1.000000 1.000000
