LUTs/Artistic/LUTs/magenta_77.A014_10172114_C081.cube
TITLE "Generated by Resolve"
LUT_3D_SIZE 5
0 0 0
0.220249 0 0.0100862
0.467857 0 0.00926223
0.514504 0.0110475 0.0392157
0.670634 0.0285496 0.0551919
0 0.240772 0.0242618
0.190982 0.222766 0.0184176
0.448676 0.21976 0.00491341
0.621241 0.233494 0.0509041
0.715358 0.264164 0.111894
0 0.466804 0.0748608
0.145663 0.491737 0.0069276
0.401129 0.488197 0.00117494
0.619684 0.486686 0.0679026
0.752621 0.502174 0.16289
0.0948196 0.687175 0.161288
0.288914 0.699672 0.172152
0.469596 0.715953 0.186984
0.640879 0.733852 0.203601
0.794278 0.751492 0.220096
0.151629 0.934325 0.225422
0.341039 0.947814 0.237766
0.519982 0.964355 0.253101
0.690425 0.982437 0.270207
0.843275 1 0.287098
0 0 0.222812
0.224552 0 0.257023
0.476097 0 0.250629
0.557626 0.00723278 0.211032
0.676783 0.0364385 0.218799
0 0.231189 0.252247
0.215625 0.220539 0.227558
0.430793 0.22649 0.248951
0.684062 0.220859 0.249775
0.761563 0.260273 0.273075
0 0.475959 0.268574
0.133242 0.498039 0.239307
0.402167 0.489693 0.241276
0.640803 0.490043 0.231312
0.837324 0.49427 0.251911
0.101884 0.694209 0.331716
0.266728 0.716915 0.327169
0.378271 0.76321 0.248829
0.601907 0.769055 0.231342
0.809735 0.767483 0.277531
0.157916 0.941161 0.399237
0.346426 0.954864 0.412116
0.524941 0.971435 0.428138
0.695033 0.988998 0.445716
0.847715 1 0.463142
0 0 0.325292
0.200763 0 0.461173
0.418021 0 0.446448
0.532723 0.0231632 0.384894
0.681529 0.0430304 0.397498
0.0385443 0.212802 0.370764
0.205402 0.226871 0.452125
0.443244 0.2206 0.526833
0.681224 0.219562 0.526101
0.812299 0.248737 0.494209
0.101472 0.441886 0.438819
0.180423 0.484062 0.49543
0.426902 0.483253 0.488334
0.615961 0.495918 0.500984
0.8533 0.489387 0.508278
0.11574 0.697841 0.51339
0.267552 0.723033 0.522194
0.350973 0.77229 0.495781
0.594766 0.770565 0.493507
0.811566 0.771084 0.492958
0.164248 0.946181 0.582971
0.351492 0.960159 0.596567
0.526299 0.977951 0.611292
0.605417 1 0.533806
0.787015 1 0.502281
0 0 0.449882
0.172885 0 0.523339
0.359808 0.0147707 0.542473
0.529793 0.0316167 0.561425
0.685328 0.0488136 0.579934
0.0855421 0.215152 0.462318
0.232471 0.235676 0.537728
0.423774 0.23209 0.720485
0.634714 0.237522 0.734203
0.76231 0.270161 0.678126
0.153628 0.438819 0.567422
0.302281 0.462638 0.601358
0.430335 0.486732 0.693507
0.631998 0.486931 0.790982
0.848386 0.487129 0.792905
0.164813 0.691722 0.681346
0.342229 0.708461 0.698344
0.410956 0.753674 0.753796
0.615244 0.762341 0.764035
0.806409 0.770581 0.761975
0.187015 0.946075 0.767224
0.364767 0.962676 0.78262
0.535363 0.98143 0.799863
0.573388 1 0.77847
0.776745 1 0.773739
0 0.00233463 0.617853
0.176822 0.00544747 0.70518
0.363439 0.0200961 0.729503
0.533089 0.0368658 0.749157
0.688441 0.0539712 0.768353
0.0920119 0.223941 0.606058
0.24036 0.243244 0.688823
0.408118 0.254917 0.790188
0.577676 0.271489 0.814298
0.731579 0.288624 0.83328
0.17612 0.444175 0.697368
0.331044 0.467567 0.717144
0.469917 0.493385 0.760739
0.620127 0.497978 0.964019
0.816358 0.498741 1
0.222827 0.685588 0.82118
0.392859 0.704784 0.835492
0.549996 0.727749 0.852247
0.646464 0.758816 0.955474
0.803204 0.768215 1
0.237568 0.938872 0.938598
0.410864 0.956466 0.956924
0.576761 0.976272 0.977386
0.664775 1 1
0.803616 1 1
