LUTs/Artistic/LUTs/magenta_77.A014_10172114_C081.cube
TITLE "Generated by Resolve"
LUT_3D_SIZE 33
0 0 0
0 0 0.00509651
0 0 0.00553903
0.0260319 0 0.00569162
0.0610208 0 0.00733959
0.0987106 0 0.00895705
0.138277 0 0.00993362
0.178912 0 0.0102541
0.220249 0 0.0100862
0.258396 0 0.00956741
0.292149 0 0.00906386
0.325124 0 0.00865187
0.35761 0 0.00830091
0.38941 0 0.0080415
0.419196 0 0.00799573
0.445823 0 0.00833143
0.467857 0 0.00926223
0.483665 0 0.0110475
0.492393 0 0.0139162
0.495766 0 0.0177005
0.496986 0 0.0220493
0.49807 0 0.0267185
0.49984 0 0.0315862
0.502098 0.00688182 0.0361944
0.514504 0.0110475 0.0392157
0.534249 0.0131838 0.0411383
0.553918 0.0153353 0.0431067
0.573526 0.0175021 0.0450752
0.593072 0.0196841 0.0470741
0.612558 0.0218814 0.0490883
0.631968 0.024094 0.0511025
0.651331 0.0263066 0.0531319
0.670634 0.0285496 0.0551919
0 0 0.00947585
0 0 0.00834669
0.00236515 0 0.0112459
0.0320134 0.000411994 0.0124056
0.0625925 0.000457771 0.0138399
0.0964828 0 0.0147555
0.133501 0 0.0148775
0.172488 0 0.014313
0.212528 0 0.0132143
0.253346 0 0.011841
0.289464 0 0.0109255
0.322683 0 0.0103914
0.355276 0 0.00996414
0.387427 0 0.00962844
0.418647 0 0.00947585
0.447578 0 0.00972
0.473106 0 0.0105745
0.493675 0 0.0124056
0.507866 0 0.0155947
0.515145 0.0019379 0.0199741
0.517876 0.00935378 0.0251469
0.519219 0.0170291 0.0306096
0.520531 0.0246128 0.0361486
0.522438 0.0318151 0.0415656
0.524956 0.0386664 0.0468147
0.541344 0.0417182 0.0493935
0.560967 0.0438849 0.0513466
0.58053 0.0460517 0.0532998
0.600015 0.0482338 0.0552834
0.619455 0.0504311 0.0572824
0.638834 0.0526436 0.0592813
0.658152 0.0548714 0.0613107
0.67744 0.057084 0.063386
0 0.0292821 0.0218967
0 0.028397 0.0211337
0.0155184 0.0275578 0.0202335
0.0420539 0.0286564 0.0210575
0.0681163 0.0300145 0.0218204
0.0976577 0.0304265 0.0217594
0.130999 0.0297704 0.0207828
0.167514 0.0282444 0.0191196
0.20589 0.0261997 0.0170596
0.245396 0.0238346 0.014786
0.285374 0.0213169 0.0124666
0.31931 0.0204471 0.0116732
0.352102 0.0198672 0.0111543
0.384375 0.0194247 0.0107729
0.416236 0.019089 0.0104982
0.446738 0.0191043 0.0105287
0.474739 0.019791 0.0111238
0.498985 0.0215152 0.0125887
0.517906 0.0247044 0.0153964
0.529931 0.029633 0.0197757
0.535836 0.0360418 0.0255283
0.538384 0.0432593 0.0319982
0.53994 0.0506447 0.0386206
0.541711 0.0578012 0.0450752
0.544045 0.0645914 0.0512093
0.547799 0.0710307 0.0570687
0.567376 0.0731975 0.0590066
0.586908 0.0753643 0.0609598
0.606363 0.0775464 0.0629282
0.625757 0.0797589 0.0649271
0.645106 0.0819562 0.0669261
0.664393 0.084184 0.0689555
0.683619 0.0864271 0.070985
0 0.0635538 0.0280308
0 0.0610361 0.0278782
0.0192569 0.0581521 0.0273289
0.0505837 0.0577249 0.0285801
0.0767834 0.0589609 0.0297551
0.102937 0.0603647 0.0292515
0.132342 0.0609598 0.0273747
0.165377 0.0605478 0.024506
0.201236 0.0593576 0.0211948
0.238849 0.0576333 0.0178073
0.277668 0.0555428 0.014435
0.314763 0.0538643 0.0121157
0.347829 0.0532082 0.0114137
0.38024 0.0527047 0.0109102
0.412222 0.0523384 0.0105135
0.443641 0.0520943 0.0102846
0.473304 0.0523079 0.0106355
0.50016 0.053254 0.011841
0.522911 0.0553292 0.0142977
0.539666 0.0588998 0.0183719
0.549706 0.0640726 0.0242161
0.554696 0.0704967 0.0313878
0.557305 0.0774548 0.0390936
0.559365 0.0844282 0.0467231
0.5617 0.0910964 0.0539406
0.564538 0.0976883 0.0610056
0.573281 0.102693 0.0662089
0.592767 0.104875 0.0681773
0.612207 0.107057 0.0701457
0.631571 0.109255 0.0721294
0.650889 0.111467 0.0741283
0.670146 0.113695 0.0761578
0.689357 0.115923 0.0781872
0 0.0985885 0.0304265
0 0.0951858 0.03093
0.0160067 0.0910506 0.0308232
0.0521553 0.089128 0.0323033
0.0821851 0.0891432 0.0340124
0.108888 0.0902876 0.0343175
0.136126 0.0914626 0.0325933
0.166033 0.0920119 0.0292515
0.198932 0.0917678 0.0250401
0.23415 0.090837 0.0206607
0.271046 0.0894026 0.0162814
0.309148 0.087602 0.0120699
0.342748 0.0868238 0.0108644
0.37528 0.0862745 0.0102846
0.40734 0.0858625 0.0099031
0.439109 0.0854963 0.00967422
0.469886 0.0853895 0.00981155
0.498604 0.0858167 0.0107424
0.524193 0.0870527 0.0128176
0.544854 0.0895247 0.0164797
0.559274 0.093431 0.0220951
0.567742 0.0987869 0.029572
0.572183 0.105104 0.0382239
0.575189 0.111711 0.0470283
0.577844 0.118135 0.0554055
0.580896 0.124544 0.0635538
0.584421 0.130831 0.0713664
0.598489 0.134401 0.0752728
0.617884 0.136584 0.0772412
0.637232 0.138781 0.0792248
0.656519 0.140993 0.081239
0.675761 0.143221 0.0832532
0.694942 0.145449 0.0852827
0 0.134676 0.0300755
0 0.130877 0.0309453
0.00535592 0.126345 0.0312657
0.0469978 0.12282 0.0322881
0.0816358 0.121416 0.0342412
0.111391 0.121553 0.0353399
0.139345 0.122408 0.0345312
0.167971 0.123262 0.0317082
0.198657 0.123659 0.027451
0.231586 0.12343 0.0226444
0.266423 0.122652 0.017731
0.302815 0.121401 0.0128786
0.337514 0.120409 0.0104067
0.370123 0.11986 0.00967422
0.402258 0.119402 0.00920119
0.434028 0.119036 0.00889601
0.465309 0.118791 0.00875868
0.49514 0.118914 0.00935378
0.522637 0.119631 0.0110018
0.546304 0.121248 0.0141909
0.564614 0.124071 0.0193332
0.576883 0.128313 0.0267491
0.584176 0.13373 0.0359197
0.588647 0.139818 0.0458381
0.592065 0.145892 0.0554208
0.595529 0.152041 0.0647593
0.599344 0.158129 0.0736858
0.603861 0.16405 0.082063
0.62324 0.166232 0.0840467
0.642557 0.168429 0.0860304
0.66183 0.170642 0.0880293
0.681056 0.172854 0.0900587
0.700236 0.175082 0.0921187
0 0.171633 0.027512
0 0.167666 0.0284428
0 0.163409 0.029221
0.0360113 0.158495 0.029099
0.074815 0.155886 0.0306401
0.108263 0.154879 0.0319982
0.138735 0.154879 0.0321202
0.168154 0.155367 0.030457
0.198154 0.15584 0.0271916
0.229587 0.156008 0.022797
0.262699 0.155718 0.0178836
0.297398 0.154986 0.0127718
0.331853 0.154131 0.00949111
0.364477 0.153582 0.00862135
0.396704 0.153094 0.00813306
0.42858 0.152682 0.00781262
0.460121 0.152361 0.00762951
0.49073 0.152255 0.00799573
0.519509 0.152605 0.009308
0.545342 0.153658 0.0120699
0.566598 0.155657 0.0167544
0.582467 0.158862 0.0237888
0.592966 0.163333 0.0331121
0.599527 0.168719 0.0439002
0.604242 0.174319 0.0545663
0.608438 0.180117 0.0651102
0.612741 0.185916 0.0751965
0.617319 0.191699 0.0847944
0.628534 0.19588 0.090837
0.647837 0.198077 0.0928206
0.667094 0.200275 0.0948043
0.68629 0.202502 0.096788
0.70544 0.20473 0.0987869
0 0.206455 0.0258183
0 0.204593 0.0246433
0 0.200839 0.0248722
0.0213169 0.195377 0.0243534
0.0639048 0.191699 0.0251926
0.100603 0.189731 0.0264439
0.133944 0.188815 0.0270237
0.165316 0.188602 0.0263371
0.196048 0.188739 0.024155
0.227192 0.188891 0.0206912
0.259358 0.188815 0.0163272
0.292821 0.188418 0.0114443
0.326345 0.187793 0.00843824
0.358862 0.187259 0.0075227
0.391028 0.186801 0.00694286
0.422873 0.186389 0.00654612
0.454429 0.186069 0.00627146
0.48539 0.18587 0.00639353
0.514992 0.185992 0.0074464
0.542351 0.186633 0.00985733
0.565881 0.188022 0.0140993
0.584756 0.190402 0.020676
0.598383 0.193942 0.0298924
0.607599 0.19852 0.0411231
0.613947 0.203555 0.0527962
0.619257 0.208881 0.0644999
0.624338 0.214343 0.075761
0.629511 0.219821 0.0864424
0.634913 0.225299 0.0965438
0.652857 0.227817 0.0992599
0.672099 0.230015 0.101244
0.69131 0.232227 0.103304
0.71046 0.23444 0.105364
0 0.240772 0.0242618
0 0.239185 0.0229191
0 0.237095 0.0213321
0.00148013 0.233783 0.0191348
0.0493477 0.228687 0.0183719
0.0890364 0.225849 0.0192264
0.125063 0.224125 0.019852
0.158709 0.223194 0.0196994
0.190982 0.222766 0.0184176
0.222797 0.222599 0.0159304
0.254902 0.222446 0.0123903
0.287755 0.222126 0.00833143
0.320516 0.221561 0.00691234
0.353002 0.221027 0.00611887
0.385183 0.220523 0.00556954
0.417105 0.220096 0.00520333
0.448676 0.21976 0.00491341
0.479835 0.219501 0.00494392
0.509957 0.219486 0.00582895
0.538323 0.219852 0.00796521
0.563516 0.220798 0.0118715
0.584649 0.222553 0.0180819
0.601083 0.225299 0.0270237
0.612955 0.229068 0.0384222
0.621241 0.233494 0.0509041
0.628 0.238285 0.0635233
0.634089 0.24332 0.0758984
0.640085 0.248447 0.0876783
0.646128 0.253605 0.0988479
0.657877 0.257511 0.105821
0.677089 0.259724 0.10782
0.696254 0.261936 0.10985
0.715358 0.264164 0.111894
0 0.274876 0.0229038
0 0.273396 0.0215457
0 0.271519 0.0198672
0 0.268864 0.0175631
0.0370642 0.264729 0.0139925
0.0760815 0.262333 0.0123445
0.113313 0.260349 0.0117952
0.149172 0.258732 0.011841
0.183246 0.257694 0.0111086
0.216297 0.257069 0.00939956
0.249104 0.256565 0.00735485
0.281926 0.255955 0.00614939
0.314549 0.255375 0.00523384
0.346929 0.254841 0.00451667
0.379049 0.254353 0.00396735
0.410925 0.253941 0.00357061
0.442527 0.253574 0.00328069
0.473777 0.253285 0.00328069
0.504173 0.253178 0.00408942
0.533242 0.253361 0.00610361
0.55964 0.254002 0.00976577
0.582513 0.255283 0.015671
0.601221 0.257389 0.0243381
0.615534 0.260426 0.0357824
0.626062 0.264179 0.0488289
0.63447 0.268376 0.0623026
0.641886 0.272908 0.0757
0.648905 0.277607 0.0885328
0.655833 0.282414 0.100694
0.662776 0.287266 0.1122
0.681926 0.289464 0.11429
0.701106 0.291676 0.116335
0.720226 0.293889 0.11841
0 0.308919 0.0214694
0 0.307622 0.0199741
0 0.305867 0.0183261
0 0.303487 0.0161135
0.0284581 0.299367 0.0122835
0.0678569 0.296895 0.0101472
0.104814 0.295094 0.00868238
0.140444 0.293629 0.00753796
0.175174 0.292424 0.00660716
0.209186 0.291417 0.00576791
0.242649 0.290578 0.00494392
0.2757 0.289845 0.00418097
0.308415 0.289204 0.00349432
0.340826 0.28864 0.00288396
0.372961 0.288151 0.00239567
0.404852 0.287709 0.00201419
0.4365 0.287327 0.00173953
0.467765 0.287037 0.00177005
0.498329 0.28687 0.00256352
0.52784 0.286915 0.00451667
0.555062 0.287327 0.0081178
0.579232 0.288243 0.013962
0.599741 0.289845 0.0225223
0.616205 0.292241 0.0340124
0.628901 0.295354 0.0474708
0.639048 0.298955 0.0615702
0.647929 0.302953 0.0758068
0.656138 0.30721 0.0895552
0.664057 0.31162 0.102617
0.671794 0.316152 0.114977
0.686687 0.319234 0.120684
0.705821 0.321462 0.122713
0.724895 0.323674 0.124758
0 0.341924 0.0212253
0 0.341344 0.0190127
0 0.339971 0.0170138
0 0.337789 0.0148165
0.0202335 0.333806 0.0110323
0.0603189 0.331167 0.00859083
0.0975204 0.32929 0.0069276
0.133349 0.327779 0.00564584
0.168215 0.326543 0.00459297
0.20238 0.32549 0.00370794
0.235966 0.32459 0.00292973
0.269108 0.323827 0.00222782
0.301869 0.32314 0.0016022
0.33434 0.32256 0.00105287
0.366522 0.322042 0.000564584
0.398459 0.321584 0.000167849
0.430121 0.321202 0
0.461387 0.320867 0.000106813
0.492058 0.320653 0.00108339
0.521828 0.320607 0.00318914
0.549706 0.320836 0.0069276
0.574823 0.321462 0.0128176
0.596719 0.322667 0.0214237
0.614969 0.324529 0.0330053
0.629679 0.327062 0.0467842
0.641611 0.330068 0.0613718
0.652094 0.333516 0.0763104
0.661692 0.337255 0.0908675
0.670771 0.341238 0.104753
0.679484 0.345388 0.117937
0.691447 0.348989 0.127108
0.710567 0.351202 0.129137
0.729625 0.353429 0.131182
0 0.373251 0.0230411
0 0.373816 0.0195926
0 0.373281 0.0167086
0 0.37174 0.013962
0.0118715 0.368231 0.0100404
0.0528573 0.365347 0.00720226
0.0903639 0.363394 0.00540169
0.126345 0.361852 0.00401312
0.161364 0.360555 0.00289921
0.195651 0.359472 0.00198367
0.229374 0.358526 0.00115969
0.262623 0.357717 0.000442512
0.295476 0.357 0
0.328008 0.35639 0
0.360235 0.355856 0
0.392203 0.355367 0
0.42388 0.35494 0
0.455161 0.354589 0
0.485893 0.354299 0.000198367
0.515862 0.354162 0.00254826
0.544182 0.354253 0.00654612
0.570016 0.354665 0.0127108
0.592981 0.355535 0.021561
0.612665 0.356954 0.0333562
0.629145 0.358968 0.0474556
0.64271 0.361456 0.0623484
0.654749 0.364385 0.0777447
0.665736 0.367666 0.0928359
0.67602 0.371221 0.107332
0.685847 0.374975 0.121096
0.69604 0.378775 0.133379
0.715129 0.381003 0.135409
0.734188 0.383215 0.137453
0 0.401709 0.0286717
0 0.404074 0.0231174
0 0.404944 0.0186007
0 0.404456 0.0146639
0.00477607 0.402106 0.0102846
0.0460822 0.399237 0.00634775
0.0832685 0.397421 0.00404364
0.119219 0.395895 0.00239567
0.154299 0.394598 0.00114443
0.188708 0.393469 0.00015259
0.222522 0.392493 0
0.255848 0.391653 0
0.288777 0.390906 0
0.32137 0.390249 0
0.353674 0.38967 0
0.385687 0.389151 0
0.417441 0.388663 0
0.448798 0.388251 0
0.479652 0.3879 0
0.509773 0.387655 0.00257877
0.538491 0.387594 0.00706493
0.564874 0.387808 0.0137331
0.588647 0.388388 0.0230564
0.609506 0.389441 0.0351873
0.627512 0.391012 0.0495918
0.642618 0.393011 0.064744
0.656199 0.395453 0.080415
0.668605 0.398276 0.0958877
0.680171 0.401389 0.110811
0.691127 0.404761 0.125078
0.701595 0.408347 0.138643
0.719799 0.410697 0.141817
0.738842 0.412924 0.143862
0 0.426337 0.0397803
0 0.430961 0.0315404
0 0.433783 0.024567
0 0.434897 0.0185855
0.00396735 0.433875 0.0127413
0.0430152 0.4318 0.0075227
0.0787366 0.430503 0.0043183
0.113787 0.429297 0.00207523
0.148348 0.428183 0.000427253
0.182483 0.427146 0
0.216205 0.426215 0
0.249531 0.425361 0
0.282506 0.424598 0
0.315175 0.423911 0
0.347539 0.423285 0
0.379614 0.422721 0
0.411353 0.422202 0
0.44271 0.421744 0
0.473548 0.421347 0.000320439
0.5037 0.421027 0.00364691
0.532647 0.420859 0.00880446
0.559457 0.42089 0.0161288
0.583841 0.421225 0.026154
0.605676 0.421958 0.0387579
0.624979 0.423117 0.0534371
0.64152 0.424704 0.0687266
0.656535 0.426719 0.0844892
0.670329 0.429099 0.10013
0.683177 0.431815 0.115282
0.695293 0.434806 0.129854
0.706813 0.438025 0.143771
0.72433 0.440467 0.148089
0.743343 0.442695 0.150149
0 0.44741 0.0559854
0 0.453727 0.0458381
0 0.458656 0.0361944
0 0.46183 0.0274205
0.0128328 0.462287 0.0189212
0.0457618 0.462181 0.0122377
0.0784009 0.461936 0.00758373
0.111437 0.461448 0.00419623
0.144671 0.460807 0.00170901
0.177951 0.46009 0
0.211124 0.459327 0
0.24416 0.458579 0
0.277012 0.457847 0
0.309621 0.45716 0
0.341985 0.456519 0
0.374075 0.455909 0
0.405844 0.45536 0
0.437186 0.454841 0
0.468025 0.454353 0.00242618
0.498207 0.453941 0.00654612
0.527321 0.453635 0.0125887
0.554452 0.453498 0.0208286
0.57937 0.45362 0.0315709
0.601984 0.454063 0.0446174
0.622354 0.454917 0.0594797
0.640192 0.456138 0.0747692
0.656458 0.457771 0.0904097
0.671534 0.459785 0.105989
0.685588 0.462119 0.121172
0.698833 0.464775 0.135836
0.711376 0.467674 0.149935
0.728954 0.470069 0.154498
0.747967 0.472282 0.156527
0 0.466804 0.0748608
0 0.473564 0.0645762
0 0.479515 0.0537423
0.00988785 0.483757 0.0422827
0.0322881 0.486976 0.0319677
0.0577859 0.489281 0.0230106
0.0854963 0.49073 0.0161746
0.114961 0.491493 0.0109102
0.145663 0.491737 0.0069276
0.177157 0.491661 0.00399786
0.209094 0.491356 0.0018616
0.241245 0.490929 0.000411994
0.273457 0.490425 0
0.305623 0.489891 0
0.337667 0.489326 0
0.369528 0.488762 0
0.401129 0.488197 0.00117494
0.432364 0.487648 0.00343328
0.463142 0.487114 0.00691234
0.493263 0.48661 0.0119631
0.522469 0.486183 0.0189975
0.549828 0.485908 0.0282597
0.575174 0.485863 0.0396735
0.598428 0.486091 0.0530404
0.619684 0.486686 0.0679026
0.638682 0.487663 0.0829633
0.656046 0.488991 0.0982528
0.672267 0.490684 0.113542
0.687449 0.492729 0.128542
0.701747 0.495064 0.14313
0.715312 0.497673 0.157244
0.733593 0.499947 0.16083
0.752621 0.502174 0.16289
0.00486763 0.485527 0.0940871
0.0179751 0.4916 0.0841688
0.0308537 0.49778 0.0738689
0.0450752 0.503609 0.0630961
0.0612345 0.508721 0.0523537
0.0805219 0.513039 0.0416571
0.10248 0.516411 0.032517
0.127031 0.518868 0.0248722
0.153765 0.520516 0.0187228
0.182254 0.521508 0.014023
0.211917 0.522026 0.0104829
0.242359 0.522194 0.00798047
0.27332 0.522133 0.00636301
0.304555 0.521904 0.00556954
0.335927 0.521538 0.00556954
0.367285 0.521111 0.00640879
0.398489 0.520607 0.00819409
0.429435 0.520073 0.0111086
0.459953 0.519524 0.0153658
0.489891 0.518975 0.0213931
0.519036 0.518486 0.0294194
0.546517 0.518105 0.0394293
0.572106 0.517952 0.0512398
0.59585 0.518044 0.0646372
0.617823 0.518486 0.078996
0.637751 0.519265 0.0937209
0.656001 0.520378 0.108446
0.673182 0.521843 0.123247
0.689342 0.523629 0.137835
0.70457 0.525704 0.152193
0.719356 0.528054 0.165362
0.738384 0.530266 0.167422
0.757366 0.532494 0.169482
0.0439155 0.504555 0.113329
0.0549935 0.51104 0.10518
0.0668345 0.517372 0.0963302
0.0796674 0.523491 0.0867781
0.0936751 0.529152 0.0767681
0.10988 0.534386 0.0660868
0.128008 0.538964 0.0561685
0.148241 0.542855 0.047013
0.170733 0.545953 0.0390021
0.195315 0.548302 0.0323033
0.221653 0.549981 0.0269627
0.249424 0.551095 0.0229343
0.278233 0.551781 0.0201572
0.307805 0.552117 0.0185702
0.337881 0.552193 0.0181277
0.368215 0.552071 0.0188754
0.398627 0.551797 0.0208438
0.428916 0.5514 0.0242008
0.458915 0.550942 0.029099
0.488396 0.550454 0.0357214
0.517235 0.549996 0.0442359
0.544625 0.549645 0.0545052
0.570291 0.549493 0.0662699
0.594308 0.549584 0.0791028
0.61677 0.54995 0.0928359
0.637446 0.550622 0.106874
0.656397 0.551583 0.12079
0.674403 0.55288 0.134905
0.691417 0.554467 0.148928
0.7075 0.556329 0.162799
0.724269 0.55848 0.172137
0.743297 0.560693 0.174197
0.76228 0.562921 0.176257
0.0627909 0.530632 0.126131
0.0884718 0.531868 0.126879
0.100252 0.538079 0.119387
0.112642 0.544182 0.111131
0.126177 0.550011 0.102251
0.140902 0.555398 0.0927749
0.157153 0.560479 0.0834211
0.17496 0.565072 0.074403
0.194507 0.569085 0.0659495
0.2159 0.572442 0.058381
0.238987 0.575219 0.0518044
0.263722 0.577371 0.0464637
0.289845 0.578988 0.0424811
0.317098 0.580102 0.0398718
0.345205 0.580835 0.0386816
0.373907 0.581247 0.0389105
0.40296 0.581399 0.0406348
0.432105 0.581353 0.0439002
0.461128 0.58117 0.0487984
0.48983 0.580926 0.0554055
0.518029 0.580682 0.0637675
0.545037 0.580514 0.07364
0.570504 0.580499 0.0846113
0.594522 0.580682 0.0966049
0.617166 0.581109 0.109316
0.638285 0.581796 0.122393
0.657664 0.582742 0.135363
0.676219 0.583963 0.148608
0.693828 0.585443 0.16199
0.710613 0.587182 0.175143
0.729229 0.589349 0.178943
0.748241 0.591562 0.181003
0.767208 0.59379 0.183078
0.0690013 0.561791 0.132876
0.0947585 0.562982 0.133822
0.119982 0.564324 0.13492
0.144183 0.566018 0.135637
0.157473 0.571756 0.128145
0.171557 0.577203 0.119905
0.186923 0.582422 0.111711
0.203433 0.587289 0.103639
0.221271 0.59173 0.0958419
0.240543 0.595712 0.0885023
0.26128 0.599176 0.0818799
0.283482 0.602121 0.076173
0.307057 0.604547 0.0715801
0.331899 0.606439 0.0683452
0.357717 0.607935 0.066392
0.384375 0.609018 0.0659342
0.411612 0.609781 0.0670176
0.439155 0.610269 0.0697185
0.466773 0.610574 0.0739147
0.494255 0.610758 0.0797742
0.521462 0.610895 0.0872511
0.547784 0.611048 0.0960861
0.572824 0.611292 0.10602
0.596613 0.611688 0.116823
0.619211 0.612268 0.128344
0.640543 0.613046 0.140307
0.660166 0.614023 0.152239
0.679088 0.615228 0.164523
0.697154 0.616663 0.177005
0.715465 0.618585 0.18407
0.734524 0.620798 0.18613
0.753521 0.623026 0.18819
0.772473 0.625269 0.190265
0.0754101 0.59324 0.139849
0.100999 0.594476 0.140841
0.126085 0.59585 0.141985
0.150851 0.597314 0.143221
0.175463 0.598795 0.144488
0.199924 0.600198 0.145708
0.215808 0.605051 0.139559
0.231495 0.61004 0.13254
0.24828 0.614694 0.125734
0.266209 0.618982 0.119203
0.285359 0.622858 0.113161
0.305745 0.626291 0.107759
0.327337 0.629297 0.103227
0.350088 0.631846 0.099733
0.373846 0.633982 0.0974289
0.398459 0.635721 0.096437
0.423728 0.63711 0.096849
0.44947 0.638224 0.0987411
0.475456 0.639094 0.102113
0.501503 0.639811 0.106981
0.527474 0.640421 0.113313
0.552865 0.641001 0.120943
0.577188 0.641596 0.129595
0.600504 0.642267 0.139116
0.622843 0.643061 0.149355
0.644144 0.643992 0.160143
0.663813 0.64506 0.171069
0.682902 0.646311 0.182269
0.701701 0.648096 0.189227
0.72079 0.650309 0.191272
0.739818 0.652522 0.193332
0.758801 0.654749 0.195407
0.777752 0.656977 0.197482
0.0817121 0.624659 0.146807
0.107134 0.625925 0.14786
0.132097 0.627329 0.149035
0.156756 0.628809 0.150286
0.181277 0.63032 0.151583
0.205646 0.631739 0.152834
0.229892 0.633326 0.154269
0.253681 0.635035 0.155795
0.274479 0.637919 0.154574
0.291524 0.642374 0.148959
0.309468 0.646525 0.143572
0.328511 0.650309 0.138766
0.348577 0.653712 0.134615
0.369619 0.656748 0.131289
0.391623 0.659388 0.128923
0.41445 0.661692 0.127672
0.437964 0.663645 0.127611
0.462028 0.665324 0.128847
0.486442 0.666743 0.131395
0.511055 0.667979 0.135286
0.535729 0.669078 0.140505
0.560113 0.670085 0.146944
0.583642 0.671061 0.154376
0.606332 0.672038 0.162661
0.628229 0.673091 0.171695
0.649317 0.67422 0.181384
0.668894 0.675441 0.191135
0.68809 0.67747 0.194629
0.70721 0.679652 0.196658
0.726284 0.681849 0.198703
0.745296 0.684062 0.200778
0.764279 0.68629 0.202853
0.7832 0.688533 0.204944
0.0882429 0.655924 0.154025
0.113512 0.657252 0.155108
0.138338 0.658671 0.156313
0.162905 0.660182 0.157595
0.18732 0.661723 0.158907
0.211566 0.663172 0.160143
0.235782 0.664759 0.161517
0.25951 0.666499 0.163012
0.282933 0.668315 0.164614
0.306127 0.670192 0.166293
0.329107 0.672129 0.168032
0.35111 0.674449 0.16878
0.36997 0.678157 0.165133
0.389715 0.681529 0.162158
0.410224 0.684611 0.159838
0.431556 0.687358 0.158511
0.453544 0.689799 0.158175
0.476097 0.691951 0.158938
0.499062 0.693874 0.160845
0.522316 0.695583 0.163943
0.545739 0.697139 0.168215
0.56907 0.698573 0.173632
0.591745 0.699916 0.180041
0.613748 0.701244 0.187182
0.635096 0.702571 0.195087
0.655299 0.704662 0.198047
0.674495 0.706813 0.200076
0.693645 0.70898 0.202121
0.712779 0.711147 0.204181
0.731853 0.713344 0.206271
0.750866 0.715557 0.208347
0.769833 0.717784 0.210422
0.788754 0.720012 0.212528
0.0948196 0.687175 0.161288
0.119951 0.688518 0.162417
0.144701 0.689967 0.163638
0.169177 0.691493 0.164935
0.1935 0.693049 0.166278
0.217578 0.69453 0.167575
0.24184 0.696117 0.168978
0.265522 0.697841 0.17052
0.288914 0.699672 0.172152
0.312062 0.701549 0.173846
0.334997 0.703487 0.175586
0.357778 0.70547 0.177386
0.380392 0.7075 0.179232
0.402869 0.70956 0.181109
0.425238 0.711666 0.183032
0.447471 0.713787 0.185
0.469596 0.715953 0.186984
0.491371 0.718257 0.188479
0.513054 0.720592 0.189944
0.535073 0.722728 0.192432
0.557107 0.724849 0.195224
0.578759 0.727123 0.197345
0.599878 0.729381 0.199451
0.620554 0.731624 0.201526
0.640879 0.733852 0.203601
0.66096 0.73608 0.205692
0.680171 0.738247 0.207706
0.69929 0.740429 0.209735
0.718379 0.742611 0.21178
0.737423 0.744808 0.21384
0.75642 0.747036 0.215915
0.775372 0.749249 0.218006
0.794278 0.751492 0.220096
0.101457 0.718364 0.168597
0.126421 0.719753 0.169772
0.151034 0.721233 0.171038
0.175402 0.722774 0.172396
0.199634 0.724361 0.17377
0.223545 0.725887 0.175128
0.247852 0.727443 0.176516
0.271504 0.729183 0.178058
0.294865 0.730999 0.179706
0.317983 0.732891 0.181399
0.340887 0.734844 0.183169
0.363638 0.736828 0.18497
0.386221 0.738857 0.186831
0.408682 0.740932 0.188708
0.431006 0.743023 0.190646
0.453223 0.745159 0.192615
0.475319 0.747326 0.194598
0.497322 0.749508 0.196643
0.519234 0.751705 0.198718
0.541054 0.753933 0.200824
0.562814 0.756191 0.202945
0.584497 0.758465 0.205097
0.605661 0.760723 0.207233
0.626337 0.762966 0.209339
0.646662 0.765194 0.211414
0.666743 0.767422 0.213504
0.686015 0.769589 0.215534
0.705104 0.771771 0.217563
0.724178 0.773953 0.219623
0.743206 0.77615 0.221683
0.762188 0.778363 0.223758
0.781125 0.780591 0.225864
0.800015 0.782834 0.227955
0.108278 0.749432 0.176242
0.13312 0.750851 0.177462
0.157626 0.752361 0.178759
0.181903 0.753933 0.180133
0.206043 0.755535 0.181537
0.229831 0.757092 0.182925
0.254124 0.758633 0.184314
0.277745 0.760388 0.185885
0.301076 0.762203 0.187533
0.324147 0.764111 0.189242
0.347036 0.766049 0.191012
0.369741 0.768048 0.192828
0.392309 0.770077 0.19469
0.41474 0.772152 0.196597
0.437034 0.774258 0.19852
0.45922 0.776394 0.200504
0.4813 0.778561 0.202502
0.503273 0.780758 0.204532
0.525124 0.782971 0.206592
0.546914 0.785214 0.208682
0.568627 0.787472 0.210788
0.590295 0.789761 0.21294
0.611429 0.79202 0.215045
0.63212 0.794278 0.217151
0.652461 0.796506 0.219257
0.672526 0.798749 0.221347
0.691859 0.800916 0.223392
0.710903 0.803098 0.225422
0.729976 0.80528 0.227481
0.748989 0.807477 0.229557
0.767956 0.809705 0.231601
0.786892 0.811933 0.233677
0.805768 0.814176 0.235752
0.115084 0.780484 0.183932
0.139803 0.781933 0.185183
0.164202 0.783475 0.186511
0.188388 0.785061 0.187915
0.212436 0.786679 0.189349
0.236118 0.788266 0.190768
0.260395 0.789822 0.192157
