LUTs/Artistic/LUTs/magenta_77.A014_10172114_C081.cube
TITLE "Generated by Resolve"
LUT_3D_SIZE 9
0 0 0
0.0610208 0 0.00733959
0.220249 0 0.0100862
0.35761 0 0.00830091
0.467857 0 0.00926223
0.496986 0 0.0220493
0.514504 0.0110475 0.0392157
0.593072 0.0196841 0.0470741
0.670634 0.0285496 0.0551919
0 0.0985885 0.0304265
0.0821851 0.0891432 0.0340124
0.198932 0.0917678 0.0250401
0.342748 0.0868238 0.0108644
0.469886 0.0853895 0.00981155
0.559274 0.093431 0.0220951
0.577844 0.118135 0.0554055
0.617884 0.136584 0.0772412
0.694942 0.145449 0.0852827
0 0.240772 0.0242618
0.0493477 0.228687 0.0183719
0.190982 0.222766 0.0184176
0.320516 0.221561 0.00691234
0.448676 0.21976 0.00491341
0.563516 0.220798 0.0118715
0.621241 0.233494 0.0509041
0.646128 0.253605 0.0988479
0.715358 0.264164 0.111894
0 0.373251 0.0230411
0.0118715 0.368231 0.0100404
0.161364 0.360555 0.00289921
0.295476 0.357 0
0.42388 0.35494 0
0.544182 0.354253 0.00654612
0.629145 0.358968 0.0474556
0.67602 0.371221 0.107332
0.734188 0.383215 0.137453
0 0.466804 0.0748608
0.0322881 0.486976 0.0319677
0.145663 0.491737 0.0069276
0.273457 0.490425 0
0.401129 0.488197 0.00117494
0.522469 0.486183 0.0189975
0.619684 0.486686 0.0679026
0.687449 0.492729 0.128542
0.752621 0.502174 0.16289
0.0690013 0.561791 0.132876
0.157473 0.571756 0.128145
0.221271 0.59173 0.0958419
0.307057 0.604547 0.0715801
0.411612 0.609781 0.0670176
0.521462 0.610895 0.0872511
0.619211 0.612268 0.128344
0.697154 0.616663 0.177005
0.772473 0.625269 0.190265
0.0948196 0.687175 0.161288
0.1935 0.693049 0.166278
0.288914 0.699672 0.172152
0.380392 0.7075 0.179232
0.469596 0.715953 0.186984
0.557107 0.724849 0.195224
0.640879 0.733852 0.203601
0.718379 0.742611 0.21178
0.794278 0.751492 0.220096
0.122164 0.811399 0.191913
0.21912 0.817685 0.197436
0.313771 0.82443 0.20354
0.404761 0.832349 0.210788
0.493538 0.840848 0.218662
0.580697 0.849775 0.227008
0.66453 0.858854 0.235477
0.742046 0.867643 0.243687
0.817792 0.876493 0.252155
0.151629 0.934325 0.225422
0.247105 0.940948 0.231388
0.341039 0.947814 0.237766
0.431617 0.955795 0.245106
0.519982 0.964355 0.253101
0.606775 0.973327 0.26157
0.690425 0.982437 0.270207
0.767803 0.991257 0.278599
0.843275 1 0.287098
0 0 0.102434
0.0775616 0 0.116182
0.221729 0 0.124498
0.357519 0 0.125338
0.477928 0 0.123247
0.533944 0 0.117159
0.538582 0.00917067 0.117815
0.59649 0.0239261 0.125475
0.673976 0.0327459 0.134035
0 0.0973831 0.125078
0.0923171 0.0921492 0.106096
0.1906 0.0979019 0.119661
0.332097 0.0914015 0.12697
0.47042 0.0866102 0.126177
0.585412 0.0882429 0.126818
0.630182 0.107546 0.136767
0.634501 0.136934 0.155047
0.698085 0.149523 0.165499
0 0.240711 0.140826
0.0592813 0.227298 0.133013
0.205249 0.219165 0.141924
0.31075 0.22417 0.139162
0.447471 0.221408 0.121553
0.57261 0.220264 0.119875
0.670375 0.224277 0.12755
0.702327 0.243961 0.159258
0.718349 0.268116 0.193301
0 0.375555 0.135882
0.0117494 0.36968 0.125521
0.162997 0.36141 0.118929
0.29958 0.356298 0.123873
0.423865 0.356344 0.113787
0.548806 0.355322 0.111574
0.66125 0.355642 0.115587
0.733303 0.363378 0.146731
0.762387 0.381552 0.20058
0 0.477012 0.162341
0.0016022 0.499443 0.128557
0.134844 0.497581 0.110521
0.26949 0.493919 0.105989
0.398779 0.4916 0.103899
0.524239 0.490303 0.102846
0.639689 0.489738 0.109224
0.729473 0.492088 0.142016
0.784222 0.501656 0.205219
0.0729229 0.565591 0.214984
0.12549 0.587884 0.193683
0.172412 0.614023 0.14995
0.262608 0.626245 0.118547
0.380453 0.628229 0.10724
0.503731 0.627329 0.10837
0.61976 0.625757 0.125109
0.715969 0.625284 0.16817
0.789837 0.629282 0.230655
0.0983902 0.690959 0.244236
0.196735 0.69688 0.249638
0.291997 0.703502 0.255772
0.351308 0.724453 0.227817
0.427741 0.740139 0.20177
0.523796 0.748272 0.192706
0.62594 0.751141 0.207691
0.718044 0.752834 0.242542
0.798276 0.756466 0.289433
0.125597 0.815091 0.27599
0.222263 0.821424 0.281758
0.316732 0.828199 0.28806
0.407614 0.836118 0.295399
0.496315 0.844648 0.30338
0.583398 0.853574 0.31191
0.66714 0.862623 0.320607
0.744579 0.871382 0.329076
0.820233 0.880262 0.337652
0.154879 0.937957 0.310262
0.250126 0.944625 0.316426
0.343832 0.951553 0.322942
0.434302 0.959518 0.330556
0.522637 0.968063 0.338781
0.609354 0.977035 0.347402
0.692943 0.98613 0.356191
0.770245 0.994934 0.364752
0.845594 1 0.373281
0 0 0.222812
0.0843671 0 0.260044
0.224552 0 0.257023
0.356344 0 0.255467
0.476097 0 0.250629
0.544488 0 0.231189
0.557626 0.00723278 0.211032
0.599359 0.0276493 0.209979
0.676783 0.0364385 0.218799
0 0.0979171 0.214679
0.0837415 0.0965591 0.217853
0.204608 0.0942855 0.244144
0.335088 0.0910201 0.251621
0.469123 0.0869306 0.256184
0.589944 0.0869612 0.255253
0.662364 0.0996109 0.250034
0.670283 0.13019 0.245914
0.700755 0.153124 0.251164
0 0.231189 0.252247
0.0786145 0.223575 0.242695
0.215625 0.220539 0.227558
0.305776 0.228733 0.237995
0.430793 0.22649 0.248951
0.571221 0.220539 0.24976
0.684062 0.220859 0.249775
0.753368 0.232105 0.255695
0.761563 0.260273 0.273075
0 0.369757 0.261189
0.016907 0.368109 0.254688
0.16846 0.359701 0.248447
0.315129 0.35111 0.258167
0.4177 0.356023 0.263142
0.542641 0.356542 0.245609
0.66392 0.355154 0.240742
0.766857 0.356603 0.243824
0.822919 0.369833 0.267857
0 0.475959 0.268574
0 0.501335 0.252018
0.133242 0.498039 0.239307
0.269261 0.493858 0.235828
0.402167 0.489693 0.241276
0.523125 0.490288 0.234577
0.640803 0.490043 0.231312
0.748898 0.490196 0.232441
0.837324 0.49427 0.251911
0.0767987 0.568841 0.301701
0.109224 0.596658 0.284764
0.142367 0.626108 0.248432
0.246006 0.633082 0.229236
0.373037 0.631662 0.224445
0.499107 0.630182 0.223087
0.618006 0.629526 0.222553
0.727108 0.629267 0.226184
0.824872 0.630304 0.248325
0.101884 0.694209 0.331716
0.199725 0.700267 0.337285
0.266728 0.716915 0.327169
0.305241 0.745327 0.286473
0.378271 0.76321 0.248829
0.486336 0.768505 0.232639
0.601907 0.769055 0.231342
0.710155 0.768307 0.243
0.809735 0.767483 0.277531
0.128832 0.818326 0.364172
0.225177 0.824735 0.370153
0.319448 0.831556 0.376593
0.410178 0.83949 0.384146
0.474678 0.857847 0.365957
0.544045 0.875761 0.338048
0.631067 0.886107 0.324331
0.723568 0.890486 0.332097
0.815167 0.892561 0.36083
0.157916 0.941161 0.399237
0.252903 0.947906 0.405463
0.346426 0.954864 0.412116
0.436713 0.962875 0.419791
0.524941 0.971435 0.428138
0.611627 0.980301 0.436912
0.695033 0.988998 0.445716
0.772229 0.997818 0.454215
0.847715 1 0.463142
0 0 0.319524
0.0815595 0 0.38761
0.221393 0 0.390127
0.350164 0 0.386053
0.46099 0 0.371572
0.526741 0 0.337499
0.554665 0.0116579 0.305409
0.601892 0.0310674 0.2981
0.679271 0.0398413 0.307103
0 0.0997177 0.303304
0.0812695 0.0982834 0.337987
0.20795 0.0911116 0.394858
0.339986 0.0882277 0.39379
0.467491 0.0866102 0.393011
0.586923 0.0872206 0.390234
0.666575 0.0986496 0.375662
0.686931 0.127642 0.351156
0.703151 0.156451 0.339971
0 0.222553 0.333944
0.0971847 0.22182 0.334951
0.207614 0.224903 0.336828
0.315358 0.22533 0.372061
0.43653 0.224887 0.376516
0.569177 0.220356 0.385931
0.684169 0.219974 0.386191
0.773739 0.226123 0.383185
0.799298 0.251575 0.376852
0 0.350545 0.360388
0.0607462 0.356359 0.370855
0.192996 0.353445 0.366934
0.325277 0.351217 0.355886
0.417502 0.359136 0.361471
0.525597 0.361547 0.374121
0.661189 0.355062 0.377218
0.770611 0.354894 0.377295
0.861189 0.360082 0.380087
0.0195315 0.460365 0.367575
0.0316014 0.491264 0.378698
0.138354 0.49575 0.375341
0.269413 0.493034 0.371847
0.416648 0.484367 0.379599
0.523247 0.487312 0.391409
0.630594 0.491173 0.377798
0.747784 0.489769 0.367712
0.854551 0.490318 0.368505
0.0833448 0.570993 0.391135
0.121798 0.595376 0.390219
0.138796 0.627512 0.374197
0.242481 0.633585 0.363516
0.371893 0.631235 0.360891
0.500969 0.628382 0.364294
0.617075 0.628473 0.364202
0.725917 0.629206 0.359014
0.833722 0.629511 0.358984
0.105745 0.697047 0.421927
0.202976 0.703258 0.427741
0.254627 0.7243 0.419028
0.274846 0.757488 0.384527
0.356191 0.771603 0.359518
0.4757 0.772549 0.352636
0.595514 0.771771 0.351736
0.705913 0.771588 0.351659
0.813565 0.77174 0.353323
0.132189 0.821225 0.454994
0.228138 0.827741 0.461051
0.322148 0.834607 0.467628
0.399466 0.847303 0.467521
0.432685 0.876936 0.429648
0.493217 0.898833 0.388312
0.589502 0.907164 0.367437
0.694194 0.909148 0.363073
0.800107 0.909224 0.369848
0.160861 0.943603 0.49041
0.255543 0.950393 0.49691
0.348852 0.957397 0.5037
0.438956 0.965438 0.511498
0.527001 0.97406 0.519875
0.593454 0.991196 0.507256
0.655283 1 0.477684
0.731136 1 0.45948
0.819257 1 0.459846
0 0 0.325292
0.0727703 0 0.422904
0.200763 0 0.461173
0.319738 0 0.465705
0.418021 0 0.446448
0.487465 9.15541e-05 0.413947
0.532723 0.0231632 0.384894
0.604181 0.034287 0.388373
0.681529 0.0430304 0.397498
0 0.099794 0.335088
0.0860761 0.100786 0.42855
0.204837 0.0925612 0.51841
0.336416 0.0885481 0.52961
0.461753 0.0876631 0.527611
0.573205 0.0914626 0.516548
0.645533 0.106462 0.488197
0.677745 0.133104 0.452018
0.705272 0.159564 0.43093
0.0385443 0.212802 0.370764
0.109453 0.222599 0.419989
0.205402 0.226871 0.452125
0.315404 0.223148 0.521263
0.443244 0.2206 0.526833
0.56733 0.219547 0.526741
0.681224 0.219562 0.526101
0.772885 0.225635 0.517708
0.812299 0.248737 0.494209
0.0684977 0.327794 0.406424
0.115328 0.345144 0.450111
0.214862 0.350362 0.461463
0.320897 0.354681 0.462394
0.419516 0.357702 0.497139
0.534661 0.358663 0.503365
0.658793 0.354513 0.516701
0.768521 0.354131 0.517876
0.86978 0.356512 0.517113
0.101472 0.441886 0.438819
0.117708 0.469093 0.473838
0.180423 0.484062 0.49543
0.299748 0.484443 0.495552
0.426902 0.483253 0.488334
0.528496 0.489509 0.482246
0.615961 0.495918 0.500984
0.737301 0.491569 0.507698
0.8533 0.489387 0.508278
0.103593 0.569131 0.479194
0.17232 0.583444 0.488991
0.173724 0.617212 0.502159
0.249104 0.630472 0.503182
0.371618 0.630106 0.500999
0.512642 0.623514 0.506188
0.62533 0.623011 0.521721
0.71548 0.629297 0.516228
0.830533 0.629114 0.500038
0.11574 0.697841 0.51339
0.209125 0.705135 0.519677
0.267552 0.723033 0.522194
0.273289 0.758343 0.508721
0.350973 0.77229 0.495781
0.473915 0.771801 0.492973
0.594766 0.770565 0.493507
0.705989 0.769589 0.498604
0.811566 0.771084 0.492958
0.136416 0.823636 0.547143
0.23154 0.83035 0.553536
0.325063 0.837339 0.560311
0.39115 0.853407 0.559655
0.405768 0.887892 0.528267
0.467597 0.908248 0.498116
0.576242 0.911696 0.488991
0.686549 0.911665 0.488075
0.794522 0.911803 0.488304
0.164248 0.946181 0.582971
0.258488 0.953079 0.589639
0.351492 0.960159 0.596567
0.441367 0.968261 0.604486
0.526299 0.977951 0.611292
0.555688 1 0.576104
0.605417 1 0.533806
0.687449 1 0.509804
0.787015 1 0.502281
0 0 0.3682
0.0691997 0 0.415473
0.173922 0 0.450263
0.276478 0 0.470848
0.369268 0.00633249 0.47216
0.446403 0.0203708 0.460716
0.527916 0.0287785 0.469841
0.60621 0.0372778 0.478798
0.683528 0.0460059 0.48806
0.0279393 0.101961 0.359579
0.104387 0.107927 0.432059
0.200076 0.104631 0.540444
0.317433 0.100664 0.59205
0.433295 0.101167 0.603784
0.53254 0.108843 0.58996
0.602167 0.124697 0.56083
0.649668 0.146227 0.530159
0.707179 0.162493 0.521798
0.0806134 0.210681 0.395438
0.14403 0.222721 0.444495
0.21239 0.229419 0.532464
0.313344 0.224704 0.637369
0.439734 0.220554 0.662654
0.562554 0.219806 0.663081
0.670741 0.22208 0.656748
0.753765 0.231907 0.636667
0.797299 0.255085 0.600198
0.116991 0.322026 0.447608
0.175235 0.336751 0.483818
0.23267 0.349935 0.539101
0.320195 0.35668 0.569772
0.41796 0.356588 0.637354
0.541375 0.353628 0.657938
0.657588 0.353109 0.658457
0.766125 0.35314 0.659007
0.866789 0.355962 0.655512
0.132067 0.438865 0.504982
0.204105 0.451316 0.522545
0.241154 0.47129 0.569635
0.325185 0.480079 0.589685
0.428565 0.485039 0.591104
0.523308 0.490684 0.61062
0.627375 0.492012 0.630884
0.736919 0.490578 0.643046
0.850813 0.488457 0.649271
0.132418 0.565408 0.558083
0.223438 0.573297 0.565957
0.254566 0.596658 0.594629
0.293965 0.617792 0.622965
0.401724 0.621134 0.627161
0.523095 0.621195 0.624186
0.635019 0.623423 0.615137
0.707118 0.633082 0.628779
0.812451 0.633051 0.639185
0.136706 0.695521 0.600839
0.227512 0.703456 0.608438
0.3122 0.712947 0.616861
0.312383 0.747066 0.631083
0.359884 0.768231 0.635019
0.473808 0.77023 0.633875
0.601999 0.766613 0.636316
0.719326 0.762829 0.651118
0.806531 0.768627 0.656504
0.149981 0.823117 0.638224
0.24123 0.8309 0.645365
0.331228 0.838895 0.652537
0.405035 0.851957 0.658824
0.407584 0.887846 0.648478
0.461601 0.90898 0.633204
0.573709 0.910872 0.629252
0.684977 0.91043 0.629496
0.795071 0.909392 0.634958
0.170672 0.947601 0.675319
0.262425 0.95523 0.682139
0.35462 0.962539 0.689128
0.444053 0.970748 0.697154
0.521645 0.982773 0.702373
0.533852 1 0.675074
0.578912 1 0.642634
0.672404 1 0.631174
0.778897 1 0.62977
0 0 0.449882
0.0720684 0 0.499657
0.172885 0 0.523339
0.267948 0.00674449 0.532937
0.359808 0.0147707 0.542473
0.448356 0.0232548 0.552117
0.529793 0.0316167 0.561425
0.608042 0.0401007 0.570581
0.685328 0.0488136 0.579934
0.0305486 0.106233 0.435798
0.11194 0.112917 0.486793
0.200229 0.117144 0.542885
0.295354 0.121508 0.577203
0.393011 0.125948 0.602899
0.483787 0.134096 0.608896
0.557153 0.146731 0.600168
0.631937 0.156573 0.604669
0.708888 0.165255 0.613993
0.0855421 0.215152 0.462318
0.163455 0.226108 0.479667
0.232471 0.235676 0.537728
0.313954 0.235782 0.651713
0.423774 0.23209 0.720485
0.537346 0.232074 0.740337
0.634714 0.237522 0.734203
0.709209 0.250278 0.710002
0.76231 0.270161 0.678126
0.126696 0.325353 0.511299
0.207111 0.336324 0.519982
0.270527 0.349386 0.558968
0.331075 0.359121 0.638437
0.417426 0.358053 0.748669
0.53785 0.353307 0.795209
0.653452 0.352712 0.798138
0.758755 0.354025 0.795438
0.85156 0.360082 0.782879
0.153628 0.438819 0.567422
0.238544 0.448585 0.573846
0.302281 0.462638 0.601358
0.351034 0.478065 0.658656
0.430335 0.486732 0.693507
0.520439 0.490211 0.74757
0.631998 0.486931 0.790982
0.74078 0.486854 0.79202
0.848386 0.487129 0.792905
0.163394 0.561898 0.627604
0.252644 0.570382 0.634714
0.333913 0.580728 0.645426
0.365209 0.60238 0.692042
0.433158 0.614908 0.721645
0.534051 0.620417 0.724636
0.626596 0.626886 0.730129
0.715862 0.62945 0.763424
0.81622 0.631235 0.770428
0.164813 0.691722 0.681346
0.254276 0.699962 0.689677
0.342229 0.708461 0.698344
0.388647 0.728008 0.721065
0.410956 0.753674 0.753796
0.503304 0.760967 0.763363
0.615244 0.762341 0.764035
0.728557 0.762005 0.756542
0.806409 0.770581 0.761975
0.171725 0.820417 0.726101
0.26099 0.828672 0.734386
0.349096 0.837079 0.742885
0.434195 0.846494 0.752148
0.449577 0.876051 0.766461
0.475105 0.90338 0.773175
0.574548 0.908629 0.772915
0.684321 0.908629 0.773007
0.808133 0.902907 0.784649
0.187015 0.946075 0.767224
0.27628 0.954345 0.774929
0.364767 0.962676 0.78262
0.450813 0.971847 0.791089
0.535363 0.98143 0.799863
0.53959 1 0.793637
0.573388 1 0.77847
0.668681 1 0.773434
0.776745 1 0.773739
0 0 0.533059
0.0749828 0 0.58497
0.175006 0.00248722 0.614435
0.269978 0.00952163 0.625422
0.361715 0.0175326 0.635218
0.450172 0.0259861 0.645045
0.531533 0.0343481 0.65449
0.609735 0.0428016 0.66389
0.686976 0.0514839 0.673411
0.032929 0.110231 0.51519
0.114809 0.11632 0.570291
0.202655 0.12047 0.628077
0.295613 0.125826 0.65893
0.386465 0.133791 0.669734
0.474525 0.142321 0.679576
0.555779 0.150759 0.688945
0.633509 0.159243 0.698177
0.710414 0.16791 0.707607
0.0893111 0.219623 0.532311
0.165469 0.230411 0.556222
0.238148 0.239963 0.603708
0.317693 0.246036 0.664897
0.407172 0.251514 0.702861
0.501259 0.256062 0.734493
0.587411 0.262989 0.746075
0.66128 0.273869 0.741955
0.730297 0.286168 0.738003
0.133211 0.329335 0.577676
0.211734 0.340688 0.588052
0.286213 0.352819 0.603952
0.353368 0.364523 0.64509
0.423728 0.36788 0.758144
0.52517 0.364477 0.846525
0.631647 0.363943 0.875105
0.727977 0.367391 0.877455
0.809644 0.377264 0.859739
0.167208 0.44097 0.63122
0.248402 0.451713 0.638804
0.326467 0.463386 0.647974
0.391516 0.476936 0.67631
0.446967 0.488838 0.748608
0.521477 0.491554 0.855283
0.628428 0.486702 0.927306
0.736934 0.486076 0.934508
0.842893 0.486915 0.934417
0.18851 0.560601 0.692241
0.274281 0.570153 0.699001
0.357321 0.580346 0.705959
0.426795 0.593606 0.723857
0.469703 0.610788 0.780545
0.539147 0.621592 0.822828
0.622766 0.627756 0.857023
0.716014 0.625788 0.922866
0.823529 0.625559 0.928878
0.195682 0.687877 0.753964
0.28397 0.696498 0.761791
0.370886 0.705409 0.769558
0.454475 0.715389 0.777981
0.490745 0.736156 0.818296
0.542535 0.752468 0.857053
0.635584 0.758785 0.864027
0.724163 0.764752 0.866438
0.805859 0.769985 0.893309
0.199603 0.81648 0.808118
0.287739 0.82501 0.816907
0.374975 0.833631 0.825864
0.459403 0.843168 0.835752
0.521096 0.858686 0.853178
0.535363 0.886427 0.888319
0.606302 0.898466 0.904219
0.707622 0.900771 0.906233
0.816587 0.90103 0.902312
0.209705 0.942992 0.855695
0.297475 0.951598 0.864439
0.384512 0.960235 0.873243
0.468925 0.969772 0.882856
0.551537 0.979797 0.892882
0.584222 1 0.907393
0.594629 1 0.918166
0.672221 1 0.919768
0.775464 1 0.920012
0 0.00233463 0.617853
0.0777295 0.00190738 0.671366
0.176822 0.00544747 0.70518
0.271809 0.0121004 0.719387
0.363439 0.0200961 0.729503
0.451789 0.0285344 0.739544
0.533089 0.0368658 0.749157
0.611231 0.045304 0.758694
0.688441 0.0539712 0.768353
0.0351873 0.113924 0.596979
0.11754 0.119539 0.655161
0.20499 0.123644 0.714412
0.297139 0.128725 0.750072
0.388083 0.136324 0.764035
0.476066 0.144839 0.774197
0.557244 0.153246 0.78378
0.634928 0.161715 0.793179
0.711742 0.170397 0.802701
0.0920119 0.223941 0.606058
0.167163 0.234394 0.636103
0.24036 0.243244 0.688823
0.319997 0.249165 0.751125
0.408118 0.254917 0.790188
0.496178 0.26302 0.804425
0.577676 0.271489 0.814298
0.655024 0.279942 0.823743
0.731579 0.288624 0.83328
0.138201 0.333455 0.646311
0.215366 0.344991 0.658671
0.288121 0.357031 0.6804
0.356634 0.368277 0.722026
0.429862 0.375921 0.784878
0.514382 0.382071 0.828717
0.601129 0.386679 0.863996
0.683803 0.392584 0.881849
0.760464 0.401953 0.883619
0.17612 0.444175 0.697368
0.254826 0.455512 0.70634
0.331044 0.467567 0.717144
0.402747 0.480522 0.731929
0.469917 0.493385 0.760739
0.532937 0.500008 0.862501
0.620127 0.497978 0.964019
0.718364 0.496742 1
0.816358 0.498741 1
0.205753 0.561547 0.756848
0.288136 0.572061 0.76405
0.367666 0.583185 0.771954
0.442786 0.595605 0.78172
0.511666 0.60914 0.798779
0.563027 0.622873 0.864637
0.625574 0.629358 0.956619
0.713115 0.626261 1
0.81976 0.624491 1
0.222827 0.685588 0.82118
0.308782 0.694987 0.828321
0.392859 0.704784 0.835492
0.473106 0.715801 0.843503
0.549996 0.727749 0.852247
0.590143 0.745998 0.905806
0.646464 0.758816 0.955474
0.722622 0.766186 0.980285
0.803204 0.768215 1
0.230106 0.812406 0.883009
0.317388 0.821225 0.891356
0.403815 0.830152 0.899611
0.487434 0.840024 0.908568
0.569009 0.850492 0.917739
0.617395 0.868559 0.948638
0.655024 0.88751 0.993255
0.732555 0.895598 1
0.820523 0.901473 1
0.237568 0.938872 0.938598
0.324498 0.947662 0.947738
0.410864 0.956466 0.956924
0.494728 0.96611 0.966918
0.576761 0.976272 0.977386
0.652125 0.988159 0.990097
0.664775 1 1
0.710445 1 1
0.803616 1 1
