LUTs/Artistic/LUT_RED/Blade_Runner_.cube
LUT_3D_SIZE 6
0.089935 0.058655 0.031281
0.329417 0.000000 0.000000
0.638173 0.000000 0.000000
0.857907 0.000000 0.000000
0.993164 0.000000 0.000000
0.993164 0.000000 0.000000
0.086993 0.230270 0.036168
0.303225 0.176655 0.000000
0.627537 0.107524 0.000000
0.849953 0.021456 0.000000
0.993164 0.000000 0.000000
0.993164 0.000000 0.000000
0.089841 0.418738 0.048411
0.236565 0.401417 0.000199
0.607474 0.380292 0.000000
0.834914 0.350117 0.000000
0.993497 0.300332 0.000000
0.993164 0.300115 0.000000
0.087746 0.614531 0.069616
0.062106 0.630279 0.008644
0.554249 0.618820 0.000000
0.802449 0.602499 0.000000
0.996877 0.581209 0.000297
0.996990 0.577924 0.000000
0.086218 0.815897 0.100387
0.000000 0.858477 0.045790
0.449008 0.849299 0.000000
0.744458 0.843022 0.000000
0.989734 0.824243 0.000625
0.995138 0.822827 0.000000
0.086048 0.930603 0.117310
0.000016 0.993486 0.076798
0.290070 0.993160 0.000558
0.675633 0.989201 0.000000
0.947712 0.993079 0.000008
0.973660 0.993048 0.000000
0.011564 0.002743 0.099162
0.338229 0.000004 0.072291
0.652266 0.000144 0.000083
0.869611 0.000000 0.001448
0.993164 0.000000 0.000000
0.984379 0.013659 0.006825
0.002275 0.192251 0.097889
0.327989 0.171872 0.068255
0.645086 0.096502 0.001658
0.866703 0.017155 0.001406
0.993164 0.000000 0.000000
0.984379 0.013659 0.006825
0.000000 0.409247 0.101050
0.262904 0.402104 0.075794
0.617668 0.375888 0.001465
0.844988 0.346457 0.000000
0.993305 0.305354 0.000798
0.984379 0.299729 0.006826
0.000060 0.638551 0.113123
0.082512 0.630459 0.089651
0.567497 0.616944 0.001993
0.817064 0.603694 0.000047
0.997933 0.580856 0.000000
0.990246 0.575857 0.007633
0.000084 0.857917 0.130755
0.001014 0.852921 0.108131
0.475081 0.848820 0.025346
0.760818 0.837268 0.000000
0.987042 0.822672 0.000003
0.987975 0.812186 0.006825
0.000002 1.000000 0.146442
0.002139 0.999727 0.129032
0.322898 0.993414 0.058540
0.696491 0.990627 0.000000
0.948646 0.992245 0.000000
0.964875 0.977439 0.006825
0.030356 0.001396 0.194491
0.339804 0.000000 0.178846
0.645891 0.000000 0.131948
0.865772 0.000000 0.060108
0.993486 0.000000 0.002573
0.993164 0.000000 0.003345
0.002301 0.186945 0.193231
0.328307 0.167760 0.177920
0.640834 0.087227 0.132189
0.864323 0.013236 0.059128
0.994951 0.000000 0.006831
0.993164 0.000000 0.002923
0.002216 0.404887 0.192682
0.272610 0.394990 0.180811
0.619456 0.373668 0.142332
0.849847 0.345019 0.061905
0.994083 0.297952 0.006266
0.993168 0.293769 0.001701
0.003359 0.634328 0.202884
0.077182 0.631400 0.190348
0.567822 0.620176 0.155538
0.812715 0.601377 0.080432
0.999678 0.580901 0.018202
0.997281 0.579435 0.021054
0.002140 0.859111 0.213560
0.001476 0.856185 0.200424
0.472536 0.847619 0.165598
0.755981 0.836232 0.100264
0.987585 0.825704 0.036718
0.993358 0.820400 0.032554
0.002140 0.998350 0.218575
0.000301 1.000000 0.212379
0.324018 0.993157 0.181253
0.694873 0.993118 0.122834
0.955015 0.993064 0.044604
0.973656 0.991362 0.040350
0.127690 0.032831 0.378805
0.344726 0.000000 0.380104
0.651217 0.000000 0.363736
0.868524 0.000000 0.344439
0.996174 0.000000 0.314492
0.980465 0.022567 0.315448
0.059531 0.179627 0.375945
0.331046 0.133300 0.382013
0.643701 0.041768 0.362901
0.862187 0.002075 0.342984
0.996286 0.000064 0.317827
0.980465 0.022567 0.314414
0.051514 0.400444 0.378899
0.275866 0.387050 0.382716
0.621164 0.364143 0.369167
0.846890 0.331882 0.344837
0.994563 0.279898 0.315983
0.979014 0.283895 0.313353
0.049755 0.617766 0.384747
0.106714 0.624677 0.384840
0.572918 0.606781 0.369552
0.818212 0.594671 0.352054
0.998110 0.574333 0.321106
0.980485 0.569077 0.318790
0.050032 0.831016 0.385687
0.001376 0.850198 0.389380
0.472734 0.844569 0.373628
0.759370 0.835208 0.355667
0.986544 0.818091 0.327724
0.980974 0.802602 0.323283
0.050328 0.958329 0.385501
0.000060 0.993116 0.393428
0.321815 0.992134 0.377894
0.693315 0.990359 0.359247
0.954133 0.989705 0.332566
0.963034 0.967269 0.328157
0.141586 0.002790 0.584545
0.369464 0.000000 0.574992
0.661480 0.000000 0.569934
0.877574 0.000000 0.558987
1.000000 0.000000 0.537393
0.997954 0.002675 0.541495
0.094249 0.082235 0.581308
0.361692 0.046947 0.581532
0.657464 0.009609 0.569411
0.872319 0.001609 0.559271
0.999924 0.000091 0.545372
0.997954 0.002769 0.542266
0.000000 0.376855 0.583351
0.303644 0.366180 0.579724
0.632203 0.340534 0.574047
0.853920 0.307519 0.556560
0.993381 0.247787 0.544873
0.991614 0.242297 0.538911
0.000011 0.616325 0.590906
0.141970 0.611199 0.580506
0.584800 0.601351 0.576609
0.822582 0.585139 0.566774
0.999336 0.562900 0.546203
0.993308 0.558490 0.544888
0.000000 0.845116 0.591731
0.003437 0.843637 0.591879
0.495293 0.834533 0.577007
0.769989 0.822645 0.567937
0.988343 0.810196 0.555093
0.992264 0.806443 0.550984
0.000000 0.994593 0.595325
0.000000 0.993192 0.587001
0.350562 0.990819 0.579975
0.703302 0.991626 0.572065
0.960846 0.993014 0.558007
0.980882 0.989965 0.550674
0.242586 0.000289 0.898553
0.414981 0.000000 0.907560
0.681677 0.000000 0.899538
0.891203 0.000000 0.895820
1.000000 0.000000 0.892021
1.000000 0.000000 0.894827
0.223369 0.001457 0.905941
0.402296 0.000000 0.911784
0.675750 0.000000 0.905413
0.885500 0.000000 0.900021
1.000000 0.000000 0.894511
1.000000 0.000000 0.891786
0.101076 0.301310 0.902599
0.362315 0.287160 0.909567
0.653357 0.249004 0.909148
0.869548 0.199169 0.901039
0.993327 0.097760 0.895553
0.993327 0.101630 0.895065
0.004421 0.579451 0.913081
0.244368 0.576682 0.914034
0.608456 0.565767 0.910363
0.836912 0.544224 0.901747
0.996482 0.519298 0.895966
0.993176 0.516279 0.895703
0.004330 0.818787 0.915273
0.037590 0.820538 0.917766
0.521801 0.810917 0.910218
0.786269 0.800939 0.907927
0.994129 0.788565 0.904878
0.993198 0.783769 0.904587
0.004310 0.984937 0.925799
0.000000 0.993063 0.920514
0.400906 0.989098 0.917377
0.717900 0.989059 0.912825
0.970764 0.986991 0.901982
0.989247 0.985129 0.910482
