LUTs/Artistic/LUT_RED/Blade_Runner_.cube
LUT_3D_SIZE 16
0.089935 0.058655 0.031281
0.091490 0.001536 0.000818
0.197920 0.000000 0.000000
0.329417 0.000000 0.000000
0.451616 0.000000 0.000000
0.552621 0.000000 0.000000
0.638173 0.000000 0.000000
0.713708 0.000000 0.000000
0.786743 0.000000 0.000000
0.857907 0.000000 0.000000
0.932489 0.000000 0.000000
0.982552 0.000000 0.000000
0.993164 0.000000 0.000000
0.993164 0.000000 0.000000
0.993164 0.000000 0.000000
0.993164 0.000000 0.000000
0.086131 0.120536 0.031639
0.083034 0.066686 0.000819
0.194806 0.047933 0.000000
0.317906 0.020201 0.000000
0.442985 0.004712 0.000000
0.550534 0.000729 0.000000
0.634199 0.000000 0.000000
0.707959 0.000000 0.000000
0.780613 0.000000 0.000000
0.854076 0.000000 0.000000
0.931135 0.000000 0.000000
0.982552 0.000000 0.000000
0.993164 0.000000 0.000000
0.993164 0.000000 0.000000
0.993164 0.000000 0.000000
0.993164 0.000000 0.000000
0.086029 0.175015 0.035025
0.060435 0.130351 0.001416
0.179616 0.120284 0.000003
0.313359 0.104772 0.000000
0.434038 0.073243 0.000000
0.545114 0.033696 0.000000
0.631649 0.014082 0.000000
0.704822 0.003878 0.000000
0.776735 0.000276 0.000000
0.850950 0.000000 0.000000
0.929452 0.000000 0.000000
0.982331 0.000000 0.000000
0.993164 0.000000 0.000000
0.993164 0.000000 0.000000
0.993164 0.000000 0.000000
0.993164 0.000000 0.000000
0.086993 0.230270 0.036168
0.027692 0.195156 0.004197
0.160313 0.187225 0.000145
0.303225 0.176655 0.000000
0.432425 0.159454 0.000000
0.542467 0.135244 0.000000
0.627537 0.107524 0.000000
0.701282 0.068804 0.000000
0.773734 0.034565 0.000000
0.849953 0.021456 0.000000
0.926366 0.004701 0.000000
0.979650 0.000234 0.000000
0.993164 0.000000 0.000000
0.993164 0.000000 0.000000
0.993164 0.000000 0.000000
0.993164 0.000000 0.000000
0.088531 0.290984 0.038918
0.013356 0.258939 0.005458
0.144930 0.255486 0.000175
0.296560 0.246311 0.000000
0.427263 0.233581 0.000000
0.536460 0.219551 0.000000
0.624425 0.204151 0.000000
0.700992 0.186632 0.000000
0.772459 0.162579 0.000000
0.846199 0.133006 0.000000
0.926333 0.085602 0.000000
0.981782 0.050527 0.000000
0.993164 0.037963 0.000000
0.993164 0.035939 0.000000
0.993164 0.036974 0.000000
0.993164 0.037008 0.000000
0.087628 0.355966 0.042031
0.005186 0.334481 0.009250
0.090887 0.329879 0.001329
0.268524 0.324841 0.000020
0.413675 0.317703 0.000000
0.525498 0.304871 0.000000
0.613321 0.294203 0.000000
0.690123 0.283426 0.000000
0.764282 0.271344 0.000000
0.840345 0.254373 0.000000
0.919028 0.231303 0.000000
0.979038 0.200756 0.000000
0.993368 0.172690 0.000000
0.995381 0.164150 0.000000
0.993243 0.166925 0.000000
0.993164 0.165788 0.000000
0.089841 0.418738 0.048411
0.002609 0.410185 0.014897
0.039038 0.407215 0.004673
0.236565 0.401417 0.000199
0.394757 0.394409 0.000000
0.516244 0.389087 0.000000
0.607474 0.380292 0.000000
0.682733 0.371510 0.000000
0.757868 0.361488 0.000000
0.834914 0.350117 0.000000
0.914331 0.336383 0.000000
0.977373 0.317305 0.000000
0.993497 0.300332 0.000000
0.998498 0.295398 0.000000
0.993680 0.300228 0.000000
0.993164 0.300115 0.000000
0.089935 0.483254 0.054570
0.002438 0.483100 0.021679
0.029068 0.482321 0.010903
0.206743 0.477799 0.000473
0.374560 0.469829 0.000000
0.499496 0.465542 0.000000
0.594803 0.459448 0.000000
0.674815 0.453646 0.000000
0.750077 0.448039 0.000000
0.826851 0.438688 0.000000
0.906105 0.427730 0.000000
0.974925 0.414198 0.000000
0.993247 0.402772 0.000000
0.995757 0.398582 0.000000
0.993590 0.398256 0.000000
0.993164 0.402335 0.000000
0.089901 0.549993 0.060836
0.002641 0.558616 0.028258
0.006974 0.560980 0.020504
0.123267 0.554831 0.003576
0.332463 0.549057 0.000083
0.475322 0.543435 0.000000
0.575147 0.540403 0.000000
0.656247 0.535631 0.000000
0.733151 0.529279 0.000000
0.814351 0.523938 0.000000
0.897019 0.518096 0.000004
0.972499 0.505443 0.000030
0.993217 0.495967 0.000000
0.993169 0.494015 0.000000
0.993224 0.490877 0.000000
0.993224 0.490237 0.000000
0.087746 0.614531 0.069616
0.002375 0.633379 0.038948
0.001527 0.637147 0.030056
0.062106 0.630279 0.008644
0.289862 0.624712 0.000445
0.447697 0.621549 0.000000
0.554249 0.618820 0.000000
0.642513 0.615393 0.000000
0.721647 0.609521 0.000000
0.802449 0.602499 0.000000
0.888621 0.596788 0.000125
0.972862 0.590356 0.001637
0.996877 0.581209 0.000297
0.993739 0.577582 0.000000
0.996820 0.579413 0.000000
0.996990 0.577924 0.000000
0.088372 0.679705 0.079739
0.002295 0.709813 0.053202
0.000000 0.709113 0.041286
0.042654 0.704770 0.017759
0.241573 0.702960 0.002270
0.415106 0.700565 0.000053
0.529507 0.697583 0.000000
0.620650 0.692172 0.000000
0.703978 0.687090 0.000000
0.788202 0.682300 0.000000
0.875796 0.676487 0.000006
0.962494 0.669697 0.000667
0.998042 0.666106 0.000577
0.994563 0.662145 0.000000
0.995561 0.664814 0.000000
0.995890 0.665130 0.000000
0.087206 0.746690 0.090663
0.002304 0.783782 0.067078
0.000000 0.783612 0.054787
0.005162 0.781739 0.029788
0.135382 0.778892 0.005959
0.360646 0.776899 0.000207
0.495951 0.774162 0.000000
0.591419 0.771205 0.000000
0.678047 0.767501 0.000000
0.767570 0.761654 0.000000
0.857640 0.756217 0.000017
0.947840 0.749596 0.000155
0.994388 0.745123 0.000020
0.998568 0.744214 0.000165
0.997926 0.744508 0.000000
0.997626 0.744689 0.000000
0.086218 0.815897 0.100387
0.002252 0.857665 0.077310
0.000000 0.858688 0.068887
0.000000 0.858477 0.045790
0.073747 0.856479 0.016376
0.296763 0.852672 0.000751
0.449008 0.849299 0.000000
0.554932 0.845388 0.000000
0.651318 0.845276 0.000000
0.744458 0.843022 0.000000
0.835029 0.834451 0.000133
0.926602 0.828117 0.001987
0.989734 0.824243 0.000625
1.000000 0.827513 0.002332
0.999847 0.823139 0.000157
0.995138 0.822827 0.000000
0.089309 0.876785 0.111647
0.002324 0.931941 0.091282
0.000055 0.932649 0.081869
0.000095 0.930206 0.061503
0.046231 0.928946 0.028409
0.228396 0.926259 0.003426
0.406618 0.923926 0.000062
0.526992 0.920058 0.000000
0.625454 0.916199 0.000000
0.722222 0.914843 0.000000
0.817441 0.911233 0.000014
0.911453 0.904445 0.000412
0.980363 0.904432 0.000338
0.998725 0.902583 0.000366
0.999369 0.901731 0.000120
0.998282 0.901476 0.000000
0.089831 0.926896 0.116980
0.002356 0.993670 0.097315
0.000657 0.994242 0.088615
0.002432 0.990725 0.075694
0.001446 0.992655 0.047099
0.110771 0.988753 0.014613
0.335961 0.986901 0.000480
0.481154 0.986430 0.000000
0.591100 0.983861 0.000000
0.696758 0.978300 0.000000
0.797329 0.974459 0.000141
0.896586 0.970686 0.002331
0.963020 0.971715 0.000775
0.984430 0.966821 0.000000
0.986185 0.965677 0.000000
0.986185 0.965677 0.000000
0.086048 0.930603 0.117310
0.002253 0.998183 0.101324
0.000001 0.998787 0.092065
0.000016 0.993486 0.076798
0.000002 0.993191 0.048609
0.083602 0.993166 0.015952
0.290070 0.993160 0.000558
0.450097 0.993150 0.000000
0.569241 0.991065 0.000000
0.675633 0.989201 0.000000
0.777129 0.989333 0.000000
0.881455 0.991910 0.000010
0.947712 0.993079 0.000008
0.971126 0.993060 0.000000
0.973660 0.993048 0.000000
0.973660 0.993048 0.000000
0.009963 0.001536 0.053624
0.097917 0.000083 0.048481
0.211467 0.000000 0.034494
0.338316 0.000000 0.010429
0.461967 0.000000 0.001320
0.560873 0.000238 0.000000
0.645898 0.000102 0.000000
0.721315 0.000000 0.000000
0.792368 0.000000 0.002042
0.864654 0.000000 0.003422
0.942202 0.000000 0.001299
0.985927 0.000000 0.000000
0.993164 0.000000 0.000000
0.993164 0.000000 0.000000
0.993164 0.000000 0.000000
0.993164 0.000000 0.000000
0.002451 0.068007 0.053483
0.094607 0.061905 0.048181
0.204725 0.041517 0.034589
0.335741 0.017114 0.010494
0.466896 0.005298 0.002061
0.568430 0.000346 0.002062
0.645775 0.000000 0.000303
0.720687 0.000000 0.000498
0.795468 0.000000 0.000475
0.870333 0.000000 0.000525
0.944164 0.000000 0.000300
0.985869 0.000000 0.000029
0.993164 0.000000 0.000000
0.993164 0.000000 0.000000
0.993164 0.000000 0.000000
0.993164 0.000000 0.000000
0.002252 0.130921 0.054540
0.069706 0.128347 0.045525
0.197143 0.118827 0.034896
0.335978 0.097989 0.015024
0.456341 0.064763 0.001912
0.559544 0.024616 0.000360
0.644814 0.011389 0.000008
0.718597 0.002176 0.001295
0.790709 0.000003 0.003374
0.864435 0.000000 0.003371
0.941220 0.000000 0.001219
0.985781 0.000000 0.000000
0.993164 0.000000 0.000000
0.993164 0.000000 0.000000
0.993164 0.000000 0.000000
0.993164 0.000000 0.000000
0.002258 0.196882 0.058537
0.027926 0.192350 0.048874
0.180456 0.187023 0.032967
0.322088 0.174591 0.015325
0.448451 0.156600 0.002204
0.552731 0.131480 0.001735
0.636108 0.100517 0.000079
0.712888 0.060414 0.000034
0.785953 0.031576 0.001411
0.862321 0.022092 0.002779
0.936572 0.003339 0.001195
0.983613 0.000005 0.000000
0.993164 0.000000 0.000000
0.993164 0.000000 0.000000
0.993164 0.000000 0.000000
0.993164 0.000000 0.000000
0.002334 0.263877 0.055008
0.012161 0.260403 0.051733
0.156537 0.256092 0.036918
0.309080 0.247068 0.016163
0.439468 0.233423 0.001726
0.546625 0.219748 0.000137
0.630935 0.205447 0.000010
0.705582 0.185195 0.000000
0.777902 0.160276 0.000038
0.855933 0.131914 0.000165
0.933635 0.082977 0.000166
0.982613 0.047193 0.000778
0.993164 0.037024 0.000105
0.993164 0.036718 0.000000
0.993164 0.036871 0.000000
0.993164 0.038784 0.000000
0.002275 0.333672 0.057166
0.004348 0.333733 0.054447
0.108490 0.328432 0.041966
0.299360 0.322992 0.019235
0.432658 0.312144 0.001954
0.540175 0.300933 0.000000
0.624291 0.292331 0.000000
0.700754 0.281231 0.000000
0.777654 0.266824 0.000018
0.852476 0.248216 0.000873
0.929034 0.225930 0.000282
0.982026 0.197016 0.001217
0.995396 0.170049 0.000666
0.995170 0.165093 0.000000
0.993239 0.167736 0.000000
0.993164 0.169607 0.000000
0.002351 0.408229 0.060541
0.000453 0.409934 0.060442
0.046786 0.407156 0.045351
0.260652 0.400175 0.022563
0.411228 0.394663 0.002389
0.525942 0.388816 0.000000
0.613887 0.378964 0.000897
0.690886 0.369023 0.000424
0.764734 0.359905 0.000007
0.845053 0.347037 0.000904
0.923155 0.333101 0.002219
0.979403 0.317793 0.000307
0.997563 0.302152 0.000393
0.996824 0.298361 0.001470
0.993581 0.301793 0.000297
0.993164 0.298547 0.000000
0.002356 0.483070 0.068235
0.000128 0.483333 0.063672
0.032048 0.485587 0.054097
0.224696 0.478345 0.027197
0.389988 0.470769 0.003254
0.510118 0.464573 0.000157
0.602262 0.461195 0.000424
0.681145 0.454935 0.001330
0.755900 0.445505 0.000000
0.834109 0.436053 0.000024
0.916137 0.424713 0.000920
0.978386 0.415801 0.000838
0.995865 0.404209 0.000113
0.996967 0.400275 0.001429
0.993791 0.400376 0.000294
0.993652 0.400442 0.000000
0.004091 0.560060 0.078198
0.000290 0.560273 0.068172
0.012173 0.559067 0.062534
0.161182 0.553607 0.036480
0.365227 0.549541 0.006847
0.493280 0.543392 0.000342
0.587059 0.539746 0.000000
0.667616 0.535280 0.000000
0.747073 0.527330 0.000024
0.827698 0.521170 0.000000
0.907795 0.513208 0.000000
0.978205 0.504282 0.000003
0.993848 0.495010 0.000024
0.996145 0.492481 0.000106
0.997008 0.493866 0.001625
0.993851 0.492298 0.000039
0.004191 0.636709 0.085900
0.000479 0.636948 0.076574
0.001663 0.636405 0.069544
0.080230 0.630317 0.046687
0.315058 0.625756 0.016279
0.462563 0.623868 0.002094
0.565765 0.618651 0.000048
0.649765 0.615776 0.000000
0.727380 0.609873 0.001231
0.810321 0.602551 0.000518
0.897633 0.597554 0.000002
0.972426 0.591813 0.000158
0.997406 0.584602 0.001473
0.997118 0.579960 0.000340
0.999457 0.582693 0.003348
0.997108 0.581532 0.002150
0.004463 0.711572 0.090680
0.000210 0.708146 0.086489
0.000045 0.709585 0.079134
0.050465 0.707251 0.054555
0.267079 0.702685 0.023172
0.432516 0.699312 0.005217
0.539565 0.694965 0.001128
0.630639 0.690470 0.000010
0.713213 0.688132 0.000380
0.796733 0.683461 0.001119
0.883275 0.674344 0.000050
0.963744 0.670339 0.000277
0.996606 0.668502 0.000800
0.996689 0.664162 0.000405
0.999106 0.662132 0.001165
0.995903 0.664164 0.001342
0.005602 0.786499 0.097319
0.000221 0.782529 0.093143
0.000000 0.782357 0.085100
0.014920 0.779220 0.064987
0.173535 0.778495 0.032828
0.390774 0.774652 0.005941
0.511720 0.771638 0.001190
0.604709 0.768723 0.000046
0.692397 0.764946 0.000004
0.779679 0.760972 0.000018
0.868378 0.754175 0.000029
0.949291 0.746040 0.000146
0.993548 0.744730 0.000008
0.995198 0.743914 0.000000
0.999273 0.742634 0.000000
0.997899 0.743555 0.000000
0.003115 0.861482 0.103221
0.000162 0.861253 0.100349
0.000000 0.860156 0.092136
0.000896 0.855702 0.076284
0.090488 0.853539 0.048374
0.323877 0.851121 0.014709
0.468440 0.848629 0.000955
0.573026 0.844028 0.000239
0.664505 0.843026 0.000051
0.754897 0.840572 0.000000
0.845084 0.833461 0.000107
0.933208 0.827402 0.001736
0.986699 0.823449 0.000447
0.994927 0.822932 0.000045
0.998697 0.822988 0.000008
0.999095 0.822827 0.000000
0.002354 0.935586 0.110606
0.000155 0.936200 0.109331
0.000015 0.931262 0.102892
0.000056 0.930230 0.087262
0.046302 0.929353 0.064542
0.235270 0.928503 0.030803
0.417550 0.925446 0.005159
0.532890 0.921477 0.000075
0.631036 0.918647 0.000009
0.730118 0.917738 0.000104
0.825737 0.913665 0.000018
0.913060 0.907228 0.000267
0.979930 0.904442 0.000326
0.997488 0.901994 0.000017
0.994706 0.903965 0.000006
0.994429 0.901489 0.000000
0.002692 0.993810 0.121789
0.000471 0.995494 0.120702
0.000188 0.995165 0.112820
0.000794 0.994979 0.100319
0.003265 0.994703 0.076511
0.123799 0.992730 0.047360
0.365363 0.987700 0.015063
0.501083 0.985112 0.000563
0.606206 0.981137 0.000025
0.708151 0.979034 0.001700
0.807911 0.976217 0.001109
0.901015 0.970666 0.000044
0.963544 0.966850 0.000035
0.984430 0.965845 0.000000
0.985748 0.965882 0.000000
0.982640 0.965680 0.000000
0.002253 0.992187 0.126367
0.000261 0.994292 0.125035
0.000189 0.999429 0.117076
0.000002 0.999554 0.105125
0.000014 0.999438 0.083086
0.093064 0.997495 0.058517
0.311105 0.993490 0.022306
0.463629 0.993146 0.000766
0.577457 0.991047 0.000000
0.681695 0.989294 0.000007
0.786189 0.991663 0.000010
0.882460 0.993026 0.000000
0.946842 0.993057 0.000000
0.971126 0.993049 0.000000
0.973660 0.993048 0.000000
0.973642 0.993048 0.000000
0.008515 0.000703 0.086637
0.104937 0.000003 0.082992
0.211053 0.000000 0.077725
0.340062 0.000000 0.053025
0.462164 0.000000 0.020812
0.566708 0.000997 0.001147
0.649360 0.001797 0.000000
0.721884 0.000029 0.000000
0.792596 0.000000 0.002044
0.868479 0.000000 0.001689
0.944997 0.000000 0.000095
0.986082 0.000000 0.000000
0.993164 0.000000 0.000000
0.993164 0.000000 0.000000
0.993164 0.000000 0.000000
0.993164 0.000000 0.000000
0.000380 0.065783 0.085606
0.087398 0.061789 0.081992
0.202824 0.042930 0.077575
0.336361 0.014138 0.051484
0.461532 0.003229 0.018022
0.564017 0.000525 0.001786
0.641936 0.000239 0.002857
0.717868 0.000002 0.002914
0.791257 0.000000 0.003395
0.865574 0.000000 0.003118
0.939464 0.000000 0.002698
0.984170 0.000000 0.000950
0.993164 0.000000 0.000000
0.993164 0.000000 0.000000
0.993164 0.000000 0.000000
0.993164 0.000000 0.000000
0.000700 0.131688 0.084476
0.076886 0.127844 0.081336
0.201230 0.118282 0.074433
0.332605 0.095039 0.051787
0.458256 0.061471 0.018079
0.565219 0.022285 0.001303
0.647936 0.010849 0.000422
0.718387 0.002124 0.001336
0.792859 0.000000 0.002446
0.869708 0.000000 0.001028
0.943332 0.000000 0.000377
0.985711 0.000000 0.000074
0.993164 0.000000 0.000000
0.993164 0.000000 0.000000
0.993164 0.000000 0.000000
0.993164 0.000000 0.000000
0.000324 0.190773 0.085410
0.038604 0.189028 0.082410
0.184459 0.184745 0.070414
0.326168 0.173122 0.053588
0.456106 0.153236 0.019156
0.557714 0.128204 0.003026
0.640359 0.097973 0.000285
0.714529 0.059608 0.000036
0.787366 0.030791 0.001397
0.863685 0.020394 0.002481
0.938015 0.003184 0.001085
0.983928 0.000000 0.000000
0.993164 0.000000 0.000000
0.993164 0.000000 0.000000
0.993164 0.000000 0.000000
0.993164 0.000000 0.000000
0.000000 0.260582 0.083629
0.012796 0.258726 0.084538
0.152507 0.256411 0.073594
0.313590 0.247752 0.053288
0.443681 0.233427 0.021135
0.549199 0.219543 0.001398
0.630737 0.204074 0.000125
0.705620 0.185076 0.000000
0.779955 0.159923 0.000041
0.856538 0.130506 0.000175
0.933905 0.084411 0.000107
0.982692 0.049054 0.000009
0.993164 0.037667 0.000004
0.993164 0.035847 0.000000
0.993164 0.035791 0.000000
0.993164 0.035818 0.000000
0.000000 0.333319 0.086412
0.003734 0.334847 0.084244
0.105918 0.330793 0.076892
0.293964 0.324532 0.055764
0.430947 0.314028 0.023721
0.538873 0.302705 0.001963
0.623558 0.292592 0.000101
0.699954 0.282433 0.000000
0.772920 0.267492 0.000000
0.848627 0.248916 0.000011
0.929180 0.229436 0.000009
0.982386 0.202383 0.000060
0.994583 0.173585 0.000056
0.993338 0.162695 0.000000
0.993168 0.162208 0.000000
0.993164 0.162423 0.000000
0.000000 0.407580 0.088508
0.000288 0.408038 0.086807
0.049280 0.404712 0.078769
0.266749 0.397838 0.059705
0.420012 0.392170 0.026104
0.530161 0.383878 0.001757
0.616926 0.374196 0.000108
0.691612 0.367656 0.000014
0.767734 0.358833 0.000000
0.847399 0.345910 0.000082
0.924617 0.331572 0.000938
0.980823 0.317108 0.000347
0.995328 0.302326 0.001440
0.994140 0.296834 0.001200
0.993199 0.296541 0.001123
0.993164 0.296351 0.000003
0.000536 0.483365 0.092763
0.000002 0.484010 0.088723
0.030679 0.482530 0.083687
0.224156 0.477622 0.063471
0.391178 0.471693 0.034146
0.510816 0.465966 0.003933
0.600911 0.461176 0.000031
0.679449 0.452426 0.000103
0.754681 0.445505 0.000000
0.835057 0.436710 0.000014
0.915974 0.425968 0.000819
0.978436 0.414163 0.000877
0.995410 0.404706 0.001210
0.996513 0.400577 0.001797
0.996406 0.400342 0.001695
0.996397 0.400337 0.000012
0.000206 0.560941 0.098100
0.000173 0.561700 0.093768
0.012429 0.559162 0.086990
0.153504 0.555238 0.071158
0.362585 0.549564 0.039321
0.490790 0.543804 0.007478
0.584188 0.539646 0.000168
0.665535 0.537442 0.000000
0.745659 0.529138 0.000000
0.823504 0.520458 0.000033
0.905252 0.510885 0.000454
0.977942 0.503450 0.000037
0.995643 0.496819 0.000000
0.999561 0.494089 0.000002
0.999819 0.492361 0.000061
0.999718 0.492310 0.000022
0.001703 0.637345 0.104603
0.002167 0.637175 0.101961
0.004297 0.636405 0.093366
0.082815 0.630302 0.077481
0.324753 0.625316 0.046185
0.470809 0.622239 0.010901
0.568622 0.616128 0.000298
0.650882 0.614491 0.000004
0.731407 0.608310 0.000025
0.815342 0.600776 0.000115
0.899204 0.595000 0.000075
0.974451 0.588227 0.000090
0.997557 0.581765 0.000037
0.999112 0.579822 0.000102
0.999860 0.581105 0.001684
0.999707 0.581132 0.001652
0.001276 0.712375 0.111282
0.001309 0.710517 0.108309
0.001562 0.711034 0.099790
0.049363 0.706588 0.083723
0.262024 0.704017 0.055158
0.430488 0.700573 0.021723
0.539514 0.695393 0.002360
0.630760 0.690133 0.000122
0.713745 0.687729 0.000051
0.796702 0.682022 0.001619
0.880900 0.675310 0.000595
0.963864 0.671788 0.001253
0.997117 0.668997 0.000355
0.999751 0.665831 0.000143
0.997023 0.664108 0.001642
0.996749 0.664632 0.001305
0.000162 0.787398 0.117468
0.000009 0.782665 0.109003
0.000017 0.781904 0.104453
0.014755 0.778438 0.090994
0.171411 0.779527 0.064393
0.390704 0.775642 0.033145
0.508276 0.771022 0.006378
0.603779 0.767926 0.000181
0.693218 0.764950 0.000023
0.781429 0.761562 0.000371
0.867672 0.754042 0.000667
0.949102 0.747863 0.000441
0.994677 0.745882 0.000517
0.999589 0.746563 0.000505
0.997272 0.744285 0.000074
0.996886 0.743586 0.000000
0.000068 0.861514 0.123353
0.000004 0.858255 0.113313
0.000000 0.856773 0.110915
0.000977 0.851213 0.099659
0.095782 0.850434 0.076011
0.334254 0.850780 0.042806
0.472029 0.848402 0.011315
0.574077 0.844209 0.001206
0.665131 0.841079 0.000946
0.758893 0.837285 0.000000
0.850067 0.832566 0.000000
0.935142 0.827341 0.000052
0.989550 0.822845 0.000032
0.998664 0.822889 0.000040
0.996377 0.822881 0.000004
0.996085 0.822827 0.000000
0.000113 0.937043 0.128618
0.000113 0.933608 0.123832
0.000114 0.932643 0.119801
0.000023 0.929251 0.108782
0.054144 0.926999 0.087454
0.249160 0.925650 0.058895
0.417523 0.924131 0.022581
0.535514 0.921663 0.001041
0.637398 0.918924 0.000427
0.733258 0.916207 0.000000
0.825854 0.911692 0.000000
0.916118 0.906463 0.000019
0.981416 0.902451 0.000027
0.998586 0.901496 0.000000
0.998357 0.901575 0.000000
0.997149 0.901477 0.000000
0.002707 0.995750 0.137005
0.002716 0.995483 0.136132
0.002743 0.995382 0.130711
0.000462 0.995067 0.118239
0.002002 0.993018 0.098180
0.124237 0.990627 0.071683
0.358340 0.990810 0.041335
0.495096 0.987477 0.009224
0.602121 0.983938 0.000000
0.705196 0.978658 0.000048
0.804575 0.976910 0.000079
0.894539 0.971418 0.000000
0.961774 0.966610 0.000000
0.984430 0.965688 0.000000
0.986155 0.965694 0.000000
0.985985 0.965678 0.000000
0.000017 0.999720 0.140788
0.000206 0.999720 0.137470
0.002860 0.999325 0.132468
0.000489 0.996017 0.121910
0.000002 0.997583 0.102950
0.096729 0.995368 0.077699
0.317790 0.996339 0.045768
0.464287 0.993213 0.012344
0.581646 0.991602 0.000000
0.688519 0.989419 0.000001
0.793324 0.991704 0.000001
0.885615 0.993086 0.000000
0.946779 0.993056 0.000000
0.971126 0.993048 0.000000
0.973660 0.993048 0.000000
0.973658 0.993048 0.000000
0.011564 0.002743 0.099162
0.107289 0.001061 0.098498
0.215724 0.000603 0.088327
0.338229 0.000004 0.072291
0.461828 0.000000 0.039432
0.568322 0.000020 0.005559
0.652266 0.000144 0.000083
0.725500 0.000004 0.000000
0.794320 0.000000 0.001292
0.869611 0.000000 0.001448
0.943828 0.000000 0.000000
0.985848 0.000000 0.000000
0.993164 0.000000 0.000000
0.993164 0.000000 0.000000
0.992762 0.000625 0.000312
0.984379 0.013659 0.006825
0.001238 0.060702 0.095297
0.093209 0.059186 0.092440
0.209022 0.038388 0.088962
0.337316 0.013077 0.067859
0.460813 0.003130 0.034320
0.567868 0.001048 0.003356
0.650132 0.001559 0.000270
0.721999 0.000027 0.000226
0.792884 0.000000 0.001423
0.869155 0.000000 0.001621
0.944668 0.000000 0.000203
0.985850 0.000000 0.000090
0.993164 0.000000 0.000000
0.993164 0.000000 0.000000
0.992762 0.000625 0.000312
0.984379 0.013659 0.006825
0.002615 0.130724 0.101248
0.074729 0.127337 0.092361
0.193475 0.118249 0.085531
0.328148 0.098327 0.067364
0.457338 0.062174 0.031674
0.562832 0.025084 0.003353
0.646257 0.011166 0.000909
0.716217 0.002059 0.001427
0.790443 0.000000 0.001397
0.866783 0.000000 0.002435
0.940392 0.000000 0.001010
0.984358 0.000000 0.000009
0.993164 0.000000 0.000000
0.993164 0.000000 0.000000
0.992762 0.000625 0.000312
0.984379 0.013659 0.006825
0.002275 0.192251 0.097889
0.044823 0.188151 0.093726
0.189654 0.184329 0.083925
0.327989 0.171872 0.068255
0.453075 0.150912 0.035537
0.560454 0.127214 0.005744
0.645086 0.096502 0.001658
0.716521 0.057296 0.000154
0.788289 0.028783 0.000982
0.866703 0.017155 0.001406
0.943172 0.002493 0.000191
0.985508 0.000000 0.000000
0.993164 0.000000 0.000000
0.993164 0.000000 0.000000
0.992762 0.000625 0.000312
0.984379 0.013659 0.006825
0.000155 0.260163 0.093909
0.015504 0.256471 0.097693
0.159864 0.254870 0.087355
0.312912 0.246706 0.069777
0.448068 0.232045 0.037378
0.555941 0.217097 0.005146
0.637685 0.201750 0.001432
0.710981 0.181679 0.000028
0.783949 0.156830 0.000041
0.859705 0.123355 0.000127
0.936813 0.077263 0.000012
0.983842 0.046667 0.000000
0.993164 0.036782 0.000000
0.993164 0.035780 0.000000
0.992762 0.036320 0.000312
0.984379 0.047741 0.006825
0.000000 0.333677 0.097357
0.004509 0.333054 0.097639
0.107004 0.329748 0.091325
0.289777 0.324132 0.074445
0.433506 0.313563 0.041171
0.542881 0.303240 0.008502
0.626672 0.291669 0.000580
0.700371 0.280174 0.000003
0.774214 0.266482 0.000000
0.852718 0.248893 0.000000
0.930475 0.227068 0.000000
0.982232 0.200404 0.000000
0.993187 0.171931 0.000000
0.993171 0.162308 0.000000
0.992762 0.162333 0.000312
0.984379 0.169022 0.006825
0.000000 0.409247 0.101050
0.000232 0.409748 0.100480
0.043147 0.407192 0.094014
0.262904 0.402104 0.075794
0.418269 0.394885 0.043984
0.529995 0.385659 0.009639
0.617668 0.375888 0.001465
0.691586 0.367172 0.000026
0.767160 0.359084 0.000000
0.844988 0.346457 0.000000
0.923300 0.332209 0.000016
0.979753 0.318148 0.000074
0.993305 0.305354 0.000798
0.993245 0.298134 0.000170
0.992762 0.296367 0.000977
0.984379 0.299729 0.006826
0.001121 0.482815 0.104914
0.000577 0.483604 0.103057
0.030865 0.480057 0.093666
0.225549 0.477610 0.077344
0.395911 0.471415 0.049565
0.518573 0.463247 0.011727
0.606533 0.457048 0.000239
0.683297 0.448166 0.000001
