LUTs/Artistic/LUT_CINEMA/Kodak_2383_19.A006C019_181009_E70F.cube
TITLE "Generated by Resolve"
LUT_3D_SIZE 5
0 0 0
0.0482185 0.00112917 0
0.204517 0 0
0.589303 0 0
0.801678 0 0
0.00383001 0.077821 0.0173495
0.0995804 0.0932021 0.0207675
0.385428 0.071809 0
0.7729 0.0431983 0
0.963088 0.0949569 0
0 0.365988 0
0.149874 0.436225 0.0365148
0.607126 0.392584 0.014725
0.912383 0.464729 0.0272984
1 0.569833 0.0914473
0.0136873 0.889326 0.132494
0.297978 0.936934 0.13669
0.759579 0.884077 0.0788891
0.970306 0.87837 0.0605631
1 0.919982 0.0686656
0.151324 1 0.422538
0.484489 1 0.287633
0.904402 1 0.20209
1 1 0.146822
1 1 0.12401
0 0.000122072 0.0640726
0.0478218 0.00175479 0.0681621
0.237385 0 0.0526741
0.624155 0 0
0.823713 0 0
0 0.0840162 0.107057
0.0915694 0.117311 0.131167
0.375647 0.111116 0.117632
0.775891 0.0945602 0.0940719
0.989654 0.159411 0.159625
0 0.392981 0.183856
0.105821 0.493599 0.216358
0.595575 0.483711 0.173404
0.927596 0.550637 0.174441
1 0.644327 0.235264
0.0184024 0.90193 0.505974
0.235966 0.963699 0.451591
0.754238 0.918212 0.327962
0.965972 0.907271 0.248524
1 0.942641 0.217624
0.132876 1 0.852354
0.39408 1 0.718837
0.856825 1 0.520424
1 1 0.449104
1 1 0.355779
0 0 0.28658
0.00576791 0 0.349706
0.270222 0 0.240574
0.651911 0 0.223331
0.835843 0 0.27425
0 0.0767376 0.35996
0.0273899 0.115969 0.475731
0.426032 0.107561 0.409384
0.811841 0.122866 0.455726
1 0.204776 0.583474
0 0.415305 0.486656
0.0541543 0.531624 0.575921
0.566247 0.556252 0.576699
0.909468 0.610819 0.612222
1 0.688716 0.66717
0.0162356 0.921279 0.806271
0.210651 0.967636 0.842054
0.677684 0.927687 0.754559
0.939803 0.912047 0.66952
1 0.939529 0.63592
0.125917 1 1
0.371496 1 1
0.789029 1 0.894652
0.984619 1 0.829282
1 1 0.767819
0 0 0.691524
0 0 0.743908
0.199451 0 0.678233
0.658427 0 0.574762
0.843458 0 0.636164
0 0.0641642 0.738003
0 0.11841 0.822141
0.339269 0.114061 0.831205
0.84651 0.127672 0.795483
1 0.252201 0.924697
0 0.429618 0.739239
0.0055848 0.581933 0.847822
0.453635 0.616266 0.909911
0.93193 0.637583 0.909743
1 0.722377 0.952758
0.0159457 0.945617 0.959915
0.135149 1 1
0.603906 0.954284 0.956802
0.924422 0.925216 0.919432
1 0.942855 0.934173
0.120287 1 1
0.313176 1 1
0.770169 1 1
0.962463 1 0.98175
1 1 0.958068
0 0 0.885451
0 0 0.9093
0.121721 0 0.900084
0.632319 0 0.787106
0.85275 0 0.806027
0 0.0736248 0.905348
0 0.139864 0.96083
0.243839 0.166659 1
0.848798 0.138109 0.982238
1 0.269612 1
0 0.476799 0.868498
0 0.639124 0.96817
0.35491 0.686305 1
0.904921 0.66424 1
1 0.736202 1
0.0195621 0.964401 1
0.103532 1 1
0.50721 0.99469 1
0.8934 0.942306 1
1 0.950103 1
0.117769 1 1
0.226825 1 1
0.667918 1 1
0.943709 1 1
1 1 1
