LUTs/Artistic/LUT_CINEMA/Kodak_2383_19.A006C019_181009_E70F.cube
TITLE "Generated by Resolve"
LUT_3D_SIZE 33
0 0 0
0.00360113 0.000518807 0.000442512
0.00790417 0.0010071 0.000854505
0.0128328 0.00137331 0.00115969
0.0183719 0.00157168 0.00114443
0.0246891 0.00164797 0.000915541
0.0317082 0.0016022 0.000640879
0.0394141 0.00141909 0.000259403
0.0482185 0.00112917 0
0.058381 0.000518807 0
0.0698711 0 0
0.0833295 0 0
0.0992599 0 0
0.118578 0 0
0.14168 0 0
0.169879 0 0
0.204517 0 0
0.24564 0 0
0.292058 0 0
0.342977 0 0
0.396689 0 0
0.449882 0 0
0.500694 0 0
0.547265 0 0
0.589303 0 0
0.627283 0 0
0.661494 0 0
0.691691 0 0
0.718669 0 0
0.742901 0 0
0.764538 0 0
0.783902 0 0
0.801678 0 0
0.00112917 0.00479133 0.00224308
0.00576791 0.00575265 0.002121
0.0105592 0.00654612 0.00189212
0.0163729 0.00703441 0.00218204
0.0227512 0.00743114 0.0024567
0.0295567 0.00759899 0.00273136
0.0368048 0.00753796 0.00247196
0.0449531 0.00735485 0.00201419
0.0543069 0.00714122 0.0015259
0.0651255 0.00680552 0.000823987
0.0775616 0.00608835 0
0.0923629 0.00489815 0
0.109773 0.00306706 0
0.130831 0.00047303 0
0.156725 0 0
0.188373 0 0
0.226352 0 0
0.270314 0 0
0.3196 0 0
0.372381 0 0
0.426581 0 0
0.47921 0 0
0.527947 0 0
0.573053 0 0
0.614008 0 0
0.650202 0 0
0.682567 0 0
0.711604 0 0
0.737682 0 0
0.760876 0 0
0.781872 0 0
0.800961 0 0
0.818158 0 0
0.0018616 0.00920119 0.00430304
0.00628672 0.011429 0.00453193
0.0131533 0.0131075 0.00454719
0.0191501 0.0140536 0.00401312
0.026154 0.014725 0.00392157
0.0337377 0.0151064 0.00395209
0.0415198 0.0150454 0.00387579
0.0501259 0.0146639 0.00332647
0.0603342 0.0144045 0.0027924
0.0722057 0.0141909 0.00221256
0.0860609 0.01355 0.00117494
0.102281 0.0124056 0
0.121828 0.0104067 0
0.145159 0.00750744 0
0.173846 0.00350958 0
0.209094 0 0
0.250477 0 0
0.297063 0 0
0.34847 0 0
0.402975 0 0
0.456916 0 0
0.508553 0 0
0.555795 0 0
0.599115 0 0
0.638331 0 0
0.673396 0 0
0.704372 0 0
0.731945 0 0
0.756863 0 0
0.779614 0 0
0.800092 0 0
0.818647 0 0
0.835645 0 0
0.00270085 0.0153201 0.00650034
0.00582895 0.0172122 0.00634775
0.0145266 0.0209964 0.00732433
0.0227512 0.0221866 0.007187
0.0297704 0.0233005 0.00648508
0.0373541 0.0240177 0.00598154
0.0454719 0.0238499 0.00547799
0.054551 0.0235599 0.00489815
0.0656138 0.0234379 0.00444038
0.078706 0.0231632 0.00376898
0.0938888 0.0224613 0.002533
0.111971 0.0213626 0.000823987
0.13373 0.0193332 0
0.160281 0.016144 0
0.19234 0.0115206 0
0.230579 0.00541695 0
0.275334 0 0
0.325444 0 0
0.378988 0 0
0.433982 0 0
0.487297 0 0
0.537102 0 0
0.583459 0 0
0.625315 0 0
0.662287 0 0
0.695598 0 0
0.725765 0 0
0.752804 0 0
0.776852 0 0
0.798642 0 0
0.818738 0 0
0.837247 0 0
0.854444 0 0
0.00340276 0.0234684 0.00903334
0.00640879 0.0257877 0.0087129
0.0137636 0.0293126 0.00975052
0.0248417 0.0322576 0.010132
0.0342565 0.033341 0.0100862
0.0420386 0.0341192 0.00917067
0.0497597 0.0341039 0.00776684
0.058793 0.0337377 0.00689708
0.0702983 0.0338445 0.00634775
0.0845045 0.0340124 0.00573739
0.101137 0.033463 0.00450141
0.120943 0.0321355 0.00248722
0.144808 0.0298924 0
0.174212 0.0264286 0
0.210239 0.021622 0
0.252308 0.0151064 0
0.299733 0.00724804 0
0.352499 0 0
0.408087 0 0
0.463569 0 0
0.516411 0 0
0.565148 0 0
0.609583 0 0
0.649943 0 0
0.686397 0 0
0.718471 0 0
0.747173 0 0
0.773053 0 0
0.796735 0 0
0.818387 0 0
0.83827 0 0
0.856565 0 0
0.873686 0 0
0.00386053 0.0336461 0.01149
0.0068513 0.0361944 0.0111238
0.0127413 0.0394598 0.0121309
0.0250401 0.043183 0.0131838
0.0365911 0.0453346 0.0132448
0.046891 0.0457771 0.0127871
0.0554971 0.0456703 0.011368
0.0641794 0.0455177 0.00955215
0.0757153 0.0460822 0.00889601
0.0902113 0.0463417 0.00796521
0.107881 0.0460365 0.00669871
0.129412 0.0449226 0.004654
0.155657 0.0428168 0.00163272
0.187518 0.0391089 0
0.226352 0.0337987 0
0.272023 0.0269627 0
0.322988 0.0189517 0
0.378317 0.0101015 0
0.434836 0.000839246 0
0.490394 0 0
0.542657 0 0
0.591302 0 0
0.634928 0 0
0.673777 0 0
0.708782 0 0
0.740429 0 0
0.768475 0 0
0.793912 0 0
0.816938 0 0
0.8383 0 0
0.858106 0 0
0.876768 0 0
0.894606 0 0
0.00418097 0.045716 0.0138705
0.00701915 0.0486305 0.0133974
0.0130007 0.0522011 0.0142061
0.0243687 0.0560922 0.016083
0.0382696 0.058854 0.0166629
0.0496834 0.0597848 0.016144
0.0607004 0.0587778 0.0149538
0.0712596 0.0586709 0.013611
0.0830549 0.0597696 0.0121157
0.0975357 0.0604715 0.0110475
0.115679 0.0605936 0.00959792
0.13817 0.0596628 0.007187
0.166262 0.0575418 0.00381476
0.200732 0.0539559 0
0.242313 0.0485237 0
0.290532 0.0417029 0
0.344442 0.033463 0
0.401877 0.0246586 0
0.46006 0.0159152 0
0.515785 0.00790417 0
0.567452 0.00146487 0
0.61503 0 0
0.658289 0 0
0.696712 0 0
0.73077 0 0
0.761517 0 0
0.789258 0 0
0.814435 0 0
0.837552 0 0
0.858869 0.00297551 0
0.879026 0.00820935 0
0.89778 0.0137942 0
0.915892 0.0201267 0
0.00447089 0.0607614 0.0160983
0.00764477 0.0641031 0.0154879
0.0120241 0.0670634 0.0156863
0.0226596 0.0710307 0.0181125
0.0383764 0.0746777 0.0199741
0.0525521 0.0760052 0.0199435
0.0640726 0.0748302 0.0185245
0.0772564 0.0738842 0.0173953
0.0920577 0.0750896 0.016495
0.107408 0.0763409 0.0148013
0.125658 0.0769207 0.0129702
0.148623 0.0763867 0.010193
0.17792 0.0743725 0.00639353
0.214694 0.0709544 0.00143435
0.258335 0.0658427 0
0.308629 0.0591897 0
0.364752 0.0510567 0
0.423804 0.0423743 0
0.483131 0.0343023 0
0.539208 0.0272831 0
0.59089 0.0217136 0
0.637873 0.0175021 0
0.680156 0.0148013 0
0.718654 0.0139773 0
0.752621 0.0145724 0
0.782849 0.0164645 0
0.810162 0.0192416 0
0.835035 0.0229953 0
0.858671 0.0281224 0
0.880262 0.0340276 0
0.900587 0.0406043 0
0.919936 0.0473487 0
0.938384 0.0547036 0
0.00383001 0.077821 0.0173495
0.00712596 0.0818494 0.0170443
0.0111543 0.0851301 0.0170291
0.0201419 0.0888228 0.0190738
0.0368048 0.0928206 0.0223545
0.0540322 0.0950484 0.0236362
0.0681621 0.0942092 0.0227054
0.0816205 0.0928206 0.0214084
0.0995804 0.0932021 0.0207675
0.118746 0.0939651 0.0193179
0.138674 0.094789 0.0168002
0.162615 0.0950942 0.0139162
0.192813 0.0936446 0.00993362
0.230503 0.0903487 0.00424201
0.2757 0.0853437 0
0.327626 0.0792859 0
0.385428 0.071809 0
0.445869 0.0638437 0
0.50486 0.0563973 0
0.560555 0.0501411 0
0.613016 0.0456703 0
0.659983 0.0428168 0
0.701885 0.0415961 0
0.7393 0.0416876 0
0.7729 0.0431983 0
0.80354 0.0465553 0
0.831266 0.0509194 0
0.85655 0.0562295 0
0.879911 0.0621805 0
0.901823 0.0689708 0
0.922972 0.0770886 0
0.94345 0.0857862 0
0.963088 0.0949569 0
0.00259403 0.097734 0.0176699
0.00601205 0.102464 0.0171359
0.0099794 0.106752 0.0171511
0.0176089 0.110674 0.0190433
0.0339666 0.114778 0.0232853
0.0540932 0.117494 0.0265812
0.0717479 0.117235 0.0269932
0.0872969 0.115953 0.025803
0.104829 0.115251 0.0246738
0.127947 0.115267 0.0234989
0.153506 0.115526 0.0213779
0.18027 0.115389 0.0178836
0.211749 0.114443 0.0130922
0.250217 0.112062 0.00741588
0.296559 0.107973 0.000381476
0.349294 0.102068 0
0.407019 0.0952773 0
0.467536 0.0882887 0
0.52694 0.0824903 0
0.582559 0.0775311 0
0.634104 0.0738231 0
0.680888 0.07187 0
0.72253 0.0719615 0
0.760204 0.0741436 0
0.793729 0.0772259 0
0.824231 0.0812848 0
0.851728 0.0866865 0
0.877455 0.0933547 0
0.902113 0.101457 0
0.924987 0.109865 0
0.946532 0.11873 0
0.967315 0.12845 0
0.987701 0.139239 0.00947585
0.000656138 0.121233 0.0171359
0.00392157 0.126818 0.0161135
0.00788891 0.131991 0.015671
0.0148623 0.136568 0.0173495
0.0300298 0.140841 0.0224613
0.0526894 0.143954 0.0280308
0.0747692 0.144625 0.0307774
0.0934005 0.143435 0.0305943
0.11165 0.141787 0.0291142
0.134676 0.140948 0.0277714
0.165316 0.140246 0.0259403
0.199527 0.139147 0.022034
0.234897 0.137957 0.0169528
0.275074 0.135988 0.0106661
0.321202 0.132738 0.00366217
0.374487 0.128023 0
0.43212 0.122576 0
0.491432 0.116899 0
0.549523 0.111894 0
0.604593 0.108415 0
0.655543 0.106554 0
0.702235 0.106523 0
0.743526 0.107713 0
0.780621 0.110628 0
0.814191 0.115267 0
0.844846 0.121309 0
0.873533 0.128649 0
0.899565 0.136385 0
0.924193 0.145129 0
0.947768 0.154986 0.000183108
0.97055 0.165713 0.0103304
0.99292 0.177539 0.0214694
1 0.189532 0.0329442
0 0.148821 0.0153201
0.000854505 0.155306 0.0140688
0.00476081 0.161395 0.0131685
0.0115969 0.166735 0.0145266
0.02533 0.171511 0.0197299
0.0500496 0.175158 0.027863
0.0767834 0.176623 0.0331579
0.0996262 0.175937 0.0349126
0.119646 0.173739 0.0339361
0.142824 0.171725 0.0321508
0.173159 0.169757 0.0295415
0.214527 0.168032 0.0265507
0.259586 0.165576 0.0213016
0.304128 0.16321 0.0146334
0.351431 0.160418 0.00691234
0.4038 0.157321 0
0.460533 0.153277 0
0.518196 0.149416 0
0.574212 0.146227 0
0.628 0.144381 0
0.677775 0.14406 0
0.723186 0.145541 0
0.764721 0.148592 0
0.801648 0.153094 0
0.83537 0.15935 0
0.865934 0.166629 0
0.894743 0.175189 0
0.921904 0.18471 0.000915541
0.947127 0.194965 0.0101778
0.971588 0.206378 0.0206149
0.994644 0.218143 0.0314946
1 0.2309 0.0435645
1 0.244297 0.0565347
0 0.180468 0.0115358
0 0.188479 0.0102693
0.000442512 0.195987 0.00955215
0.00747692 0.20209 0.0107424
0.0203708 0.207294 0.0157473
0.0465553 0.210986 0.0252384
0.078294 0.213367 0.0343786
0.105592 0.21387 0.0385901
0.128557 0.211856 0.038529
0.153124 0.208957 0.0371557
0.18381 0.20557 0.0344244
0.224445 0.202319 0.0305638
0.277226 0.198688 0.0256046
0.332937 0.195346 0.0191043
0.38587 0.19295 0.0115206
0.438056 0.190524 0.00350958
0.492638 0.187884 0
0.547723 0.186374 0
0.601572 0.185565 0
0.653452 0.185641 0
0.701656 0.186908 0
0.745281 0.189899 0
0.785885 0.195087 0
0.822843 0.201465 0
0.856519 0.209186 0
0.887495 0.217777 0.00114443
0.916045 0.227405 0.00927749
0.943877 0.238621 0.0191348
0.969787 0.25037 0.0293431
0.994171 0.262928 0.0404212
1 0.275944 0.0518502
1 0.289723 0.0636606
1 0.304814 0.076112
0 0.217288 0.00611887
0 0.226596 0.00425727
0 0.235599 0.00361639
0.0024567 0.243076 0.00526436
0.015259 0.249485 0.0103304
0.0426032 0.253208 0.0211948
0.0789197 0.255451 0.0332189
0.110506 0.257496 0.0405127
0.13785 0.256443 0.04271
0.16492 0.253193 0.042237
0.196704 0.249027 0.0395514
0.237583 0.243961 0.0353094
0.289525 0.239231 0.0301518
0.35346 0.234409 0.0237736
0.417563 0.230518 0.0163272
0.474952 0.228717 0.00886549
0.528893 0.228458 0.0027924
0.580743 0.228473 0
0.6309 0.229541 0
0.680003 0.231693 0
0.726833 0.235904 0
0.769284 0.241032 0
0.807736 0.247486 0
0.843427 0.255116 0.0016022
0.876631 0.264561 0.00839246
0.907561 0.275273 0.0165713
0.935988 0.286687 0.0251926
0.962371 0.298787 0.0343786
0.98735 0.311513 0.0442206
1 0.325383 0.055375
1 0.339818 0.0664073
1 0.354742 0.0773632
1 0.370047 0.0885481
0 0.259998 0
0 0.270817 0
0 0.281712 0
0 0.290791 0
0.00856031 0.298482 0.00247196
0.0373846 0.303044 0.0145571
0.0776684 0.305135 0.0291447
0.11284 0.30808 0.038941
0.144167 0.3084 0.0435492
0.175387 0.30573 0.0445869
0.210025 0.300389 0.0429541
0.252277 0.294026 0.0392157
0.304601 0.287953 0.0343175
0.36669 0.281941 0.0280003
0.439063 0.27657 0.0209354
0.507652 0.273838 0.0149996
0.564645 0.274189 0.00936904
0.615076 0.276631 0.00477607
0.663279 0.279774 0.00138857
0.70837 0.284779 0.000167849
0.750439 0.290562 0.000244144
0.790158 0.297749 0.00231937
0.827192 0.306233 0.00660716
0.861418 0.316594 0.0125582
0.892393 0.327276 0.0188144
0.921401 0.338842 0.0258793
0.94876 0.351186 0.0342107
0.974685 0.364767 0.0437171
0.998932 0.37879 0.0534371
1 0.393027 0.0632944
1 0.407538 0.0731518
1 0.422415 0.083238
1 0.437781 0.094316
0 0.309758 0
0 0.322789 0
0 0.335134 0
0 0.345586 0
0 0.355062 0
0.0307317 0.360906 0.00595102
0.073991 0.363195 0.022385
0.112779 0.366949 0.0345006
0.147616 0.368521 0.0407111
0.182925 0.367041 0.0429084
0.221149 0.361105 0.0420996
0.265309 0.353719 0.0390631
0.318257 0.346227 0.0348516
0.380468 0.338643 0.0291905
0.451423 0.333043 0.0236057
0.526482 0.329046 0.0179446
0.591974 0.328359 0.0133822
0.646204 0.331853 0.0102693
0.692348 0.337255 0.00833143
0.734051 0.344198 0.00697337
0.77261 0.352163 0.00701915
0.808759 0.361379 0.00946059
0.842557 0.371695 0.0129702
0.873854 0.382742 0.0177462
0.902876 0.394766 0.0234684
0.930831 0.407309 0.03093
0.957015 0.420935 0.0390021
0.981231 0.434333 0.0471962
1 0.44802 0.0557412
1 0.461952 0.0649271
1 0.476417 0.0753185
1 0.49099 0.0852216
1 0.505348 0.0950179
0 0.365988 0
0 0.381826 0
0 0.396399 0
0 0.407996 0
0 0.41799 0
0.0245212 0.42443 0
0.0700542 0.42858 0.0158083
0.111406 0.433326 0.0291447
0.149874 0.436225 0.0365148
0.189593 0.436011 0.0401617
0.232059 0.430838 0.0397192
0.278767 0.422858 0.0368353
0.332464 0.413916 0.032929
0.394354 0.405203 0.0278172
0.462806 0.39765 0.0220035
0.534478 0.393118 0.0171664
0.607126 0.392584 0.014725
0.667948 0.394797 0.0130922
0.716106 0.400519 0.0117494
0.755932 0.408652 0.0111543
0.792081 0.41883 0.0120546
0.825147 0.429175 0.0140078
0.855436 0.440452 0.0168307
0.884291 0.452155 0.0209506
0.912383 0.464729 0.0272984
0.937789 0.477226 0.033463
0.962097 0.490043 0.040528
0.985214 0.503197 0.0482643
1 0.516625 0.0569009
1 0.530098 0.0661326
1 0.54316 0.0745708
1 0.556344 0.0829938
1 0.569833 0.0914473
0 0.428473 0
0 0.445609 0
0 0.461372 0
0 0.474708 0
0 0.485878 0
0.0239719 0.492058 0
0.0690623 0.496162 0.0132753
0.112016 0.501808 0.0267643
0.155184 0.506966 0.0357977
0.199603 0.508721 0.0403906
0.246143 0.50547 0.0398871
0.296696 0.498329 0.0372625
0.351675 0.488518 0.0327611
0.411337 0.478492 0.0266117
0.477668 0.469688 0.0211948
0.54583 0.464012 0.0172427
0.614084 0.461524 0.0142977
0.679774 0.463142 0.01355
0.733272 0.468315 0.0142519
0.775876 0.476982 0.0154574
0.810666 0.486595 0.0171054
0.841016 0.497261 0.0188449
0.869154 0.508843 0.0217899
0.895857 0.52079 0.0257572
0.92163 0.532586 0.0310979
0.945464 0.544762 0.0364691
0.968032 0.557305 0.0426642
0.989242 0.569604 0.0492409
1 0.581872 0.0560159
1 0.594568 0.0627909
1 0.607217 0.0697795
1 0.620233 0.0767987
1 0.632197 0.0837415
0 0.495247 0
0 0.512535 0
0 0.528069 0
0 0.541238 0
0 0.553277 0
0.0303197 0.56022 0.00433356
0.074464 0.566125 0.0189059
0.118624 0.572457 0.0318303
0.165301 0.579004 0.0410315
0.215442 0.581842 0.0456092
0.26714 0.579919 0.0459144
0.321752 0.574273 0.0436866
0.378363 0.564935 0.0387579
0.437705 0.553964 0.0319219
0.500557 0.544457 0.0260929
0.564492 0.537453 0.0211795
0.627237 0.533227 0.017731
0.689433 0.53341 0.0171054
0.746059 0.537102 0.0185702
0.791943 0.54374 0.0211185
0.828138 0.552758 0.0235904
0.857908 0.563638 0.025864
0.883772 0.574914 0.0280613
0.907378 0.586007 0.0305943
0.929229 0.59733 0.0333257
0.950408 0.609522 0.0372015
0.970504 0.62121 0.0416571
0.989334 0.632837 0.0464179
1 0.644282 0.0510567
1 0.656001 0.0564736
1 0.667384 0.0617075
1 0.678767 0.0675212
1 0.690074 0.0730907
0 0.561883 0
0 0.579583 0
0 0.596094 0
0 0.610895 0
0 0.623133 0.00280766
0.0381018 0.630411 0.0151675
0.0812543 0.637675 0.0282902
0.126726 0.645335 0.0398718
0.177707 0.651911 0.0485542
0.232532 0.654932 0.0526284
0.289555 0.653742 0.0527047
0.348272 0.648875 0.050248
0.407202 0.640635 0.0449989
0.46595 0.629297 0.0385595
0.526009 0.61912 0.0323186
0.585794 0.61091 0.0269322
0.644572 0.604791 0.0227817
0.70103 0.603067 0.0214542
0.753735 0.604669 0.0218814
0.800793 0.61001 0.024445
0.839216 0.617823 0.027451
0.869169 0.626947 0.0295415
0.893858 0.637232 0.0314031
0.915831 0.647898 0.0328985
0.935653 0.65922 0.0348211
0.953735 0.669734 0.0367437
0.971222 0.680079 0.0392004
0.987915 0.690623 0.0423438
1 0.701808 0.0462654
1 0.712169 0.0502937
1 0.722057 0.0545815
1 0.731853 0.0587625
1 0.742168 0.0636606
0 0.631067 0
0 0.649317 0.00233463
0 0.666926 0.00646983
0 0.681407 0.0121309
0.00727855 0.693843 0.0202335
0.0479438 0.701854 0.0315251
0.0909438 0.710079 0.0427863
0.138506 0.716487 0.0517433
0.192081 0.721447 0.057847
0.25185 0.724514 0.061387
0.313115 0.723476 0.0610208
0.375952 0.719219 0.0580148
0.437644 0.711574 0.0527047
0.496132 0.701213 0.0457465
0.552163 0.691081 0.0389105
0.608255 0.68191 0.0328679
0.66212 0.674586 0.0277867
0.712947 0.670771 0.0245212
0.760235 0.6701 0.0235752
0.804517 0.67364 0.025391
0.843687 0.679545 0.0284886
0.875502 0.686809 0.0311131
0.901503 0.695262 0.0335699
0.922515 0.704738 0.0350805
0.941207 0.714412 0.0360571
0.958297 0.724056 0.037583
0.97406 0.734035 0.0394141
0.988708 0.743206 0.0409857
1 0.752239 0.0435035
1 0.761364 0.0465858
1 0.770626 0.0500496
1 0.77969 0.0538491
1 0.788083 0.057908
0 0.701488 0.0227665
0 0.71989 0.0271153
0 0.736873 0.0309911
0 0.750835 0.0362554
0.0216831 0.762097 0.0435645
0.060914 0.770703 0.0527504
0.104936 0.777646 0.0610819
0.155108 0.783322 0.0675822
0.212268 0.786206 0.0714733
0.274418 0.78735 0.0733196
0.340383 0.786328 0.0728466
0.406012 0.781323 0.0688792
0.469352 0.77438 0.0630961
0.527291 0.765576 0.0557259
0.581765 0.755962 0.0480812
0.633021 0.74696 0.0410925
0.681926 0.73933 0.0349737
0.727977 0.733928 0.0306706
0.770657 0.731685 0.0285954
0.809873 0.731945 0.0281224
0.84622 0.735363 0.029633
0.879606 0.74165 0.0331121
0.906966 0.748363 0.0359808
0.928923 0.755764 0.0377813
0.946914 0.763714 0.0387274
0.963668 0.772244 0.0403449
0.978576 0.780636 0.0414435
0.992477 0.788876 0.0430915
1 0.796735 0.0452277
1 0.804776 0.0477302
1 0.812406 0.0505989
1 0.820035 0.0538643
1 0.827558 0.0576333
0 0.770306 0.0529793
0 0.786999 0.0579843
0 0.802411 0.0629435
0.0123751 0.815137 0.0680552
0.0418708 0.826276 0.0751354
0.0808423 0.832975 0.081239
0.126604 0.838117 0.0862593
0.179919 0.841413 0.0897383
0.239551 0.842924 0.091783
0.304891 0.842771 0.0923629
0.372778 0.839765 0.0901198
0.440238 0.834257 0.0850233
0.504219 0.827649 0.0783551
0.561929 0.819654 0.0702983
0.614496 0.811292 0.0620279
0.661784 0.80296 0.0536355
0.705257 0.795377 0.0462348
0.7467 0.789868 0.0408942
0.784848 0.786618 0.0369726
0.819684 0.785214 0.03505
0.852781 0.786435 0.0352178
0.883497 0.789563 0.0366979
0.911635 0.794644 0.0397955
0.935409 0.800595 0.0426642
0.955505 0.807355 0.0451514
0.971817 0.814038 0.0465705
0.986038 0.82089 0.0476081
0.999191 0.82797 0.0488899
1 0.835309 0.0508583
1 0.842268 0.0526131
1 0.848951 0.0545357
1 0.855528 0.057145
1 0.862211 0.0599069
0 0.832914 0.0912947
0.00170901 0.847745 0.0962081
0.0150759 0.861662 0.10074
0.0353246 0.873945 0.105776
0.0652628 0.882765 0.109545
0.105196 0.888472 0.112825
0.153216 0.892119 0.11458
0.208011 0.8934 0.114687
0.268956 0.892897 0.114031
0.33463 0.890578 0.11223
0.405447 0.886442 0.108812
0.474632 0.880125 0.102831
0.539239 0.873182 0.0958572
0.597055 0.865263 0.0872511
0.648264 0.85771 0.0787213
0.692973 0.850217 0.0700999
0.732555 0.842908 0.0619364
0.769039 0.837537 0.0553902
0.803265 0.833692 0.0505226
0.834928 0.831205 0.0471504
0.864698 0.831006 0.0459602
0.892439 0.832197 0.0458228
0.918837 0.835431 0.0475929
0.942855 0.839765 0.050248
0.963409 0.844923 0.0525978
0.980606 0.850599 0.0545052
0.99501 0.85687 0.0560006
1 0.862745 0.0570077
1 0.868711 0.0577249
1 0.874846 0.058793
1 0.881132 0.060502
1 0.887098 0.0620737
1 0.892912 0.0636454
0.0136873 0.889326 0.132494
0.02533 0.903151 0.136919
0.0382696 0.916289 0.140902
0.0580606 0.926772 0.143282
0.0893416 0.933501 0.143832
0.130846 0.937484 0.143145
0.180499 0.939498 0.142367
0.236576 0.93933 0.140002
0.297978 0.936934 0.13669
0.363989 0.932525 0.132174
0.435691 0.926421 0.126665
0.506905 0.91957 0.120333
0.572091 0.912352 0.113039
0.629923 0.904616 0.104341
0.680125 0.897505 0.0957504
0.722576 0.89073 0.0873121
0.759579 0.884077 0.0788891
0.792508 0.878706 0.0716564
0.822919 0.874586 0.065919
0.851316 0.871443 0.0611276
0.878248 0.870192 0.0582284
0.903334 0.870161 0.0568093
0.927443 0.871885 0.0570535
0.949706 0.874647 0.058381
0.970306 0.87837 0.0605631
0.988174 0.883055 0.0627604
1 0.888014 0.0643778
1 0.893263 0.0653391
1 0.898619 0.0656596
1 0.904097 0.0663005
1 0.9093 0.0669871
1 0.914672 0.0677348
1 0.919982 0.0686656
0.0356909 0.940368 0.173266
0.0469825 0.953323 0.177478
0.0593881 0.964782 0.179355
0.0801404 0.973983 0.179156
0.11342 0.978744 0.176333
0.157168 0.981262 0.172641
0.207248 0.981201 0.167971
0.263767 0.979263 0.163226
0.325124 0.975586 0.157748
0.392615 0.969711 0.151308
0.4645 0.96202 0.143969
0.536095 0.954009 0.13666
0.601907 0.946014 0.128664
0.65948 0.93843 0.120378
0.709133 0.931731 0.112337
0.750301 0.925521 0.104234
0.784695 0.91989 0.0960708
0.815152 0.914717 0.0884718
0.842908 0.91043 0.0819715
0.867979 0.907027 0.0762188
0.892348 0.904921 0.0720378
0.915358 0.904082 0.069276
0.93698 0.904295 0.0677043
0.957427 0.905791 0.067628
0.976913 0.908721 0.0690166
0.994675 0.912047 0.0708171
1 0.915892 0.0723278
1 0.920211 0.0733654
1 0.925093 0.0742046
1 0.929839 0.0744335
1 0.934524 0.0743725
1 0.939361 0.0744335
1 0.944091 0.0747387
0.0564584 0.987243 0.214099
0.0665141 0.998001 0.215213
0.0793011 1 0.215427
0.101457 1 0.212985
0.137728 1 0.206806
0.182269 1 0.199954
0.233326 1 0.192615
0.28986 1 0.185519
0.35172 1 0.177783
0.419333 1 0.169635
0.491493 0.993393 0.160815
0.563226 0.98407 0.152239
0.629496 0.975067 0.143557
0.686305 0.967407 0.135409
0.734203 0.961151 0.127855
0.774411 0.955322 0.120012
0.807828 0.950423 0.112444
0.83621 0.945907 0.105119
0.861646 0.941802 0.0979934
0.88481 0.938247 0.0914321
0.906798 0.93576 0.0864424
0.927474 0.934249 0.0823682
0.946883 0.933501 0.0794232
0.965698 0.934081 0.077821
0.983383 0.935531 0.0774701
0.999756 0.938109 0.0783551
1 0.941375 0.080293
1 0.944778 0.0813764
1 0.948516 0.082002
1 0.952544 0.0823835
1 0.956985 0.0823987
1 0.961288 0.0821241
1 0.965423 0.0818494
0.0764019 1 0.250446
0.0872053 1 0.250935
0.101061 1 0.24889
0.125307 1 0.243656
0.162509 1 0.234211
0.207782 1 0.225284
0.258686 1 0.21648
0.314656 1 0.207416
0.376486 1 0.198108
