LUTs/Artistic/LUT_CINEMA/Kodak_2383_19.A006C019_181009_E70F.cube
TITLE "Generated by Resolve"
LUT_3D_SIZE 9
0 0 0
0.0183719 0.00157168 0.00114443
0.0482185 0.00112917 0
0.0992599 0 0
0.204517 0 0
0.396689 0 0
0.589303 0 0
0.718669 0 0
0.801678 0 0
0.00340276 0.0234684 0.00903334
0.0342565 0.033341 0.0100862
0.0702983 0.0338445 0.00634775
0.144808 0.0298924 0
0.299733 0.00724804 0
0.516411 0 0
0.686397 0 0
0.796735 0 0
0.873686 0 0
0.00383001 0.077821 0.0173495
0.0368048 0.0928206 0.0223545
0.0995804 0.0932021 0.0207675
0.192813 0.0936446 0.00993362
0.385428 0.071809 0
0.613016 0.0456703 0
0.7729 0.0431983 0
0.879911 0.0621805 0
0.963088 0.0949569 0
0 0.180468 0.0115358
0.0203708 0.207294 0.0157473
0.128557 0.211856 0.038529
0.277226 0.198688 0.0256046
0.492638 0.187884 0
0.701656 0.186908 0
0.856519 0.209186 0
0.969787 0.25037 0.0293431
1 0.304814 0.076112
0 0.365988 0
0 0.41799 0
0.149874 0.436225 0.0365148
0.332464 0.413916 0.032929
0.607126 0.392584 0.014725
0.792081 0.41883 0.0120546
0.912383 0.464729 0.0272984
1 0.516625 0.0569009
1 0.569833 0.0914473
0 0.631067 0
0.00727855 0.693843 0.0202335
0.192081 0.721447 0.057847
0.437644 0.711574 0.0527047
0.66212 0.674586 0.0277867
0.843687 0.679545 0.0284886
0.941207 0.714412 0.0360571
1 0.752239 0.0435035
1 0.788083 0.057908
0.0136873 0.889326 0.132494
0.0893416 0.933501 0.143832
0.297978 0.936934 0.13669
0.572091 0.912352 0.113039
0.759579 0.884077 0.0788891
0.878248 0.870192 0.0582284
0.970306 0.87837 0.0605631
1 0.898619 0.0656596
1 0.919982 0.0686656
0.0935073 1 0.286198
0.184665 1 0.260975
0.40087 1 0.216922
0.677104 1 0.172778
0.846357 0.999313 0.143877
0.933761 0.986404 0.115434
0.997711 0.982177 0.0979019
1 0.988891 0.096849
1 1 0.0962387
0.151324 1 0.422538
0.265949 1 0.357473
0.484489 1 0.287633
0.751781 1 0.226581
0.904402 1 0.20209
0.979629 1 0.17583
1 1 0.146822
1 1 0.129259
1 1 0.12401
0 0.000793469 0.0208438
0.0166171 0.0016022 0.0233005
0.0504921 0.00288396 0.0269322
0.106035 0 0.0241093
0.218936 0 0.00434882
0.414816 0 0
0.60325 0 0
0.728756 0 0
0.810544 0 0
0.00125124 0.0254673 0.0336919
0.0284123 0.0359808 0.0406195
0.068101 0.0415198 0.0446632
0.137423 0.0401617 0.0411994
0.280003 0.0225071 0.0201419
0.494316 0 0
0.675425 0 0
0.795224 0 0
0.878798 0 0
0.00364691 0.0811322 0.0589456
0.0200809 0.0973983 0.063447
0.102815 0.111513 0.0649271
0.193927 0.10869 0.0513466
0.391592 0.0889601 0.0263371
0.617777 0.0668956 0
0.780377 0.0684215 0
0.890745 0.0907759 0.0179904
0.978302 0.127169 0.0542306
0 0.187427 0.0729229
0.0132296 0.220279 0.0721752
0.124453 0.236652 0.090898
0.273823 0.225864 0.0786603
0.490654 0.219837 0.0485237
0.715541 0.219898 0.0354314
0.876127 0.245975 0.0551766
0.990677 0.292134 0.0952926
1 0.349874 0.142153
0 0.379736 0.0652171
0 0.439414 0.0652018
0.129534 0.469871 0.0923476
0.335576 0.464317 0.0994125
0.602579 0.438895 0.0745098
0.790707 0.466529 0.0659342
0.91957 0.510048 0.0807507
1 0.559091 0.11104
1 0.609644 0.142901
0 0.647166 0.125429
0.00144961 0.715267 0.136568
0.164813 0.751675 0.137957
0.434897 0.7505 0.134768
0.662806 0.717968 0.102235
0.841382 0.715404 0.0911269
0.937911 0.74725 0.0894331
1 0.781018 0.093019
1 0.812299 0.107057
0.0184939 0.898344 0.293706
0.0805676 0.945388 0.291859
0.263142 0.956436 0.246311
0.54609 0.931289 0.207385
0.763546 0.905974 0.17528
0.879438 0.890547 0.138857
0.970459 0.895491 0.130709
1 0.91368 0.126497
1 0.933532 0.122377
0.0888685 1 0.481392
0.166567 1 0.437125
0.356802 1 0.355947
0.636118 1 0.285069
0.83856 1 0.254704
0.932647 0.995499 0.217533
0.995178 0.990341 0.182315
1 0.995804 0.172335
1 1 0.162799
0.141161 1 0.646143
0.239536 1 0.566537
0.434195 1 0.463584
0.706554 1 0.367483
0.887724 1 0.330892
0.972915 1 0.304829
1 1 0.257679
1 1 0.222171
1 1 0.207828
0 0.000122072 0.0640726
0.00601205 0.00047303 0.0749676
0.0478218 0.00175479 0.0681621
0.115328 0 0.0686503
0.237385 0 0.0526741
0.440101 0 0.0168002
0.624155 0 0
0.744656 0 0
0.823713 0 0
0 0.0251926 0.0788739
0.0113527 0.0341802 0.100465
0.0646677 0.04094 0.0970321
0.146944 0.0435492 0.101244
0.300053 0.0252842 0.0868849
0.51606 0 0.0518807
0.691798 0 0.0330968
0.808286 0 0.0365759
0.891997 0 0.0569467
0 0.0840162 0.107057
0.0153506 0.102495 0.125719
0.0915694 0.117311 0.131167
0.192081 0.124788 0.135363
0.375647 0.111116 0.117632
0.602731 0.0920882 0.0939345
0.775891 0.0945602 0.0940719
0.895323 0.119387 0.118486
0.989654 0.159411 0.159625
0 0.195407 0.143404
0.0120089 0.228199 0.168399
0.0968643 0.252903 0.175631
0.282597 0.263203 0.172137
0.494942 0.249622 0.137148
0.730861 0.253254 0.134066
0.890288 0.284993 0.161105
1 0.3346 0.203449
1 0.393668 0.24976
0 0.392981 0.183856
0 0.451759 0.212696
0.105821 0.493599 0.216358
0.335561 0.510002 0.208377
0.595575 0.483711 0.173404
0.78967 0.51017 0.15613
0.927596 0.550637 0.174441
1 0.596841 0.204456
1 0.644327 0.235264
0 0.660319 0.300801
0.00354009 0.72575 0.32781
0.141833 0.770687 0.304936
0.401129 0.777325 0.260716
0.66212 0.754284 0.22768
0.836042 0.745892 0.196796
0.932433 0.773816 0.181796
1 0.803113 0.182528
1 0.831235 0.197391
0.0184024 0.90193 0.505974
0.0773175 0.946563 0.514336
0.235966 0.963699 0.451591
0.495323 0.946914 0.367987
0.754238 0.918212 0.327962
0.876173 0.904967 0.276051
0.965972 0.907271 0.248524
1 0.924575 0.229908
1 0.942641 0.217624
0.0838788 1 0.70251
0.153292 1 0.676936
0.321981 1 0.592828
0.578073 1 0.483696
0.814893 1 0.423178
0.924788 0.997375 0.391882
0.987686 0.993103 0.330007
1 0.997589 0.302953
1 1 0.278599
0.132876 1 0.852354
0.220401 1 0.805905
0.39408 1 0.718837
0.647181 1 0.599939
0.856825 1 0.520424
0.958068 1 0.503456
1 1 0.449104
1 1 0.38471
1 1 0.355779
0 0 0.14345
0 0 0.163638
0.0231022 0 0.164843
0.119631 0 0.134371
0.258625 0 0.125856
0.464576 0 0.0973068
0.638285 0 0.0802319
0.75378 0 0.0848554
0.831647 0 0.105348
0 0.0219577 0.168292
0.00393683 0.031342 0.20853
0.0352026 0.0360113 0.225315
0.158587 0.0373083 0.184802
0.324025 0.0238804 0.177966
0.53843 0 0.157946
0.709285 0 0.155978
0.823835 0 0.177096
0.907362 0.00996414 0.208316
0 0.0813611 0.196628
0.00709544 0.104219 0.239826
0.0494392 0.118059 0.265248
0.202029 0.121263 0.240131
0.397818 0.11754 0.241749
0.626566 0.102937 0.237415
0.795361 0.111131 0.246937
0.912795 0.140627 0.278645
1 0.18439 0.328069
0 0.199573 0.248005
0 0.239551 0.286397
0.074876 0.267018 0.306081
0.260182 0.278462 0.309575
0.491691 0.281727 0.308461
0.72163 0.289204 0.309972
0.884962 0.323171 0.338109
0.999207 0.374029 0.380301
1 0.430762 0.426764
0 0.40737 0.319448
0 0.468223 0.369802
0.0990311 0.506294 0.400793
0.299489 0.535515 0.389776
0.599512 0.537987 0.351507
0.790005 0.546715 0.319158
0.928267 0.583749 0.346044
1 0.626902 0.380316
1 0.670924 0.414343
0 0.676158 0.475364
0 0.737575 0.52813
0.137865 0.776715 0.531701
0.353567 0.793927 0.490089
0.653162 0.779248 0.430976
0.824475 0.766964 0.375799
0.92372 0.792325 0.344945
0.99704 0.817426 0.349767
1 0.841764 0.370901
0.0169833 0.908919 0.685313
0.0725109 0.948425 0.719722
0.226322 0.96144 0.688182
0.44651 0.952163 0.624292
0.720699 0.923476 0.533913
0.866499 0.911513 0.496132
0.954299 0.911589 0.444327
1 0.928023 0.406073
1 0.944411 0.389944
0.0806897 1 0.859907
0.146151 1 0.860395
0.307698 1 0.813626
0.529656 1 0.739498
0.774472 1 0.640299
0.909178 0.992905 0.615839
0.973693 0.988754 0.556497
1 0.99237 0.513039
1 1 0.472374
0.128771 1 0.981521
0.21239 1 0.959808
0.378744 1 0.908141
0.603632 1 0.829313
0.817716 1 0.736614
0.937407 1 0.700282
0.995529 1 0.677089
1 1 0.613703
1 1 0.576333
0 0 0.28658
0 0 0.316121
0.00576791 0 0.349706
0.0983444 0 0.27895
0.270222 0 0.240574
0.484474 0 0.224537
0.651911 0 0.223331
0.761303 0 0.241321
0.835843 0 0.27425
0 0.0150301 0.329427
0 0.0226139 0.389227
0.0150912 0.0293584 0.422629
0.134859 0.0214237 0.373342
0.342977 0.00849927 0.317998
0.560876 0 0.312596
0.723445 0 0.327291
0.832761 0 0.360998
0.915587 0.0184787 0.414603
0 0.0767376 0.35996
0 0.0998398 0.434379
0.0273899 0.115969 0.475731
0.170901 0.114687 0.462608
0.426032 0.107561 0.409384
0.650019 0.108476 0.421744
0.811841 0.122866 0.455726
0.928939 0.157183 0.51284
1 0.204776 0.583474
0 0.193103 0.407919
0 0.244999 0.475059
0.0422675 0.278401 0.510597
0.213931 0.293812 0.532174
0.51194 0.283436 0.507317
0.741619 0.308553 0.539208
0.899565 0.348028 0.588556
1 0.399756 0.631205
1 0.456092 0.676387
0 0.415305 0.486656
0 0.486641 0.540719
0.0541543 0.531624 0.575921
0.258946 0.558099 0.591546
0.566247 0.556252 0.576699
0.777783 0.57789 0.589044
0.909468 0.610819 0.612222
0.996521 0.649699 0.63949
1 0.688716 0.66717
0 0.693919 0.623514
0 0.757717 0.677165
0.111513 0.794354 0.700175
0.338506 0.801205 0.700084
0.609567 0.791165 0.659236
0.817075 0.791089 0.623423
0.912291 0.801175 0.590707
0.985534 0.821866 0.6112
1 0.844038 0.637736
0.0162356 0.921279 0.806271
0.0632944 0.959197 0.846357
0.210651 0.967636 0.842054
0.435752 0.95169 0.813993
0.677684 0.927687 0.754559
0.854826 0.915404 0.711376
0.939803 0.912047 0.66952
0.994644 0.926177 0.637217
1 0.939529 0.63592
0.0787518 1 0.953964
0.134142 1 0.969451
0.297398 1 0.943206
0.519173 1 0.896193
0.738277 1 0.832685
0.888243 0.990875 0.780331
0.96199 0.985794 0.758419
1 0.986419 0.722667
1 0.996353 0.690944
0.125917 1 1
0.20264 1 1
0.371496 1 1
0.592508 1 0.956329
0.789029 1 0.894652
0.915053 1 0.842451
0.984619 1 0.829282
1 1 0.795865
1 1 0.767819
0 0 0.498985
0 0 0.525261
0 0 0.576059
0.0668345 0 0.530388
0.239918 0 0.455222
0.491997 0 0.402014
0.656977 0 0.410498
0.764538 0 0.438392
0.839124 0 0.477974
0 0.00285344 0.54873
0 0.0108186 0.601495
0 0.0204929 0.638621
0.0941482 0.0167391 0.623835
0.316228 0 0.555718
0.573495 0 0.502708
0.734066 0 0.524559
0.843351 0 0.565179
0.927108 0.0291295 0.62034
0 0.0689555 0.574731
0 0.0939345 0.644709
0.00958267 0.114397 0.685924
0.125856 0.121126 0.687343
0.399908 0.0944533 0.656474
0.668605 0.0975204 0.614466
0.830716 0.131456 0.656062
0.947219 0.175509 0.714336
1 0.227375 0.783047
0 0.192126 0.601373
0 0.250614 0.666148
0.0172427 0.289555 0.712062
0.173632 0.310307 0.747387
0.473854 0.300679 0.751598
0.767971 0.31339 0.728771
0.917571 0.371908 0.776379
1 0.426505 0.826749
1 0.480827 0.877104
0 0.414801 0.629862
0 0.504845 0.691081
0.0247654 0.555398 0.737255
0.211551 0.584512 0.7738
0.509529 0.58378 0.780133
0.791775 0.583291 0.768795
0.915099 0.629633 0.80058
0.997024 0.667445 0.831556
1 0.704265 0.852674
0 0.708522 0.738384
0 0.780011 0.793408
0.0731365 0.820249 0.828519
0.275547 0.830167 0.832959
0.567315 0.809216 0.8056
0.79678 0.798123 0.787808
0.90248 0.813687 0.799374
0.971405 0.831525 0.813275
1 0.85124 0.830503
0.0155947 0.93463 0.89427
0.0549325 0.97377 0.934188
0.173068 0.986099 0.940719
0.395727 0.967651 0.918471
0.665385 0.93164 0.878202
0.83241 0.919707 0.84863
0.934218 0.921614 0.832166
0.984955 0.927062 0.814466
1 0.938033 0.826154
0.0770581 1 1
0.117388 1 1
0.269703 1 1
0.498909 1 0.981796
0.731746 1 0.935317
0.867124 0.992279 0.901579
0.955413 0.98732 0.880293
1 0.985595 0.858091
1 0.993271 0.841321
0.12282 1 1
0.182635 1 1
0.352178 1 1
0.581979 1 1
0.783017 1 0.977752
0.897261 1 0.944305
0.973678 1 0.917006
1 1 0.905776
1 1 0.886305
0 0 0.691524
0 0 0.700572
0 0 0.743908
0.0343175 0 0.735805
0.199451 0 0.678233
0.467506 0 0.602197
0.658427 0 0.574762
0.766918 0 0.598474
0.843458 0 0.636164
0 0 0.725353
0 0.00320439 0.7561
0 0.0169985 0.788205
0.0608072 0.0189059 0.792752
0.271031 0 0.755428
0.558007 0 0.686854
0.741695 0 0.674662
0.853269 0 0.714244
0.941741 0.0397955 0.7691
0 0.0641642 0.738003
0 0.092546 0.786999
0 0.11841 0.822141
0.0961471 0.131502 0.838209
0.339269 0.114061 0.831205
0.660731 0.0881208 0.786175
0.84651 0.127672 0.795483
0.967376 0.188525 0.855955
1 0.252201 0.924697
0 0.197238 0.74377
0 0.260075 0.794736
0.00373846 0.305943 0.837049
0.142306 0.332876 0.88658
0.408179 0.334188 0.897337
0.758602 0.317769 0.887068
0.93727 0.374609 0.903334
1 0.448325 0.948913
1 0.508019 0.991958
0 0.429618 0.739239
0 0.525948 0.798032
0.0055848 0.581933 0.847822
0.172808 0.613519 0.901244
0.453635 0.616266 0.909911
0.769848 0.602014 0.907439
0.93193 0.637583 0.909743
1 0.687129 0.930846
1 0.722377 0.952758
0 0.718791 0.820432
0 0.800595 0.880659
0.0548257 0.842695 0.921782
0.239155 0.8533 0.936049
0.515373 0.833478 0.915434
0.765209 0.812894 0.898192
0.909331 0.816449 0.89633
0.974807 0.841047 0.914839
1 0.860151 0.934112
0.0159457 0.945617 0.959915
0.0527047 0.988266 1
0.135149 1 1
0.331807 0.992752 1
0.603906 0.954284 0.956802
0.81146 0.928664 0.926574
0.924422 0.925216 0.919432
0.980117 0.933547 0.926192
1 0.942855 0.934173
0.076173 1 1
0.107179 1 1
0.225711 1 1
0.440314 1 1
0.700603 1 0.993423
0.86125 0.994324 0.966827
0.943908 0.989792 0.953033
0.997711 0.990692 0.94435
1 0.993729 0.934905
0.120287 1 1
0.159289 1 1
0.313176 1 1
0.542565 1 1
0.770169 1 1
0.894148 1 0.998703
0.962463 1 0.98175
1 1 0.970169
1 1 0.958068
0 0 0.812055
0 0 0.81709
0 0 0.845884
0.00747692 0 0.853346
0.158862 0 0.817609
0.436011 0 0.744183
0.646769 0 0.701259
0.769482 0 0.70396
0.848585 0 0.73843
0 0 0.834638
0 0 0.849348
0 0.0184024 0.880217
0.0366064 0.0256504 0.892912
0.218235 0.00601205 0.874372
0.534325 0 0.813275
0.73669 0 0.788235
0.86186 0 0.811337
0.954528 0.0453498 0.866758
0 0.0678111 0.841779
0 0.0945754 0.874952
0 0.127443 0.906294
0.0733806 0.146136 0.931823
0.284413 0.140093 0.936797
0.636912 0.106004 0.903868
0.848768 0.122972 0.903365
0.982605 0.189609 0.947662
1 0.266346 1
0 0.207721 0.834272
0 0.272831 0.876692
0 0.326772 0.913893
0.115282 0.359625 0.970459
0.358419 0.368917 0.990662
0.718242 0.350149 0.987396
0.939925 0.373602 1
1 0.450431 1
1 0.523247 1
0 0.451011 0.814939
0 0.549203 0.872404
0 0.610117 0.919417
0.142107 0.644785 0.981216
0.40174 0.651057 0.993179
0.721538 0.634363 0.9832
0.930495 0.640085 0.996933
1 0.68864 1
1 0.736706 1
0 0.737758 0.885039
0 0.821469 0.945815
0.0439307 0.864286 0.987488
0.205478 0.876936 1
0.46302 0.859693 0.995926
0.733349 0.831739 0.970077
0.898939 0.8262 0.970153
0.983978 0.844892 0.973266
1 0.86949 0.987945
0.0178073 0.955459 1
0.0545205 1 1
0.116152 1 1
0.297078 1 1
0.557519 0.973434 1
0.783795 0.941344 0.985443
0.908827 0.932708 0.978393
0.98381 0.935042 0.977874
1 0.948043 0.988434
0.0758526 1 1
0.103899 1 1
0.186465 1 1
0.377646 1 1
0.638239 1 1
0.830808 1 1
0.93315 0.994492 0.994461
0.992447 0.992615 0.990814
1 0.99704 0.994446
0.118761 1 1
0.147021 1 1
0.266789 1 1
0.4766 1 1
0.727321 1 1
0.879271 1 1
0.959381 1 1
1 1 1
1 1 1
0 0 0.885451
0 0 0.889372
0 0 0.9093
0 0 0.920302
0.121721 0 0.900084
0.398093 0 0.837736
0.632319 0 0.787106
0.764523 0 0.781323
0.85275 0 0.806027
0 0 0.901869
0 0.000213626 0.91313
0 0.0229496 0.938155
0.0195468 0.0349584 0.954025
0.175158 0.0235599 0.948104
0.493812 0 0.896178
0.731197 0 0.867597
0.862425 0 0.883009
0.96585 0.046128 0.932967
0 0.0736248 0.905348
0 0.0943008 0.928206
0 0.139864 0.96083
0.0548562 0.164355 0.989685
0.243839 0.166659 1
0.590356 0.135973 0.981231
0.848798 0.138109 0.982238
0.988098 0.186389 1
1 0.269612 1
0 0.2224 0.892424
0 0.285222 0.929397
0 0.351476 0.963149
0.0912032 0.389853 1
0.316487 0.403952 1
0.665751 0.390356 1
0.930205 0.399084 1
1 0.446372 1
1 0.523598 1
0 0.476799 0.868498
0 0.571664 0.923506
0 0.639124 0.96817
0.114183 0.678401 1
0.35491 0.686305 1
0.675029 0.667262 1
0.904921 0.66424 1
1 0.686015 1
1 0.736202 1
0 0.761013 0.933745
0 0.841901 0.993088
0.0402991 0.885466 1
0.17586 0.900816 1
0.41532 0.88539 1
0.698589 0.852613 1
0.876722 0.84239 1
0.983581 0.846098 1
1 0.870298 1
0.0195621 0.964401 1
0.0580301 1 1
0.103532 1 1
0.263813 1 1
0.50721 0.99469 1
0.752255 0.956329 1
0.8934 0.942306 1
0.978271 0.940154 1
1 0.950103 1
0.0765545 1 1
0.105303 1 1
0.167102 1 1
0.342107 1 1
0.593652 1 1
0.806363 1 1
0.919188 1 1
0.984207 0.996689 1
1 0.997925 1
0.117769 1 1
0.141604 1 1
0.226825 1 1
0.414984 1 1
0.667918 1 1
0.848737 1 1
0.943709 1 1
0.99736 1 1
1 1 1
