LUTs/Damaging/LUT_GREEN/green_midtones2.cube
#Generated by lutCreator.js
#Coded by SirSerch
#https://github.com/SirSerch/LutCreatorJs
TITLE lutCreatorJs_25
LUT_3D_SIZE 5
0.000000 0.000000 0.000000
0.250980 0.000000 0.000000
0.501961 0.000000 0.000000
0.749020 0.000000 0.000000
1.000000 0.000000 0.000000
0.000000 0.427451 0.000000
0.250980 0.427451 0.000000
0.501961 0.427451 0.000000
0.749020 0.427451 0.000000
1.000000 0.427451 0.000000
0.000000 0.721569 0.000000
0.250980 0.721569 0.000000
0.501961 0.721569 0.000000
0.749020 0.721569 0.000000
1.000000 0.721569 0.000000
0.000000 0.886275 0.000000
0.250980 0.886275 0.000000
0.501961 0.886275 0.000000
0.749020 0.886275 0.000000
1.000000 0.886275 0.000000
0.000000 1.000000 0.000000
0.250980 1.000000 0.000000
0.501961 1.000000 0.000000
0.749020 1.000000 0.000000
1.000000 1.000000 0.000000
0.000000 0.000000 0.250980
0.250980 0.000000 0.250980
0.501961 0.000000 0.250980
0.749020 0.000000 0.250980
1.000000 0.000000 0.250980
0.000000 0.427451 0.250980
0.250980 0.427451 0.250980
0.501961 0.427451 0.250980
0.749020 0.427451 0.250980
1.000000 0.427451 0.250980
0.000000 0.721569 0.250980
0.250980 0.721569 0.250980
0.501961 0.721569 0.250980
0.749020 0.721569 0.250980
1.000000 0.721569 0.250980
0.000000 0.886275 0.250980
0.250980 0.886275 0.250980
0.501961 0.886275 0.250980
0.749020 0.886275 0.250980
1.000000 0.886275 0.250980
0.000000 1.000000 0.250980
0.250980 1.000000 0.250980
0.501961 1.000000 0.250980
0.749020 1.000000 0.250980
1.000000 1.000000 0.250980
0.000000 0.000000 0.501961
0.250980 0.000000 0.501961
0.501961 0.000000 0.501961
0.749020 0.000000 0.501961
1.000000 0.000000 0.501961
0.000000 0.427451 0.501961
0.250980 0.427451 0.501961
0.501961 0.427451 0.501961
0.749020 0.427451 0.501961
1.000000 0.427451 0.501961
0.000000 0.721569 0.501961
0.250980 0.721569 0.501961
0.501961 0.721569 0.501961
0.749020 0.721569 0.501961
1.000000 0.721569 0.501961
0.000000 0.886275 0.501961
0.250980 0.886275 0.501961
0.501961 0.886275 0.501961
0.749020 0.886275 0.501961
1.000000 0.886275 0.501961
0.000000 1.000000 0.501961
0.250980 1.000000 0.501961
0.501961 1.000000 0.501961
0.749020 1.000000 0.501961
1.000000 1.000000 0.501961
0.000000 0.000000 0.749020
0.250980 0.000000 0.749020
0.501961 0.000000 0.749020
0.749020 0.000000 0.749020
1.000000 0.000000 0.749020
0.000000 0.427451 0.749020
0.250980 0.427451 0.749020
0.501961 0.427451 0.749020
0.749020 0.427451 0.749020
1.000000 0.427451 0.749020
0.000000 0.721569 0.749020
0.250980 0.721569 0.749020
0.501961 0.721569 0.749020
0.749020 0.721569 0.749020
1.000000 0.721569 0.749020
0.000000 0.886275 0.749020
0.250980 0.886275 0.749020
0.501961 0.886275 0.749020
0.749020 0.886275 0.749020
1.000000 0.886275 0.749020
0.000000 1.000000 0.749020
0.250980 1.000000 0.749020
0.501961 1.000000 0.749020
0.749020 1.000000 0.749020
1.000000 1.000000 0.749020
0.000000 0.000000 1.000000
0.250980 0.000000 1.000000
0.501961 0.000000 1.000000
0.749020 0.000000 1.000000
1.000000 0.000000 1.000000
0.000000 0.427451 1.000000
0.250980 0.427451 1.000000
0.501961 0.427451 1.000000
0.749020 0.427451 1.000000
1.000000 0.427451 1.000000
0.000000 0.721569 1.000000
0.250980 0.721569 1.000000
0.501961 0.721569 1.000000
0.749020 0.721569 1.000000
1.000000 0.721569 1.000000
0.000000 0.886275 1.000000
0.250980 0.886275 1.000000
0.501961 0.886275 1.000000
0.749020 0.886275 1.000000
1.000000 0.886275 1.000000
0.000000 1.000000 1.000000
0.250980 1.000000 1.000000
0.501961 1.000000 1.000000
0.749020 1.000000 1.000000
1.000000 1.000000 1.000000
