LUTs/Damaging/LUT_GREEN/green_highlights.cube
#Generated by lutCreator.js
#Coded by SirSerch
#https://github.com/SirSerch/LutCreatorJs
TITLE lutCreatorJs_25
LUT_3D_SIZE 25
0.000000 0.000000 0.000000
0.043137 0.000000 0.000000
0.082353 0.000000 0.000000
0.125490 0.000000 0.000000
0.168627 0.000000 0.000000
0.207843 0.000000 0.000000
0.250980 0.000000 0.000000
0.290196 0.000000 0.000000
0.333333 0.000000 0.000000
0.376471 0.000000 0.000000
0.415686 0.000000 0.000000
0.458824 0.000000 0.000000
0.501961 0.000000 0.000000
0.541176 0.000000 0.000000
0.584314 0.000000 0.000000
0.623529 0.000000 0.000000
0.666667 0.000000 0.000000
0.709804 0.000000 0.000000
0.749020 0.000000 0.000000
0.792157 0.000000 0.000000
0.835294 0.000000 0.000000
0.874510 0.000000 0.000000
0.917647 0.000000 0.000000
0.956863 0.000000 0.000000
1.000000 0.000000 0.000000
0.000000 0.039216 0.000000
0.043137 0.039216 0.000000
0.082353 0.039216 0.000000
0.125490 0.039216 0.000000
0.168627 0.039216 0.000000
0.207843 0.039216 0.000000
0.250980 0.039216 0.000000
0.290196 0.039216 0.000000
0.333333 0.039216 0.000000
0.376471 0.039216 0.000000
0.415686 0.039216 0.000000
0.458824 0.039216 0.000000
0.501961 0.039216 0.000000
0.541176 0.039216 0.000000
0.584314 0.039216 0.000000
0.623529 0.039216 0.000000
0.666667 0.039216 0.000000
0.709804 0.039216 0.000000
0.749020 0.039216 0.000000
0.792157 0.039216 0.000000
0.835294 0.039216 0.000000
0.874510 0.039216 0.000000
0.917647 0.039216 0.000000
0.956863 0.039216 0.000000
1.000000 0.039216 0.000000
0.000000 0.070588 0.000000
0.043137 0.070588 0.000000
0.082353 0.070588 0.000000
0.125490 0.070588 0.000000
0.168627 0.070588 0.000000
0.207843 0.070588 0.000000
0.250980 0.070588 0.000000
0.290196 0.070588 0.000000
0.333333 0.070588 0.000000
0.376471 0.070588 0.000000
0.415686 0.070588 0.000000
0.458824 0.070588 0.000000
0.501961 0.070588 0.000000
0.541176 0.070588 0.000000
0.584314 0.070588 0.000000
0.623529 0.070588 0.000000
0.666667 0.070588 0.000000
0.709804 0.070588 0.000000
0.749020 0.070588 0.000000
0.792157 0.070588 0.000000
0.835294 0.070588 0.000000
0.874510 0.070588 0.000000
0.917647 0.070588 0.000000
0.956863 0.070588 0.000000
1.000000 0.070588 0.000000
0.000000 0.109804 0.000000
0.043137 0.109804 0.000000
0.082353 0.109804 0.000000
0.125490 0.109804 0.000000
0.168627 0.109804 0.000000
0.207843 0.109804 0.000000
0.250980 0.109804 0.000000
0.290196 0.109804 0.000000
0.333333 0.109804 0.000000
0.376471 0.109804 0.000000
0.415686 0.109804 0.000000
0.458824 0.109804 0.000000
0.501961 0.109804 0.000000
0.541176 0.109804 0.000000
0.584314 0.109804 0.000000
0.623529 0.109804 0.000000
0.666667 0.109804 0.000000
0.709804 0.109804 0.000000
0.749020 0.109804 0.000000
0.792157 0.109804 0.000000
0.835294 0.109804 0.000000
0.874510 0.109804 0.000000
0.917647 0.109804 0.000000
0.956863 0.109804 0.000000
1.000000 0.109804 0.000000
0.000000 0.149020 0.000000
0.043137 0.149020 0.000000
0.082353 0.149020 0.000000
0.125490 0.149020 0.000000
0.168627 0.149020 0.000000
0.207843 0.149020 0.000000
0.250980 0.149020 0.000000
0.290196 0.149020 0.000000
0.333333 0.149020 0.000000
0.376471 0.149020 0.000000
0.415686 0.149020 0.000000
0.458824 0.149020 0.000000
0.501961 0.149020 0.000000
0.541176 0.149020 0.000000
0.584314 0.149020 0.000000
0.623529 0.149020 0.000000
0.666667 0.149020 0.000000
0.709804 0.149020 0.000000
0.749020 0.149020 0.000000
0.792157 0.149020 0.000000
0.835294 0.149020 0.000000
0.874510 0.149020 0.000000
0.917647 0.149020 0.000000
0.956863 0.149020 0.000000
1.000000 0.149020 0.000000
0.000000 0.184314 0.000000
0.043137 0.184314 0.000000
0.082353 0.184314 0.000000
0.125490 0.184314 0.000000
0.168627 0.184314 0.000000
0.207843 0.184314 0.000000
0.250980 0.184314 0.000000
0.290196 0.184314 0.000000
0.333333 0.184314 0.000000
0.376471 0.184314 0.000000
0.415686 0.184314 0.000000
0.458824 0.184314 0.000000
0.501961 0.184314 0.000000
0.541176 0.184314 0.000000
0.584314 0.184314 0.000000
0.623529 0.184314 0.000000
0.666667 0.184314 0.000000
0.709804 0.184314 0.000000
0.749020 0.184314 0.000000
0.792157 0.184314 0.000000
0.835294 0.184314 0.000000
0.874510 0.184314 0.000000
0.917647 0.184314 0.000000
0.956863 0.184314 0.000000
1.000000 0.184314 0.000000
0.000000 0.227451 0.000000
0.043137 0.227451 0.000000
0.082353 0.227451 0.000000
0.125490 0.227451 0.000000
0.168627 0.227451 0.000000
0.207843 0.227451 0.000000
0.250980 0.227451 0.000000
0.290196 0.227451 0.000000
0.333333 0.227451 0.000000
0.376471 0.227451 0.000000
0.415686 0.227451 0.000000
0.458824 0.227451 0.000000
0.501961 0.227451 0.000000
0.541176 0.227451 0.000000
0.584314 0.227451 0.000000
0.623529 0.227451 0.000000
0.666667 0.227451 0.000000
0.709804 0.227451 0.000000
0.749020 0.227451 0.000000
0.792157 0.227451 0.000000
0.835294 0.227451 0.000000
0.874510 0.227451 0.000000
0.917647 0.227451 0.000000
0.956863 0.227451 0.000000
1.000000 0.227451 0.000000
0.000000 0.262745 0.000000
0.043137 0.262745 0.000000
0.082353 0.262745 0.000000
0.125490 0.262745 0.000000
0.168627 0.262745 0.000000
0.207843 0.262745 0.000000
0.250980 0.262745 0.000000
0.290196 0.262745 0.000000
0.333333 0.262745 0.000000
0.376471 0.262745 0.000000
0.415686 0.262745 0.000000
0.458824 0.262745 0.000000
0.501961 0.262745 0.000000
0.541176 0.262745 0.000000
0.584314 0.262745 0.000000
0.623529 0.262745 0.000000
0.666667 0.262745 0.000000
0.709804 0.262745 0.000000
0.749020 0.262745 0.000000
0.792157 0.262745 0.000000
0.835294 0.262745 0.000000
0.874510 0.262745 0.000000
0.917647 0.262745 0.000000
0.956863 0.262745 0.000000
1.000000 0.262745 0.000000
0.000000 0.305882 0.000000
0.043137 0.305882 0.000000
0.082353 0.305882 0.000000
0.125490 0.305882 0.000000
0.168627 0.305882 0.000000
0.207843 0.305882 0.000000
0.250980 0.305882 0.000000
0.290196 0.305882 0.000000
0.333333 0.305882 0.000000
0.376471 0.305882 0.000000
0.415686 0.305882 0.000000
0.458824 0.305882 0.000000
0.501961 0.305882 0.000000
0.541176 0.305882 0.000000
0.584314 0.305882 0.000000
0.623529 0.305882 0.000000
0.666667 0.305882 0.000000
0.709804 0.305882 0.000000
0.749020 0.305882 0.000000
0.792157 0.305882 0.000000
0.835294 0.305882 0.000000
0.874510 0.305882 0.000000
0.917647 0.305882 0.000000
0.956863 0.305882 0.000000
1.000000 0.305882 0.000000
0.000000 0.352941 0.000000
0.043137 0.352941 0.000000
0.082353 0.352941 0.000000
0.125490 0.352941 0.000000
0.168627 0.352941 0.000000
0.207843 0.352941 0.000000
0.250980 0.352941 0.000000
0.290196 0.352941 0.000000
0.333333 0.352941 0.000000
0.376471 0.352941 0.000000
0.415686 0.352941 0.000000
0.458824 0.352941 0.000000
0.501961 0.352941 0.000000
0.541176 0.352941 0.000000
0.584314 0.352941 0.000000
0.623529 0.352941 0.000000
0.666667 0.352941 0.000000
0.709804 0.352941 0.000000
0.749020 0.352941 0.000000
0.792157 0.352941 0.000000
0.835294 0.352941 0.000000
0.874510 0.352941 0.000000
0.917647 0.352941 0.000000
0.956863 0.352941 0.000000
1.000000 0.352941 0.000000
0.000000 0.392157 0.000000
0.043137 0.392157 0.000000
0.082353 0.392157 0.000000
0.125490 0.392157 0.000000
0.168627 0.392157 0.000000
0.207843 0.392157 0.000000
0.250980 0.392157 0.000000
0.290196 0.392157 0.000000
0.333333 0.392157 0.000000
0.376471 0.392157 0.000000
0.415686 0.392157 0.000000
0.458824 0.392157 0.000000
0.501961 0.392157 0.000000
0.541176 0.392157 0.000000
0.584314 0.392157 0.000000
0.623529 0.392157 0.000000
0.666667 0.392157 0.000000
0.709804 0.392157 0.000000
0.749020 0.392157 0.000000
0.792157 0.392157 0.000000
0.835294 0.392157 0.000000
0.874510 0.392157 0.000000
0.917647 0.392157 0.000000
0.956863 0.392157 0.000000
1.000000 0.392157 0.000000
0.000000 0.443137 0.000000
0.043137 0.443137 0.000000
0.082353 0.443137 0.000000
0.125490 0.443137 0.000000
0.168627 0.443137 0.000000
0.207843 0.443137 0.000000
0.250980 0.443137 0.000000
0.290196 0.443137 0.000000
0.333333 0.443137 0.000000
0.376471 0.443137 0.000000
0.415686 0.443137 0.000000
0.458824 0.443137 0.000000
0.501961 0.443137 0.000000
0.541176 0.443137 0.000000
0.584314 0.443137 0.000000
0.623529 0.443137 0.000000
0.666667 0.443137 0.000000
0.709804 0.443137 0.000000
0.749020 0.443137 0.000000
0.792157 0.443137 0.000000
0.835294 0.443137 0.000000
0.874510 0.443137 0.000000
0.917647 0.443137 0.000000
0.956863 0.443137 0.000000
1.000000 0.443137 0.000000
0.000000 0.494118 0.000000
0.043137 0.494118 0.000000
0.082353 0.494118 0.000000
0.125490 0.494118 0.000000
0.168627 0.494118 0.000000
0.207843 0.494118 0.000000
0.250980 0.494118 0.000000
0.290196 0.494118 0.000000
0.333333 0.494118 0.000000
0.376471 0.494118 0.000000
0.415686 0.494118 0.000000
0.458824 0.494118 0.000000
0.501961 0.494118 0.000000
0.541176 0.494118 0.000000
0.584314 0.494118 0.000000
0.623529 0.494118 0.000000
0.666667 0.494118 0.000000
0.709804 0.494118 0.000000
0.749020 0.494118 0.000000
0.792157 0.494118 0.000000
0.835294 0.494118 0.000000
0.874510 0.494118 0.000000
0.917647 0.494118 0.000000
0.956863 0.494118 0.000000
1.000000 0.494118 0.000000
0.000000 0.541176 0.000000
0.043137 0.541176 0.000000
0.082353 0.541176 0.000000
0.125490 0.541176 0.000000
0.168627 0.541176 0.000000
0.207843 0.541176 0.000000
0.250980 0.541176 0.000000
0.290196 0.541176 0.000000
0.333333 0.541176 0.000000
0.376471 0.541176 0.000000
0.415686 0.541176 0.000000
0.458824 0.541176 0.000000
0.501961 0.541176 0.000000
0.541176 0.541176 0.000000
0.584314 0.541176 0.000000
0.623529 0.541176 0.000000
0.666667 0.541176 0.000000
0.709804 0.541176 0.000000
0.749020 0.541176 0.000000
0.792157 0.541176 0.000000
0.835294 0.541176 0.000000
0.874510 0.541176 0.000000
0.917647 0.541176 0.000000
0.956863 0.541176 0.000000
1.000000 0.541176 0.000000
0.000000 0.596078 0.000000
0.043137 0.596078 0.000000
0.082353 0.596078 0.000000
0.125490 0.596078 0.000000
0.168627 0.596078 0.000000
0.207843 0.596078 0.000000
0.250980 0.596078 0.000000
0.290196 0.596078 0.000000
0.333333 0.596078 0.000000
0.376471 0.596078 0.000000
0.415686 0.596078 0.000000
0.458824 0.596078 0.000000
0.501961 0.596078 0.000000
0.541176 0.596078 0.000000
0.584314 0.596078 0.000000
0.623529 0.596078 0.000000
0.666667 0.596078 0.000000
0.709804 0.596078 0.000000
0.749020 0.596078 0.000000
0.792157 0.596078 0.000000
0.835294 0.596078 0.000000
0.874510 0.596078 0.000000
0.917647 0.596078 0.000000
0.956863 0.596078 0.000000
1.000000 0.596078 0.000000
0.000000 0.670588 0.000000
0.043137 0.670588 0.000000
0.082353 0.670588 0.000000
0.125490 0.670588 0.000000
0.168627 0.670588 0.000000
0.207843 0.670588 0.000000
0.250980 0.670588 0.000000
0.290196 0.670588 0.000000
0.333333 0.670588 0.000000
0.376471 0.670588 0.000000
0.415686 0.670588 0.000000
0.458824 0.670588 0.000000
0.501961 0.670588 0.000000
0.541176 0.670588 0.000000
0.584314 0.670588 0.000000
0.623529 0.670588 0.000000
0.666667 0.670588 0.000000
0.709804 0.670588 0.000000
0.749020 0.670588 0.000000
0.792157 0.670588 0.000000
0.835294 0.670588 0.000000
0.874510 0.670588 0.000000
0.917647 0.670588 0.000000
0.956863 0.670588 0.000000
1.000000 0.670588 0.000000
0.000000 0.878431 0.000000
0.043137 0.878431 0.000000
0.082353 0.878431 0.000000
0.125490 0.878431 0.000000
0.168627 0.878431 0.000000
0.207843 0.878431 0.000000
0.250980 0.878431 0.000000
0.290196 0.878431 0.000000
0.333333 0.878431 0.000000
0.376471 0.878431 0.000000
0.415686 0.878431 0.000000
0.458824 0.878431 0.000000
0.501961 0.878431 0.000000
0.541176 0.878431 0.000000
0.584314 0.878431 0.000000
0.623529 0.878431 0.000000
0.666667 0.878431 0.000000
0.709804 0.878431 0.000000
0.749020 0.878431 0.000000
0.792157 0.878431 0.000000
0.835294 0.878431 0.000000
0.874510 0.878431 0.000000
0.917647 0.878431 0.000000
0.956863 0.878431 0.000000
1.000000 0.878431 0.000000
0.000000 0.941176 0.000000
0.043137 0.941176 0.000000
0.082353 0.941176 0.000000
0.125490 0.941176 0.000000
0.168627 0.941176 0.000000
0.207843 0.941176 0.000000
0.250980 0.941176 0.000000
0.290196 0.941176 0.000000
0.333333 0.941176 0.000000
0.376471 0.941176 0.000000
0.415686 0.941176 0.000000
0.458824 0.941176 0.000000
0.501961 0.941176 0.000000
0.541176 0.941176 0.000000
0.584314 0.941176 0.000000
0.623529 0.941176 0.000000
0.666667 0.941176 0.000000
0.709804 0.941176 0.000000
0.749020 0.941176 0.000000
0.792157 0.941176 0.000000
0.835294 0.941176 0.000000
0.874510 0.941176 0.000000
0.917647 0.941176 0.000000
0.956863 0.941176 0.000000
1.000000 0.941176 0.000000
0.000000 0.968627 0.000000
0.043137 0.968627 0.000000
0.082353 0.968627 0.000000
0.125490 0.968627 0.000000
0.168627 0.968627 0.000000
0.207843 0.968627 0.000000
0.250980 0.968627 0.000000
0.290196 0.968627 0.000000
0.333333 0.968627 0.000000
0.376471 0.968627 0.000000
0.415686 0.968627 0.000000
0.458824 0.968627 0.000000
0.501961 0.968627 0.000000
0.541176 0.968627 0.000000
0.584314 0.968627 0.000000
0.623529 0.968627 0.000000
0.666667 0.968627 0.000000
0.709804 0.968627 0.000000
0.749020 0.968627 0.000000
0.792157 0.968627 0.000000
0.835294 0.968627 0.000000
0.874510 0.968627 0.000000
0.917647 0.968627 0.000000
0.956863 0.968627 0.000000
1.000000 0.968627 0.000000
0.000000 0.988235 0.000000
0.043137 0.988235 0.000000
0.082353 0.988235 0.000000
0.125490 0.988235 0.000000
0.168627 0.988235 0.000000
0.207843 0.988235 0.000000
0.250980 0.988235 0.000000
0.290196 0.988235 0.000000
0.333333 0.988235 0.000000
0.376471 0.988235 0.000000
0.415686 0.988235 0.000000
0.458824 0.988235 0.000000
0.501961 0.988235 0.000000
0.541176 0.988235 0.000000
0.584314 0.988235 0.000000
0.623529 0.988235 0.000000
0.666667 0.988235 0.000000
0.709804 0.988235 0.000000
0.749020 0.988235 0.000000
0.792157 0.988235 0.000000
0.835294 0.988235 0.000000
0.874510 0.988235 0.000000
0.917647 0.988235 0.000000
0.956863 0.988235 0.000000
1.000000 0.988235 0.000000
0.000000 1.000000 0.000000
0.043137 1.000000 0.000000
0.082353 1.000000 0.000000
0.125490 1.000000 0.000000
0.168627 1.000000 0.000000
0.207843 1.000000 0.000000
0.250980 1.000000 0.000000
0.290196 1.000000 0.000000
0.333333 1.000000 0.000000
0.376471 1.000000 0.000000
0.415686 1.000000 0.000000
0.458824 1.000000 0.000000
0.501961 1.000000 0.000000
0.541176 1.000000 0.000000
0.584314 1.000000 0.000000
0.623529 1.000000 0.000000
0.666667 1.000000 0.000000
0.709804 1.000000 0.000000
0.749020 1.000000 0.000000
0.792157 1.000000 0.000000
0.835294 1.000000 0.000000
0.874510 1.000000 0.000000
0.917647 1.000000 0.000000
0.956863 1.000000 0.000000
1.000000 1.000000 0.000000
0.000000 1.000000 0.000000
0.043137 1.000000 0.000000
0.082353 1.000000 0.000000
0.125490 1.000000 0.000000
0.168627 1.000000 0.000000
0.207843 1.000000 0.000000
0.250980 1.000000 0.000000
0.290196 1.000000 0.000000
0.333333 1.000000 0.000000
0.376471 1.000000 0.000000
0.415686 1.000000 0.000000
0.458824 1.000000 0.000000
0.501961 1.000000 0.000000
0.541176 1.000000 0.000000
0.584314 1.000000 0.000000
0.623529 1.000000 0.000000
0.666667 1.000000 0.000000
0.709804 1.000000 0.000000
0.749020 1.000000 0.000000
0.792157 1.000000 0.000000
0.835294 1.000000 0.000000
0.874510 1.000000 0.000000
0.917647 1.000000 0.000000
0.956863 1.000000 0.000000
1.000000 1.000000 0.000000
0.000000 1.000000 0.000000
0.043137 1.000000 0.000000
0.082353 1.000000 0.000000
0.125490 1.000000 0.000000
0.168627 1.000000 0.000000
0.207843 1.000000 0.000000
0.250980 1.000000 0.000000
0.290196 1.000000 0.000000
0.333333 1.000000 0.000000
0.376471 1.000000 0.000000
0.415686 1.000000 0.000000
0.458824 1.000000 0.000000
0.501961 1.000000 0.000000
0.541176 1.000000 0.000000
0.584314 1.000000 0.000000
0.623529 1.000000 0.000000
0.666667 1.000000 0.000000
0.709804 1.000000 0.000000
0.749020 1.000000 0.000000
0.792157 1.000000 0.000000
0.835294 1.000000 0.000000
0.874510 1.000000 0.000000
0.917647 1.000000 0.000000
0.956863 1.000000 0.000000
1.000000 1.000000 0.000000
0.000000 1.000000 0.000000
0.043137 1.000000 0.000000
0.082353 1.000000 0.000000
0.125490 1.000000 0.000000
0.168627 1.000000 0.000000
0.207843 1.000000 0.000000
0.250980 1.000000 0.000000
0.290196 1.000000 0.000000
0.333333 1.000000 0.000000
0.376471 1.000000 0.000000
0.415686 1.000000 0.000000
0.458824 1.000000 0.000000
0.501961 1.000000 0.000000
0.541176 1.000000 0.000000
0.584314 1.000000 0.000000
0.623529 1.000000 0.000000
0.666667 1.000000 0.000000
0.709804 1.000000 0.000000
0.749020 1.000000 0.000000
0.792157 1.000000 0.000000
0.835294 1.000000 0.000000
0.874510 1.000000 0.000000
0.917647 1.000000 0.000000
0.956863 1.000000 0.000000
1.000000 1.000000 0.000000
0.000000 1.000000 0.000000
0.043137 1.000000 0.000000
0.082353 1.000000 0.000000
0.125490 1.000000 0.000000
0.168627 1.000000 0.000000
0.207843 1.000000 0.000000
0.250980 1.000000 0.000000
0.290196 1.000000 0.000000
0.333333 1.000000 0.000000
0.376471 1.000000 0.000000
0.415686 1.000000 0.000000
0.458824 1.000000 0.000000
0.501961 1.000000 0.000000
0.541176 1.000000 0.000000
0.584314 1.000000 0.000000
0.623529 1.000000 0.000000
0.666667 1.000000 0.000000
0.709804 1.000000 0.000000
0.749020 1.000000 0.000000
0.792157 1.000000 0.000000
0.835294 1.000000 0.000000
0.874510 1.000000 0.000000
0.917647 1.000000 0.000000
0.956863 1.000000 0.000000
1.000000 1.000000 0.000000
0.000000 0.000000 0.043137
0.043137 0.000000 0.043137
0.082353 0.000000 0.043137
0.125490 0.000000 0.043137
0.168627 0.000000 0.043137
0.207843 0.000000 0.043137
0.250980 0.000000 0.043137
0.290196 0.000000 0.043137
0.333333 0.000000 0.043137
0.376471 0.000000 0.043137
0.415686 0.000000 0.043137
0.458824 0.000000 0.043137
0.501961 0.000000 0.043137
0.541176 0.000000 0.043137
0.584314 0.000000 0.043137
0.623529 0.000000 0.043137
0.666667 0.000000 0.043137
0.709804 0.000000 0.043137
0.749020 0.000000 0.043137
0.792157 0.000000 0.043137
0.835294 0.000000 0.043137
0.874510 0.000000 0.043137
0.917647 0.000000 0.043137
0.956863 0.000000 0.043137
1.000000 0.000000 0.043137
0.000000 0.039216 0.043137
0.043137 0.039216 0.043137
0.082353 0.039216 0.043137
0.125490 0.039216 0.043137
0.168627 0.039216 0.043137
0.207843 0.039216 0.043137
0.250980 0.039216 0.043137
0.290196 0.039216 0.043137
0.333333 0.039216 0.043137
0.376471 0.039216 0.043137
0.415686 0.039216 0.043137
0.458824 0.039216 0.043137
0.501961 0.039216 0.043137
0.541176 0.039216 0.043137
0.584314 0.039216 0.043137
0.623529 0.039216 0.043137
0.666667 0.039216 0.043137
0.709804 0.039216 0.043137
0.749020 0.039216 0.043137
0.792157 0.039216 0.043137
0.835294 0.039216 0.043137
0.874510 0.039216 0.043137
0.917647 0.039216 0.043137
0.956863 0.039216 0.043137
1.000000 0.039216 0.043137
0.000000 0.070588 0.043137
0.043137 0.070588 0.043137
0.082353 0.070588 0.043137
0.125490 0.070588 0.043137
0.168627 0.070588 0.043137
0.207843 0.070588 0.043137
0.250980 0.070588 0.043137
0.290196 0.070588 0.043137
0.333333 0.070588 0.043137
0.376471 0.070588 0.043137
0.415686 0.070588 0.043137
0.458824 0.070588 0.043137
0.501961 0.070588 0.043137
0.541176 0.070588 0.043137
0.584314 0.070588 0.043137
0.623529 0.070588 0.043137
0.666667 0.070588 0.043137
0.709804 0.070588 0.043137
0.749020 0.070588 0.043137
0.792157 0.070588 0.043137
0.835294 0.070588 0.043137
0.874510 0.070588 0.043137
0.917647 0.070588 0.043137
0.956863 0.070588 0.043137
1.000000 0.070588 0.043137
0.000000 0.109804 0.043137
0.043137 0.109804 0.043137
0.082353 0.109804 0.043137
0.125490 0.109804 0.043137
0.168627 0.109804 0.043137
0.207843 0.109804 0.043137
0.250980 0.109804 0.043137
0.290196 0.109804 0.043137
0.333333 0.109804 0.043137
0.376471 0.109804 0.043137
0.415686 0.109804 0.043137
0.458824 0.109804 0.043137
0.501961 0.109804 0.043137
0.541176 0.109804 0.043137
0.584314 0.109804 0.043137
0.623529 0.109804 0.043137
0.666667 0.109804 0.043137
0.709804 0.109804 0.043137
0.749020 0.109804 0.043137
0.792157 0.109804 0.043137
0.835294 0.109804 0.043137
0.874510 0.109804 0.043137
0.917647 0.109804 0.043137
0.956863 0.109804 0.043137
1.000000 0.109804 0.043137
0.000000 0.149020 0.043137
0.043137 0.149020 0.043137
0.082353 0.149020 0.043137
0.125490 0.149020 0.043137
0.168627 0.149020 0.043137
0.207843 0.149020 0.043137
0.250980 0.149020 0.043137
0.290196 0.149020 0.043137
0.333333 0.149020 0.043137
0.376471 0.149020 0.043137
0.415686 0.149020 0.043137
0.458824 0.149020 0.043137
0.501961 0.149020 0.043137
0.541176 0.149020 0.043137
0.584314 0.149020 0.043137
0.623529 0.149020 0.043137
0.666667 0.149020 0.043137
0.709804 0.149020 0.043137
0.749020 0.149020 0.043137
0.792157 0.149020 0.043137
0.835294 0.149020 0.043137
0.874510 0.149020 0.043137
0.917647 0.149020 0.043137
0.956863 0.149020 0.043137
1.000000 0.149020 0.043137
0.000000 0.184314 0.043137
0.043137 0.184314 0.043137
0.082353 0.184314 0.043137
0.125490 0.184314 0.043137
0.168627 0.184314 0.043137
0.207843 0.184314 0.043137
0.250980 0.184314 0.043137
0.290196 0.184314 0.043137
0.333333 0.184314 0.043137
0.376471 0.184314 0.043137
0.415686 0.184314 0.043137
0.458824 0.184314 0.043137
0.501961 0.184314 0.043137
0.541176 0.184314 0.043137
0.584314 0.184314 0.043137
0.623529 0.184314 0.043137
0.666667 0.184314 0.043137
0.709804 0.184314 0.043137
0.749020 0.184314 0.043137
0.792157 0.184314 0.043137
0.835294 0.184314 0.043137
0.874510 0.184314 0.043137
0.917647 0.184314 0.043137
0.956863 0.184314 0.043137
1.000000 0.184314 0.043137
0.000000 0.227451 0.043137
0.043137 0.227451 0.043137
0.082353 0.227451 0.043137
0.125490 0.227451 0.043137
0.168627 0.227451 0.043137
0.207843 0.227451 0.043137
0.250980 0.227451 0.043137
0.290196 0.227451 0.043137
0.333333 0.227451 0.043137
0.376471 0.227451 0.043137
0.415686 0.227451 0.043137
0.458824 0.227451 0.043137
0.501961 0.227451 0.043137
0.541176 0.227451 0.043137
0.584314 0.227451 0.043137
0.623529 0.227451 0.043137
0.666667 0.227451 0.043137
0.709804 0.227451 0.043137
0.749020 0.227451 0.043137
0.792157 0.227451 0.043137
0.835294 0.227451 0.043137
0.874510 0.227451 0.043137
0.917647 0.227451 0.043137
0.956863 0.227451 0.043137
1.000000 0.227451 0.043137
0.000000 0.262745 0.043137
0.043137 0.262745 0.043137
0.082353 0.262745 0.043137
0.125490 0.262745 0.043137
0.168627 0.262745 0.043137
0.207843 0.262745 0.043137
0.250980 0.262745 0.043137
0.290196 0.262745 0.043137
0.333333 0.262745 0.043137
0.376471 0.262745 0.043137
0.415686 0.262745 0.043137
0.458824 0.262745 0.043137
0.501961 0.262745 0.043137
0.541176 0.262745 0.043137
0.584314 0.262745 0.043137
0.623529 0.262745 0.043137
0.666667 0.262745 0.043137
0.709804 0.262745 0.043137
0.749020 0.262745 0.043137
0.792157 0.262745 0.043137
0.835294 0.262745 0.043137
0.874510 0.262745 0.043137
0.917647 0.262745 0.043137
0.956863 0.262745 0.043137
1.000000 0.262745 0.043137
0.000000 0.305882 0.043137
0.043137 0.305882 0.043137
0.082353 0.305882 0.043137
0.125490 0.305882 0.043137
0.168627 0.305882 0.043137
0.207843 0.305882 0.043137
0.250980 0.305882 0.043137
0.290196 0.305882 0.043137
0.333333 0.305882 0.043137
0.376471 0.305882 0.043137
0.415686 0.305882 0.043137
0.458824 0.305882 0.043137
0.501961 0.305882 0.043137
0.541176 0.305882 0.043137
0.584314 0.305882 0.043137
0.623529 0.305882 0.043137
0.666667 0.305882 0.043137
0.709804 0.305882 0.043137
0.749020 0.305882 0.043137
0.792157 0.305882 0.043137
0.835294 0.305882 0.043137
0.874510 0.305882 0.043137
0.917647 0.305882 0.043137
0.956863 0.305882 0.043137
1.000000 0.305882 0.043137
0.000000 0.352941 0.043137
0.043137 0.352941 0.043137
0.082353 0.352941 0.043137
0.125490 0.352941 0.043137
0.168627 0.352941 0.043137
0.207843 0.352941 0.043137
0.250980 0.352941 0.043137
0.290196 0.352941 0.043137
0.333333 0.352941 0.043137
0.376471 0.352941 0.043137
0.415686 0.352941 0.043137
0.458824 0.352941 0.043137
0.501961 0.352941 0.043137
0.541176 0.352941 0.043137
0.584314 0.352941 0.043137
0.623529 0.352941 0.043137
0.666667 0.352941 0.043137
0.709804 0.352941 0.043137
0.749020 0.352941 0.043137
0.792157 0.352941 0.043137
0.835294 0.352941 0.043137
0.874510 0.352941 0.043137
0.917647 0.352941 0.043137
0.956863 0.352941 0.043137
1.000000 0.352941 0.043137
0.000000 0.392157 0.043137
0.043137 0.392157 0.043137
0.082353 0.392157 0.043137
0.125490 0.392157 0.043137
0.168627 0.392157 0.043137
0.207843 0.392157 0.043137
0.250980 0.392157 0.043137
0.290196 0.392157 0.043137
0.333333 0.392157 0.043137
