LUTs/Damaging/LUT_GREEN/green_midtones2.cube
#Generated by lutCreator.js
#Coded by SirSerch
#https://github.com/SirSerch/LutCreatorJs
TITLE lutCreatorJs_25
LUT_3D_SIZE 25
0.000000 0.000000 0.000000
0.043137 0.000000 0.000000
0.082353 0.000000 0.000000
0.125490 0.000000 0.000000
0.168627 0.000000 0.000000
0.207843 0.000000 0.000000
0.250980 0.000000 0.000000
0.290196 0.000000 0.000000
0.333333 0.000000 0.000000
0.376471 0.000000 0.000000
0.415686 0.000000 0.000000
0.458824 0.000000 0.000000
0.501961 0.000000 0.000000
0.541176 0.000000 0.000000
0.584314 0.000000 0.000000
0.623529 0.000000 0.000000
0.666667 0.000000 0.000000
0.709804 0.000000 0.000000
0.749020 0.000000 0.000000
0.792157 0.000000 0.000000
0.835294 0.000000 0.000000
0.874510 0.000000 0.000000
0.917647 0.000000 0.000000
0.956863 0.000000 0.000000
1.000000 0.000000 0.000000
0.000000 0.078431 0.000000
0.043137 0.078431 0.000000
0.082353 0.078431 0.000000
0.125490 0.078431 0.000000
0.168627 0.078431 0.000000
0.207843 0.078431 0.000000
0.250980 0.078431 0.000000
0.290196 0.078431 0.000000
0.333333 0.078431 0.000000
0.376471 0.078431 0.000000
0.415686 0.078431 0.000000
0.458824 0.078431 0.000000
0.501961 0.078431 0.000000
0.541176 0.078431 0.000000
0.584314 0.078431 0.000000
0.623529 0.078431 0.000000
0.666667 0.078431 0.000000
0.709804 0.078431 0.000000
0.749020 0.078431 0.000000
0.792157 0.078431 0.000000
0.835294 0.078431 0.000000
0.874510 0.078431 0.000000
0.917647 0.078431 0.000000
0.956863 0.078431 0.000000
1.000000 0.078431 0.000000
0.000000 0.145098 0.000000
0.043137 0.145098 0.000000
0.082353 0.145098 0.000000
0.125490 0.145098 0.000000
0.168627 0.145098 0.000000
0.207843 0.145098 0.000000
0.250980 0.145098 0.000000
0.290196 0.145098 0.000000
0.333333 0.145098 0.000000
0.376471 0.145098 0.000000
0.415686 0.145098 0.000000
0.458824 0.145098 0.000000
0.501961 0.145098 0.000000
0.541176 0.145098 0.000000
0.584314 0.145098 0.000000
0.623529 0.145098 0.000000
0.666667 0.145098 0.000000
0.709804 0.145098 0.000000
0.749020 0.145098 0.000000
0.792157 0.145098 0.000000
0.835294 0.145098 0.000000
0.874510 0.145098 0.000000
0.917647 0.145098 0.000000
0.956863 0.145098 0.000000
1.000000 0.145098 0.000000
0.000000 0.223529 0.000000
0.043137 0.223529 0.000000
0.082353 0.223529 0.000000
0.125490 0.223529 0.000000
0.168627 0.223529 0.000000
0.207843 0.223529 0.000000
0.250980 0.223529 0.000000
0.290196 0.223529 0.000000
0.333333 0.223529 0.000000
0.376471 0.223529 0.000000
0.415686 0.223529 0.000000
0.458824 0.223529 0.000000
0.501961 0.223529 0.000000
0.541176 0.223529 0.000000
0.584314 0.223529 0.000000
0.623529 0.223529 0.000000
0.666667 0.223529 0.000000
0.709804 0.223529 0.000000
0.749020 0.223529 0.000000
0.792157 0.223529 0.000000
0.835294 0.223529 0.000000
0.874510 0.223529 0.000000
0.917647 0.223529 0.000000
0.956863 0.223529 0.000000
1.000000 0.223529 0.000000
0.000000 0.294118 0.000000
0.043137 0.294118 0.000000
0.082353 0.294118 0.000000
0.125490 0.294118 0.000000
0.168627 0.294118 0.000000
0.207843 0.294118 0.000000
0.250980 0.294118 0.000000
0.290196 0.294118 0.000000
0.333333 0.294118 0.000000
0.376471 0.294118 0.000000
0.415686 0.294118 0.000000
0.458824 0.294118 0.000000
0.501961 0.294118 0.000000
0.541176 0.294118 0.000000
0.584314 0.294118 0.000000
0.623529 0.294118 0.000000
0.666667 0.294118 0.000000
0.709804 0.294118 0.000000
0.749020 0.294118 0.000000
0.792157 0.294118 0.000000
0.835294 0.294118 0.000000
0.874510 0.294118 0.000000
0.917647 0.294118 0.000000
0.956863 0.294118 0.000000
1.000000 0.294118 0.000000
0.000000 0.360784 0.000000
0.043137 0.360784 0.000000
0.082353 0.360784 0.000000
0.125490 0.360784 0.000000
0.168627 0.360784 0.000000
0.207843 0.360784 0.000000
0.250980 0.360784 0.000000
0.290196 0.360784 0.000000
0.333333 0.360784 0.000000
0.376471 0.360784 0.000000
0.415686 0.360784 0.000000
0.458824 0.360784 0.000000
0.501961 0.360784 0.000000
0.541176 0.360784 0.000000
0.584314 0.360784 0.000000
0.623529 0.360784 0.000000
0.666667 0.360784 0.000000
0.709804 0.360784 0.000000
0.749020 0.360784 0.000000
0.792157 0.360784 0.000000
0.835294 0.360784 0.000000
0.874510 0.360784 0.000000
0.917647 0.360784 0.000000
0.956863 0.360784 0.000000
1.000000 0.360784 0.000000
0.000000 0.427451 0.000000
0.043137 0.427451 0.000000
0.082353 0.427451 0.000000
0.125490 0.427451 0.000000
0.168627 0.427451 0.000000
0.207843 0.427451 0.000000
0.250980 0.427451 0.000000
0.290196 0.427451 0.000000
0.333333 0.427451 0.000000
0.376471 0.427451 0.000000
0.415686 0.427451 0.000000
0.458824 0.427451 0.000000
0.501961 0.427451 0.000000
0.541176 0.427451 0.000000
0.584314 0.427451 0.000000
0.623529 0.427451 0.000000
0.666667 0.427451 0.000000
0.709804 0.427451 0.000000
0.749020 0.427451 0.000000
0.792157 0.427451 0.000000
0.835294 0.427451 0.000000
0.874510 0.427451 0.000000
0.917647 0.427451 0.000000
0.956863 0.427451 0.000000
1.000000 0.427451 0.000000
0.000000 0.482353 0.000000
0.043137 0.482353 0.000000
0.082353 0.482353 0.000000
0.125490 0.482353 0.000000
0.168627 0.482353 0.000000
0.207843 0.482353 0.000000
0.250980 0.482353 0.000000
0.290196 0.482353 0.000000
0.333333 0.482353 0.000000
0.376471 0.482353 0.000000
0.415686 0.482353 0.000000
0.458824 0.482353 0.000000
0.501961 0.482353 0.000000
0.541176 0.482353 0.000000
0.584314 0.482353 0.000000
0.623529 0.482353 0.000000
0.666667 0.482353 0.000000
0.709804 0.482353 0.000000
0.749020 0.482353 0.000000
0.792157 0.482353 0.000000
0.835294 0.482353 0.000000
0.874510 0.482353 0.000000
0.917647 0.482353 0.000000
0.956863 0.482353 0.000000
1.000000 0.482353 0.000000
0.000000 0.545098 0.000000
0.043137 0.545098 0.000000
0.082353 0.545098 0.000000
0.125490 0.545098 0.000000
0.168627 0.545098 0.000000
0.207843 0.545098 0.000000
0.250980 0.545098 0.000000
0.290196 0.545098 0.000000
0.333333 0.545098 0.000000
0.376471 0.545098 0.000000
0.415686 0.545098 0.000000
0.458824 0.545098 0.000000
0.501961 0.545098 0.000000
0.541176 0.545098 0.000000
0.584314 0.545098 0.000000
0.623529 0.545098 0.000000
0.666667 0.545098 0.000000
0.709804 0.545098 0.000000
0.749020 0.545098 0.000000
0.792157 0.545098 0.000000
0.835294 0.545098 0.000000
0.874510 0.545098 0.000000
0.917647 0.545098 0.000000
0.956863 0.545098 0.000000
1.000000 0.545098 0.000000
0.000000 0.596078 0.000000
0.043137 0.596078 0.000000
0.082353 0.596078 0.000000
0.125490 0.596078 0.000000
0.168627 0.596078 0.000000
0.207843 0.596078 0.000000
0.250980 0.596078 0.000000
0.290196 0.596078 0.000000
0.333333 0.596078 0.000000
0.376471 0.596078 0.000000
0.415686 0.596078 0.000000
0.458824 0.596078 0.000000
0.501961 0.596078 0.000000
0.541176 0.596078 0.000000
0.584314 0.596078 0.000000
0.623529 0.596078 0.000000
0.666667 0.596078 0.000000
0.709804 0.596078 0.000000
0.749020 0.596078 0.000000
0.792157 0.596078 0.000000
0.835294 0.596078 0.000000
0.874510 0.596078 0.000000
0.917647 0.596078 0.000000
0.956863 0.596078 0.000000
1.000000 0.596078 0.000000
0.000000 0.639216 0.000000
0.043137 0.639216 0.000000
0.082353 0.639216 0.000000
0.125490 0.639216 0.000000
0.168627 0.639216 0.000000
0.207843 0.639216 0.000000
0.250980 0.639216 0.000000
0.290196 0.639216 0.000000
0.333333 0.639216 0.000000
0.376471 0.639216 0.000000
0.415686 0.639216 0.000000
0.458824 0.639216 0.000000
0.501961 0.639216 0.000000
0.541176 0.639216 0.000000
0.584314 0.639216 0.000000
0.623529 0.639216 0.000000
0.666667 0.639216 0.000000
0.709804 0.639216 0.000000
0.749020 0.639216 0.000000
0.792157 0.639216 0.000000
0.835294 0.639216 0.000000
0.874510 0.639216 0.000000
0.917647 0.639216 0.000000
0.956863 0.639216 0.000000
1.000000 0.639216 0.000000
0.000000 0.682353 0.000000
0.043137 0.682353 0.000000
0.082353 0.682353 0.000000
0.125490 0.682353 0.000000
0.168627 0.682353 0.000000
0.207843 0.682353 0.000000
0.250980 0.682353 0.000000
0.290196 0.682353 0.000000
0.333333 0.682353 0.000000
0.376471 0.682353 0.000000
0.415686 0.682353 0.000000
0.458824 0.682353 0.000000
0.501961 0.682353 0.000000
0.541176 0.682353 0.000000
0.584314 0.682353 0.000000
0.623529 0.682353 0.000000
0.666667 0.682353 0.000000
0.709804 0.682353 0.000000
0.749020 0.682353 0.000000
0.792157 0.682353 0.000000
0.835294 0.682353 0.000000
0.874510 0.682353 0.000000
0.917647 0.682353 0.000000
0.956863 0.682353 0.000000
1.000000 0.682353 0.000000
0.000000 0.721569 0.000000
0.043137 0.721569 0.000000
0.082353 0.721569 0.000000
0.125490 0.721569 0.000000
0.168627 0.721569 0.000000
0.207843 0.721569 0.000000
0.250980 0.721569 0.000000
0.290196 0.721569 0.000000
0.333333 0.721569 0.000000
0.376471 0.721569 0.000000
0.415686 0.721569 0.000000
0.458824 0.721569 0.000000
0.501961 0.721569 0.000000
0.541176 0.721569 0.000000
0.584314 0.721569 0.000000
0.623529 0.721569 0.000000
0.666667 0.721569 0.000000
0.709804 0.721569 0.000000
0.749020 0.721569 0.000000
0.792157 0.721569 0.000000
0.835294 0.721569 0.000000
0.874510 0.721569 0.000000
0.917647 0.721569 0.000000
0.956863 0.721569 0.000000
1.000000 0.721569 0.000000
0.000000 0.752941 0.000000
0.043137 0.752941 0.000000
0.082353 0.752941 0.000000
0.125490 0.752941 0.000000
0.168627 0.752941 0.000000
0.207843 0.752941 0.000000
0.250980 0.752941 0.000000
0.290196 0.752941 0.000000
0.333333 0.752941 0.000000
0.376471 0.752941 0.000000
0.415686 0.752941 0.000000
0.458824 0.752941 0.000000
0.501961 0.752941 0.000000
0.541176 0.752941 0.000000
0.584314 0.752941 0.000000
0.623529 0.752941 0.000000
0.666667 0.752941 0.000000
0.709804 0.752941 0.000000
0.749020 0.752941 0.000000
0.792157 0.752941 0.000000
0.835294 0.752941 0.000000
0.874510 0.752941 0.000000
0.917647 0.752941 0.000000
0.956863 0.752941 0.000000
1.000000 0.752941 0.000000
0.000000 0.784314 0.000000
0.043137 0.784314 0.000000
0.082353 0.784314 0.000000
0.125490 0.784314 0.000000
0.168627 0.784314 0.000000
0.207843 0.784314 0.000000
0.250980 0.784314 0.000000
0.290196 0.784314 0.000000
0.333333 0.784314 0.000000
0.376471 0.784314 0.000000
0.415686 0.784314 0.000000
0.458824 0.784314 0.000000
0.501961 0.784314 0.000000
0.541176 0.784314 0.000000
0.584314 0.784314 0.000000
0.623529 0.784314 0.000000
0.666667 0.784314 0.000000
0.709804 0.784314 0.000000
0.749020 0.784314 0.000000
0.792157 0.784314 0.000000
0.835294 0.784314 0.000000
0.874510 0.784314 0.000000
0.917647 0.784314 0.000000
0.956863 0.784314 0.000000
1.000000 0.784314 0.000000
0.000000 0.811765 0.000000
0.043137 0.811765 0.000000
0.082353 0.811765 0.000000
0.125490 0.811765 0.000000
0.168627 0.811765 0.000000
0.207843 0.811765 0.000000
0.250980 0.811765 0.000000
0.290196 0.811765 0.000000
0.333333 0.811765 0.000000
0.376471 0.811765 0.000000
0.415686 0.811765 0.000000
0.458824 0.811765 0.000000
0.501961 0.811765 0.000000
0.541176 0.811765 0.000000
0.584314 0.811765 0.000000
0.623529 0.811765 0.000000
0.666667 0.811765 0.000000
0.709804 0.811765 0.000000
0.749020 0.811765 0.000000
0.792157 0.811765 0.000000
0.835294 0.811765 0.000000
0.874510 0.811765 0.000000
0.917647 0.811765 0.000000
0.956863 0.811765 0.000000
1.000000 0.811765 0.000000
0.000000 0.839216 0.000000
0.043137 0.839216 0.000000
0.082353 0.839216 0.000000
0.125490 0.839216 0.000000
0.168627 0.839216 0.000000
0.207843 0.839216 0.000000
0.250980 0.839216 0.000000
0.290196 0.839216 0.000000
0.333333 0.839216 0.000000
0.376471 0.839216 0.000000
0.415686 0.839216 0.000000
0.458824 0.839216 0.000000
0.501961 0.839216 0.000000
0.541176 0.839216 0.000000
0.584314 0.839216 0.000000
0.623529 0.839216 0.000000
0.666667 0.839216 0.000000
0.709804 0.839216 0.000000
0.749020 0.839216 0.000000
0.792157 0.839216 0.000000
0.835294 0.839216 0.000000
0.874510 0.839216 0.000000
0.917647 0.839216 0.000000
0.956863 0.839216 0.000000
1.000000 0.839216 0.000000
0.000000 0.866667 0.000000
0.043137 0.866667 0.000000
0.082353 0.866667 0.000000
0.125490 0.866667 0.000000
0.168627 0.866667 0.000000
0.207843 0.866667 0.000000
0.250980 0.866667 0.000000
0.290196 0.866667 0.000000
0.333333 0.866667 0.000000
0.376471 0.866667 0.000000
0.415686 0.866667 0.000000
0.458824 0.866667 0.000000
0.501961 0.866667 0.000000
0.541176 0.866667 0.000000
0.584314 0.866667 0.000000
0.623529 0.866667 0.000000
0.666667 0.866667 0.000000
0.709804 0.866667 0.000000
0.749020 0.866667 0.000000
0.792157 0.866667 0.000000
0.835294 0.866667 0.000000
0.874510 0.866667 0.000000
0.917647 0.866667 0.000000
0.956863 0.866667 0.000000
1.000000 0.866667 0.000000
0.000000 0.886275 0.000000
0.043137 0.886275 0.000000
0.082353 0.886275 0.000000
0.125490 0.886275 0.000000
0.168627 0.886275 0.000000
0.207843 0.886275 0.000000
0.250980 0.886275 0.000000
0.290196 0.886275 0.000000
0.333333 0.886275 0.000000
0.376471 0.886275 0.000000
0.415686 0.886275 0.000000
0.458824 0.886275 0.000000
0.501961 0.886275 0.000000
0.541176 0.886275 0.000000
0.584314 0.886275 0.000000
0.623529 0.886275 0.000000
0.666667 0.886275 0.000000
0.709804 0.886275 0.000000
0.749020 0.886275 0.000000
0.792157 0.886275 0.000000
0.835294 0.886275 0.000000
0.874510 0.886275 0.000000
0.917647 0.886275 0.000000
0.956863 0.886275 0.000000
1.000000 0.886275 0.000000
0.000000 0.909804 0.000000
0.043137 0.909804 0.000000
0.082353 0.909804 0.000000
0.125490 0.909804 0.000000
0.168627 0.909804 0.000000
0.207843 0.909804 0.000000
0.250980 0.909804 0.000000
0.290196 0.909804 0.000000
0.333333 0.909804 0.000000
0.376471 0.909804 0.000000
0.415686 0.909804 0.000000
0.458824 0.909804 0.000000
0.501961 0.909804 0.000000
0.541176 0.909804 0.000000
0.584314 0.909804 0.000000
0.623529 0.909804 0.000000
0.666667 0.909804 0.000000
0.709804 0.909804 0.000000
0.749020 0.909804 0.000000
0.792157 0.909804 0.000000
0.835294 0.909804 0.000000
0.874510 0.909804 0.000000
0.917647 0.909804 0.000000
0.956863 0.909804 0.000000
1.000000 0.909804 0.000000
0.000000 0.929412 0.000000
0.043137 0.929412 0.000000
0.082353 0.929412 0.000000
0.125490 0.929412 0.000000
0.168627 0.929412 0.000000
0.207843 0.929412 0.000000
0.250980 0.929412 0.000000
0.290196 0.929412 0.000000
0.333333 0.929412 0.000000
0.376471 0.929412 0.000000
0.415686 0.929412 0.000000
0.458824 0.929412 0.000000
0.501961 0.929412 0.000000
0.541176 0.929412 0.000000
0.584314 0.929412 0.000000
0.623529 0.929412 0.000000
0.666667 0.929412 0.000000
0.709804 0.929412 0.000000
0.749020 0.929412 0.000000
0.792157 0.929412 0.000000
0.835294 0.929412 0.000000
0.874510 0.929412 0.000000
0.917647 0.929412 0.000000
0.956863 0.929412 0.000000
1.000000 0.929412 0.000000
0.000000 0.945098 0.000000
0.043137 0.945098 0.000000
0.082353 0.945098 0.000000
0.125490 0.945098 0.000000
0.168627 0.945098 0.000000
0.207843 0.945098 0.000000
0.250980 0.945098 0.000000
0.290196 0.945098 0.000000
0.333333 0.945098 0.000000
0.376471 0.945098 0.000000
0.415686 0.945098 0.000000
0.458824 0.945098 0.000000
0.501961 0.945098 0.000000
0.541176 0.945098 0.000000
0.584314 0.945098 0.000000
0.623529 0.945098 0.000000
0.666667 0.945098 0.000000
0.709804 0.945098 0.000000
0.749020 0.945098 0.000000
0.792157 0.945098 0.000000
0.835294 0.945098 0.000000
0.874510 0.945098 0.000000
0.917647 0.945098 0.000000
0.956863 0.945098 0.000000
1.000000 0.945098 0.000000
0.000000 0.964706 0.000000
0.043137 0.964706 0.000000
0.082353 0.964706 0.000000
0.125490 0.964706 0.000000
0.168627 0.964706 0.000000
0.207843 0.964706 0.000000
0.250980 0.964706 0.000000
0.290196 0.964706 0.000000
0.333333 0.964706 0.000000
0.376471 0.964706 0.000000
0.415686 0.964706 0.000000
0.458824 0.964706 0.000000
0.501961 0.964706 0.000000
0.541176 0.964706 0.000000
0.584314 0.964706 0.000000
0.623529 0.964706 0.000000
0.666667 0.964706 0.000000
0.709804 0.964706 0.000000
0.749020 0.964706 0.000000
0.792157 0.964706 0.000000
0.835294 0.964706 0.000000
0.874510 0.964706 0.000000
0.917647 0.964706 0.000000
0.956863 0.964706 0.000000
1.000000 0.964706 0.000000
0.000000 0.980392 0.000000
0.043137 0.980392 0.000000
0.082353 0.980392 0.000000
0.125490 0.980392 0.000000
0.168627 0.980392 0.000000
0.207843 0.980392 0.000000
0.250980 0.980392 0.000000
0.290196 0.980392 0.000000
0.333333 0.980392 0.000000
0.376471 0.980392 0.000000
0.415686 0.980392 0.000000
0.458824 0.980392 0.000000
0.501961 0.980392 0.000000
0.541176 0.980392 0.000000
0.584314 0.980392 0.000000
0.623529 0.980392 0.000000
0.666667 0.980392 0.000000
0.709804 0.980392 0.000000
0.749020 0.980392 0.000000
0.792157 0.980392 0.000000
0.835294 0.980392 0.000000
0.874510 0.980392 0.000000
0.917647 0.980392 0.000000
0.956863 0.980392 0.000000
1.000000 0.980392 0.000000
0.000000 1.000000 0.000000
0.043137 1.000000 0.000000
0.082353 1.000000 0.000000
0.125490 1.000000 0.000000
0.168627 1.000000 0.000000
0.207843 1.000000 0.000000
0.250980 1.000000 0.000000
0.290196 1.000000 0.000000
0.333333 1.000000 0.000000
0.376471 1.000000 0.000000
0.415686 1.000000 0.000000
0.458824 1.000000 0.000000
0.501961 1.000000 0.000000
0.541176 1.000000 0.000000
0.584314 1.000000 0.000000
0.623529 1.000000 0.000000
0.666667 1.000000 0.000000
0.709804 1.000000 0.000000
0.749020 1.000000 0.000000
0.792157 1.000000 0.000000
0.835294 1.000000 0.000000
0.874510 1.000000 0.000000
0.917647 1.000000 0.000000
0.956863 1.000000 0.000000
1.000000 1.000000 0.000000
0.000000 0.000000 0.043137
0.043137 0.000000 0.043137
0.082353 0.000000 0.043137
0.125490 0.000000 0.043137
0.168627 0.000000 0.043137
0.207843 0.000000 0.043137
0.250980 0.000000 0.043137
0.290196 0.000000 0.043137
0.333333 0.000000 0.043137
0.376471 0.000000 0.043137
0.415686 0.000000 0.043137
0.458824 0.000000 0.043137
0.501961 0.000000 0.043137
0.541176 0.000000 0.043137
0.584314 0.000000 0.043137
0.623529 0.000000 0.043137
0.666667 0.000000 0.043137
0.709804 0.000000 0.043137
0.749020 0.000000 0.043137
0.792157 0.000000 0.043137
0.835294 0.000000 0.043137
0.874510 0.000000 0.043137
0.917647 0.000000 0.043137
0.956863 0.000000 0.043137
1.000000 0.000000 0.043137
0.000000 0.078431 0.043137
0.043137 0.078431 0.043137
0.082353 0.078431 0.043137
0.125490 0.078431 0.043137
0.168627 0.078431 0.043137
0.207843 0.078431 0.043137
0.250980 0.078431 0.043137
0.290196 0.078431 0.043137
0.333333 0.078431 0.043137
0.376471 0.078431 0.043137
0.415686 0.078431 0.043137
0.458824 0.078431 0.043137
0.501961 0.078431 0.043137
0.541176 0.078431 0.043137
0.584314 0.078431 0.043137
0.623529 0.078431 0.043137
0.666667 0.078431 0.043137
0.709804 0.078431 0.043137
0.749020 0.078431 0.043137
0.792157 0.078431 0.043137
0.835294 0.078431 0.043137
0.874510 0.078431 0.043137
0.917647 0.078431 0.043137
0.956863 0.078431 0.043137
1.000000 0.078431 0.043137
0.000000 0.145098 0.043137
0.043137 0.145098 0.043137
0.082353 0.145098 0.043137
0.125490 0.145098 0.043137
0.168627 0.145098 0.043137
0.207843 0.145098 0.043137
0.250980 0.145098 0.043137
0.290196 0.145098 0.043137
0.333333 0.145098 0.043137
0.376471 0.145098 0.043137
0.415686 0.145098 0.043137
0.458824 0.145098 0.043137
0.501961 0.145098 0.043137
0.541176 0.145098 0.043137
0.584314 0.145098 0.043137
0.623529 0.145098 0.043137
0.666667 0.145098 0.043137
0.709804 0.145098 0.043137
0.749020 0.145098 0.043137
0.792157 0.145098 0.043137
0.835294 0.145098 0.043137
0.874510 0.145098 0.043137
0.917647 0.145098 0.043137
0.956863 0.145098 0.043137
1.000000 0.145098 0.043137
0.000000 0.223529 0.043137
0.043137 0.223529 0.043137
0.082353 0.223529 0.043137
0.125490 0.223529 0.043137
0.168627 0.223529 0.043137
0.207843 0.223529 0.043137
0.250980 0.223529 0.043137
0.290196 0.223529 0.043137
0.333333 0.223529 0.043137
0.376471 0.223529 0.043137
0.415686 0.223529 0.043137
0.458824 0.223529 0.043137
0.501961 0.223529 0.043137
0.541176 0.223529 0.043137
0.584314 0.223529 0.043137
0.623529 0.223529 0.043137
0.666667 0.223529 0.043137
0.709804 0.223529 0.043137
0.749020 0.223529 0.043137
0.792157 0.223529 0.043137
0.835294 0.223529 0.043137
0.874510 0.223529 0.043137
0.917647 0.223529 0.043137
0.956863 0.223529 0.043137
1.000000 0.223529 0.043137
0.000000 0.294118 0.043137
0.043137 0.294118 0.043137
0.082353 0.294118 0.043137
0.125490 0.294118 0.043137
0.168627 0.294118 0.043137
0.207843 0.294118 0.043137
0.250980 0.294118 0.043137
0.290196 0.294118 0.043137
0.333333 0.294118 0.043137
0.376471 0.294118 0.043137
0.415686 0.294118 0.043137
0.458824 0.294118 0.043137
0.501961 0.294118 0.043137
0.541176 0.294118 0.043137
0.584314 0.294118 0.043137
0.623529 0.294118 0.043137
0.666667 0.294118 0.043137
0.709804 0.294118 0.043137
0.749020 0.294118 0.043137
0.792157 0.294118 0.043137
0.835294 0.294118 0.043137
0.874510 0.294118 0.043137
0.917647 0.294118 0.043137
0.956863 0.294118 0.043137
1.000000 0.294118 0.043137
0.000000 0.360784 0.043137
0.043137 0.360784 0.043137
0.082353 0.360784 0.043137
0.125490 0.360784 0.043137
0.168627 0.360784 0.043137
0.207843 0.360784 0.043137
0.250980 0.360784 0.043137
0.290196 0.360784 0.043137
0.333333 0.360784 0.043137
0.376471 0.360784 0.043137
0.415686 0.360784 0.043137
0.458824 0.360784 0.043137
0.501961 0.360784 0.043137
0.541176 0.360784 0.043137
0.584314 0.360784 0.043137
0.623529 0.360784 0.043137
0.666667 0.360784 0.043137
0.709804 0.360784 0.043137
0.749020 0.360784 0.043137
0.792157 0.360784 0.043137
0.835294 0.360784 0.043137
0.874510 0.360784 0.043137
0.917647 0.360784 0.043137
0.956863 0.360784 0.043137
1.000000 0.360784 0.043137
0.000000 0.427451 0.043137
0.043137 0.427451 0.043137
0.082353 0.427451 0.043137
0.125490 0.427451 0.043137
0.168627 0.427451 0.043137
0.207843 0.427451 0.043137
0.250980 0.427451 0.043137
0.290196 0.427451 0.043137
0.333333 0.427451 0.043137
0.376471 0.427451 0.043137
0.415686 0.427451 0.043137
0.458824 0.427451 0.043137
0.501961 0.427451 0.043137
0.541176 0.427451 0.043137
0.584314 0.427451 0.043137
0.623529 0.427451 0.043137
0.666667 0.427451 0.043137
0.709804 0.427451 0.043137
0.749020 0.427451 0.043137
0.792157 0.427451 0.043137
0.835294 0.427451 0.043137
0.874510 0.427451 0.043137
0.917647 0.427451 0.043137
0.956863 0.427451 0.043137
1.000000 0.427451 0.043137
0.000000 0.482353 0.043137
0.043137 0.482353 0.043137
0.082353 0.482353 0.043137
0.125490 0.482353 0.043137
0.168627 0.482353 0.043137
0.207843 0.482353 0.043137
0.250980 0.482353 0.043137
0.290196 0.482353 0.043137
0.333333 0.482353 0.043137
0.376471 0.482353 0.043137
0.415686 0.482353 0.043137
0.458824 0.482353 0.043137
0.501961 0.482353 0.043137
0.541176 0.482353 0.043137
0.584314 0.482353 0.043137
0.623529 0.482353 0.043137
0.666667 0.482353 0.043137
0.709804 0.482353 0.043137
0.749020 0.482353 0.043137
0.792157 0.482353 0.043137
0.835294 0.482353 0.043137
0.874510 0.482353 0.043137
0.917647 0.482353 0.043137
0.956863 0.482353 0.043137
1.000000 0.482353 0.043137
0.000000 0.545098 0.043137
0.043137 0.545098 0.043137
0.082353 0.545098 0.043137
0.125490 0.545098 0.043137
0.168627 0.545098 0.043137
0.207843 0.545098 0.043137
0.250980 0.545098 0.043137
0.290196 0.545098 0.043137
0.333333 0.545098 0.043137
0.376471 0.545098 0.043137
0.415686 0.545098 0.043137
0.458824 0.545098 0.043137
0.501961 0.545098 0.043137
0.541176 0.545098 0.043137
0.584314 0.545098 0.043137
0.623529 0.545098 0.043137
0.666667 0.545098 0.043137
0.709804 0.545098 0.043137
0.749020 0.545098 0.043137
0.792157 0.545098 0.043137
0.835294 0.545098 0.043137
0.874510 0.545098 0.043137
0.917647 0.545098 0.043137
0.956863 0.545098 0.043137
1.000000 0.545098 0.043137
0.000000 0.596078 0.043137
0.043137 0.596078 0.043137
0.082353 0.596078 0.043137
0.125490 0.596078 0.043137
0.168627 0.596078 0.043137
0.207843 0.596078 0.043137
0.250980 0.596078 0.043137
0.290196 0.596078 0.043137
0.333333 0.596078 0.043137
0.376471 0.596078 0.043137
0.415686 0.596078 0.043137
0.458824 0.596078 0.043137
0.501961 0.596078 0.043137
0.541176 0.596078 0.043137
0.584314 0.596078 0.043137
0.623529 0.596078 0.043137
0.666667 0.596078 0.043137
0.709804 0.596078 0.043137
0.749020 0.596078 0.043137
0.792157 0.596078 0.043137
0.835294 0.596078 0.043137
0.874510 0.596078 0.043137
0.917647 0.596078 0.043137
0.956863 0.596078 0.043137
1.000000 0.596078 0.043137
0.000000 0.639216 0.043137
0.043137 0.639216 0.043137
0.082353 0.639216 0.043137
0.125490 0.639216 0.043137
0.168627 0.639216 0.043137
0.207843 0.639216 0.043137
0.250980 0.639216 0.043137
0.290196 0.639216 0.043137
0.333333 0.639216 0.043137
