LUTs/Damaging/LUT_GREEN/green_midtones2.cube
#Generated by lutCreator.js
#Coded by SirSerch
#https://github.com/SirSerch/LutCreatorJs
TITLE lutCreatorJs_25
LUT_3D_SIZE 9
0.000000 0.000000 0.000000
0.125490 0.000000 0.000000
0.250980 0.000000 0.000000
0.376471 0.000000 0.000000
0.501961 0.000000 0.000000
0.623529 0.000000 0.000000
0.749020 0.000000 0.000000
0.874510 0.000000 0.000000
1.000000 0.000000 0.000000
0.000000 0.223529 0.000000
0.125490 0.223529 0.000000
0.250980 0.223529 0.000000
0.376471 0.223529 0.000000
0.501961 0.223529 0.000000
0.623529 0.223529 0.000000
0.749020 0.223529 0.000000
0.874510 0.223529 0.000000
1.000000 0.223529 0.000000
0.000000 0.427451 0.000000
0.125490 0.427451 0.000000
0.250980 0.427451 0.000000
0.376471 0.427451 0.000000
0.501961 0.427451 0.000000
0.623529 0.427451 0.000000
0.749020 0.427451 0.000000
0.874510 0.427451 0.000000
1.000000 0.427451 0.000000
0.000000 0.596078 0.000000
0.125490 0.596078 0.000000
0.250980 0.596078 0.000000
0.376471 0.596078 0.000000
0.501961 0.596078 0.000000
0.623529 0.596078 0.000000
0.749020 0.596078 0.000000
0.874510 0.596078 0.000000
1.000000 0.596078 0.000000
0.000000 0.721569 0.000000
0.125490 0.721569 0.000000
0.250980 0.721569 0.000000
0.376471 0.721569 0.000000
0.501961 0.721569 0.000000
0.623529 0.721569 0.000000
0.749020 0.721569 0.000000
0.874510 0.721569 0.000000
1.000000 0.721569 0.000000
0.000000 0.811765 0.000000
0.125490 0.811765 0.000000
0.250980 0.811765 0.000000
0.376471 0.811765 0.000000
0.501961 0.811765 0.000000
0.623529 0.811765 0.000000
0.749020 0.811765 0.000000
0.874510 0.811765 0.000000
1.000000 0.811765 0.000000
0.000000 0.886275 0.000000
0.125490 0.886275 0.000000
0.250980 0.886275 0.000000
0.376471 0.886275 0.000000
0.501961 0.886275 0.000000
0.623529 0.886275 0.000000
0.749020 0.886275 0.000000
0.874510 0.886275 0.000000
1.000000 0.886275 0.000000
0.000000 0.945098 0.000000
0.125490 0.945098 0.000000
0.250980 0.945098 0.000000
0.376471 0.945098 0.000000
0.501961 0.945098 0.000000
0.623529 0.945098 0.000000
0.749020 0.945098 0.000000
0.874510 0.945098 0.000000
1.000000 0.945098 0.000000
0.000000 1.000000 0.000000
0.125490 1.000000 0.000000
0.250980 1.000000 0.000000
0.376471 1.000000 0.000000
0.501961 1.000000 0.000000
0.623529 1.000000 0.000000
0.749020 1.000000 0.000000
0.874510 1.000000 0.000000
1.000000 1.000000 0.000000
0.000000 0.000000 0.125490
0.125490 0.000000 0.125490
0.250980 0.000000 0.125490
0.376471 0.000000 0.125490
0.501961 0.000000 0.125490
0.623529 0.000000 0.125490
0.749020 0.000000 0.125490
0.874510 0.000000 0.125490
1.000000 0.000000 0.125490
0.000000 0.223529 0.125490
0.125490 0.223529 0.125490
0.250980 0.223529 0.125490
0.376471 0.223529 0.125490
0.501961 0.223529 0.125490
0.623529 0.223529 0.125490
0.749020 0.223529 0.125490
0.874510 0.223529 0.125490
1.000000 0.223529 0.125490
0.000000 0.427451 0.125490
0.125490 0.427451 0.125490
0.250980 0.427451 0.125490
0.376471 0.427451 0.125490
0.501961 0.427451 0.125490
0.623529 0.427451 0.125490
0.749020 0.427451 0.125490
0.874510 0.427451 0.125490
1.000000 0.427451 0.125490
0.000000 0.596078 0.125490
0.125490 0.596078 0.125490
0.250980 0.596078 0.125490
0.376471 0.596078 0.125490
0.501961 0.596078 0.125490
0.623529 0.596078 0.125490
0.749020 0.596078 0.125490
0.874510 0.596078 0.125490
1.000000 0.596078 0.125490
0.000000 0.721569 0.125490
0.125490 0.721569 0.125490
0.250980 0.721569 0.125490
0.376471 0.721569 0.125490
0.501961 0.721569 0.125490
0.623529 0.721569 0.125490
0.749020 0.721569 0.125490
0.874510 0.721569 0.125490
1.000000 0.721569 0.125490
0.000000 0.811765 0.125490
0.125490 0.811765 0.125490
0.250980 0.811765 0.125490
0.376471 0.811765 0.125490
0.501961 0.811765 0.125490
0.623529 0.811765 0.125490
0.749020 0.811765 0.125490
0.874510 0.811765 0.125490
1.000000 0.811765 0.125490
0.000000 0.886275 0.125490
0.125490 0.886275 0.125490
0.250980 0.886275 0.125490
0.376471 0.886275 0.125490
0.501961 0.886275 0.125490
0.623529 0.886275 0.125490
0.749020 0.886275 0.125490
0.874510 0.886275 0.125490
1.000000 0.886275 0.125490
0.000000 0.945098 0.125490
0.125490 0.945098 0.125490
0.250980 0.945098 0.125490
0.376471 0.945098 0.125490
0.501961 0.945098 0.125490
0.623529 0.945098 0.125490
0.749020 0.945098 0.125490
0.874510 0.945098 0.125490
1.000000 0.945098 0.125490
0.000000 1.000000 0.125490
0.125490 1.000000 0.125490
0.250980 1.000000 0.125490
0.376471 1.000000 0.125490
0.501961 1.000000 0.125490
0.623529 1.000000 0.125490
0.749020 1.000000 0.125490
0.874510 1.000000 0.125490
1.000000 1.000000 0.125490
0.000000 0.000000 0.250980
0.125490 0.000000 0.250980
0.250980 0.000000 0.250980
0.376471 0.000000 0.250980
0.501961 0.000000 0.250980
0.623529 0.000000 0.250980
0.749020 0.000000 0.250980
0.874510 0.000000 0.250980
1.000000 0.000000 0.250980
0.000000 0.223529 0.250980
0.125490 0.223529 0.250980
0.250980 0.223529 0.250980
0.376471 0.223529 0.250980
0.501961 0.223529 0.250980
0.623529 0.223529 0.250980
0.749020 0.223529 0.250980
0.874510 0.223529 0.250980
1.000000 0.223529 0.250980
0.000000 0.427451 0.250980
0.125490 0.427451 0.250980
0.250980 0.427451 0.250980
0.376471 0.427451 0.250980
0.501961 0.427451 0.250980
0.623529 0.427451 0.250980
0.749020 0.427451 0.250980
0.874510 0.427451 0.250980
1.000000 0.427451 0.250980
0.000000 0.596078 0.250980
0.125490 0.596078 0.250980
0.250980 0.596078 0.250980
0.376471 0.596078 0.250980
0.501961 0.596078 0.250980
0.623529 0.596078 0.250980
0.749020 0.596078 0.250980
0.874510 0.596078 0.250980
1.000000 0.596078 0.250980
0.000000 0.721569 0.250980
0.125490 0.721569 0.250980
0.250980 0.721569 0.250980
0.376471 0.721569 0.250980
0.501961 0.721569 0.250980
0.623529 0.721569 0.250980
0.749020 0.721569 0.250980
0.874510 0.721569 0.250980
1.000000 0.721569 0.250980
0.000000 0.811765 0.250980
0.125490 0.811765 0.250980
0.250980 0.811765 0.250980
0.376471 0.811765 0.250980
0.501961 0.811765 0.250980
0.623529 0.811765 0.250980
0.749020 0.811765 0.250980
0.874510 0.811765 0.250980
1.000000 0.811765 0.250980
0.000000 0.886275 0.250980
0.125490 0.886275 0.250980
0.250980 0.886275 0.250980
0.376471 0.886275 0.250980
0.501961 0.886275 0.250980
0.623529 0.886275 0.250980
0.749020 0.886275 0.250980
0.874510 0.886275 0.250980
1.000000 0.886275 0.250980
0.000000 0.945098 0.250980
0.125490 0.945098 0.250980
0.250980 0.945098 0.250980
0.376471 0.945098 0.250980
0.501961 0.945098 0.250980
0.623529 0.945098 0.250980
0.749020 0.945098 0.250980
0.874510 0.945098 0.250980
1.000000 0.945098 0.250980
0.000000 1.000000 0.250980
0.125490 1.000000 0.250980
0.250980 1.000000 0.250980
0.376471 1.000000 0.250980
0.501961 1.000000 0.250980
0.623529 1.000000 0.250980
0.749020 1.000000 0.250980
0.874510 1.000000 0.250980
1.000000 1.000000 0.250980
0.000000 0.000000 0.376471
0.125490 0.000000 0.376471
0.250980 0.000000 0.376471
0.376471 0.000000 0.376471
0.501961 0.000000 0.376471
0.623529 0.000000 0.376471
0.749020 0.000000 0.376471
0.874510 0.000000 0.376471
1.000000 0.000000 0.376471
0.000000 0.223529 0.376471
0.125490 0.223529 0.376471
0.250980 0.223529 0.376471
0.376471 0.223529 0.376471
0.501961 0.223529 0.376471
0.623529 0.223529 0.376471
0.749020 0.223529 0.376471
0.874510 0.223529 0.376471
1.000000 0.223529 0.376471
0.000000 0.427451 0.376471
0.125490 0.427451 0.376471
0.250980 0.427451 0.376471
0.376471 0.427451 0.376471
0.501961 0.427451 0.376471
0.623529 0.427451 0.376471
0.749020 0.427451 0.376471
0.874510 0.427451 0.376471
1.000000 0.427451 0.376471
0.000000 0.596078 0.376471
0.125490 0.596078 0.376471
0.250980 0.596078 0.376471
0.376471 0.596078 0.376471
0.501961 0.596078 0.376471
0.623529 0.596078 0.376471
0.749020 0.596078 0.376471
0.874510 0.596078 0.376471
1.000000 0.596078 0.376471
0.000000 0.721569 0.376471
0.125490 0.721569 0.376471
0.250980 0.721569 0.376471
0.376471 0.721569 0.376471
0.501961 0.721569 0.376471
0.623529 0.721569 0.376471
0.749020 0.721569 0.376471
0.874510 0.721569 0.376471
1.000000 0.721569 0.376471
0.000000 0.811765 0.376471
0.125490 0.811765 0.376471
0.250980 0.811765 0.376471
0.376471 0.811765 0.376471
0.501961 0.811765 0.376471
0.623529 0.811765 0.376471
0.749020 0.811765 0.376471
0.874510 0.811765 0.376471
1.000000 0.811765 0.376471
0.000000 0.886275 0.376471
0.125490 0.886275 0.376471
0.250980 0.886275 0.376471
0.376471 0.886275 0.376471
0.501961 0.886275 0.376471
0.623529 0.886275 0.376471
0.749020 0.886275 0.376471
0.874510 0.886275 0.376471
1.000000 0.886275 0.376471
0.000000 0.945098 0.376471
0.125490 0.945098 0.376471
0.250980 0.945098 0.376471
0.376471 0.945098 0.376471
0.501961 0.945098 0.376471
0.623529 0.945098 0.376471
0.749020 0.945098 0.376471
0.874510 0.945098 0.376471
1.000000 0.945098 0.376471
0.000000 1.000000 0.376471
0.125490 1.000000 0.376471
0.250980 1.000000 0.376471
0.376471 1.000000 0.376471
0.501961 1.000000 0.376471
0.623529 1.000000 0.376471
0.749020 1.000000 0.376471
0.874510 1.000000 0.376471
1.000000 1.000000 0.376471
0.000000 0.000000 0.501961
0.125490 0.000000 0.501961
0.250980 0.000000 0.501961
0.376471 0.000000 0.501961
0.501961 0.000000 0.501961
0.623529 0.000000 0.501961
0.749020 0.000000 0.501961
0.874510 0.000000 0.501961
1.000000 0.000000 0.501961
0.000000 0.223529 0.501961
0.125490 0.223529 0.501961
0.250980 0.223529 0.501961
0.376471 0.223529 0.501961
0.501961 0.223529 0.501961
0.623529 0.223529 0.501961
0.749020 0.223529 0.501961
0.874510 0.223529 0.501961
1.000000 0.223529 0.501961
0.000000 0.427451 0.501961
0.125490 0.427451 0.501961
0.250980 0.427451 0.501961
0.376471 0.427451 0.501961
0.501961 0.427451 0.501961
0.623529 0.427451 0.501961
0.749020 0.427451 0.501961
0.874510 0.427451 0.501961
1.000000 0.427451 0.501961
0.000000 0.596078 0.501961
0.125490 0.596078 0.501961
0.250980 0.596078 0.501961
0.376471 0.596078 0.501961
0.501961 0.596078 0.501961
0.623529 0.596078 0.501961
0.749020 0.596078 0.501961
0.874510 0.596078 0.501961
1.000000 0.596078 0.501961
0.000000 0.721569 0.501961
0.125490 0.721569 0.501961
0.250980 0.721569 0.501961
0.376471 0.721569 0.501961
0.501961 0.721569 0.501961
0.623529 0.721569 0.501961
0.749020 0.721569 0.501961
0.874510 0.721569 0.501961
1.000000 0.721569 0.501961
0.000000 0.811765 0.501961
0.125490 0.811765 0.501961
0.250980 0.811765 0.501961
0.376471 0.811765 0.501961
0.501961 0.811765 0.501961
0.623529 0.811765 0.501961
0.749020 0.811765 0.501961
0.874510 0.811765 0.501961
1.000000 0.811765 0.501961
0.000000 0.886275 0.501961
0.125490 0.886275 0.501961
0.250980 0.886275 0.501961
0.376471 0.886275 0.501961
0.501961 0.886275 0.501961
0.623529 0.886275 0.501961
0.749020 0.886275 0.501961
0.874510 0.886275 0.501961
1.000000 0.886275 0.501961
0.000000 0.945098 0.501961
0.125490 0.945098 0.501961
0.250980 0.945098 0.501961
0.376471 0.945098 0.501961
0.501961 0.945098 0.501961
0.623529 0.945098 0.501961
0.749020 0.945098 0.501961
0.874510 0.945098 0.501961
1.000000 0.945098 0.501961
0.000000 1.000000 0.501961
0.125490 1.000000 0.501961
0.250980 1.000000 0.501961
0.376471 1.000000 0.501961
0.501961 1.000000 0.501961
0.623529 1.000000 0.501961
0.749020 1.000000 0.501961
0.874510 1.000000 0.501961
1.000000 1.000000 0.501961
0.000000 0.000000 0.623529
0.125490 0.000000 0.623529
0.250980 0.000000 0.623529
0.376471 0.000000 0.623529
0.501961 0.000000 0.623529
0.623529 0.000000 0.623529
0.749020 0.000000 0.623529
0.874510 0.000000 0.623529
1.000000 0.000000 0.623529
0.000000 0.223529 0.623529
0.125490 0.223529 0.623529
0.250980 0.223529 0.623529
0.376471 0.223529 0.623529
0.501961 0.223529 0.623529
0.623529 0.223529 0.623529
0.749020 0.223529 0.623529
0.874510 0.223529 0.623529
1.000000 0.223529 0.623529
0.000000 0.427451 0.623529
0.125490 0.427451 0.623529
0.250980 0.427451 0.623529
0.376471 0.427451 0.623529
0.501961 0.427451 0.623529
0.623529 0.427451 0.623529
0.749020 0.427451 0.623529
0.874510 0.427451 0.623529
1.000000 0.427451 0.623529
0.000000 0.596078 0.623529
0.125490 0.596078 0.623529
0.250980 0.596078 0.623529
0.376471 0.596078 0.623529
0.501961 0.596078 0.623529
0.623529 0.596078 0.623529
0.749020 0.596078 0.623529
0.874510 0.596078 0.623529
1.000000 0.596078 0.623529
0.000000 0.721569 0.623529
0.125490 0.721569 0.623529
0.250980 0.721569 0.623529
0.376471 0.721569 0.623529
0.501961 0.721569 0.623529
0.623529 0.721569 0.623529
0.749020 0.721569 0.623529
0.874510 0.721569 0.623529
1.000000 0.721569 0.623529
0.000000 0.811765 0.623529
0.125490 0.811765 0.623529
0.250980 0.811765 0.623529
0.376471 0.811765 0.623529
0.501961 0.811765 0.623529
0.623529 0.811765 0.623529
0.749020 0.811765 0.623529
0.874510 0.811765 0.623529
1.000000 0.811765 0.623529
0.000000 0.886275 0.623529
0.125490 0.886275 0.623529
0.250980 0.886275 0.623529
0.376471 0.886275 0.623529
0.501961 0.886275 0.623529
0.623529 0.886275 0.623529
0.749020 0.886275 0.623529
0.874510 0.886275 0.623529
1.000000 0.886275 0.623529
0.000000 0.945098 0.623529
0.125490 0.945098 0.623529
0.250980 0.945098 0.623529
0.376471 0.945098 0.623529
0.501961 0.945098 0.623529
0.623529 0.945098 0.623529
0.749020 0.945098 0.623529
0.874510 0.945098 0.623529
1.000000 0.945098 0.623529
0.000000 1.000000 0.623529
0.125490 1.000000 0.623529
0.250980 1.000000 0.623529
0.376471 1.000000 0.623529
0.501961 1.000000 0.623529
0.623529 1.000000 0.623529
0.749020 1.000000 0.623529
0.874510 1.000000 0.623529
1.000000 1.000000 0.623529
0.000000 0.000000 0.749020
0.125490 0.000000 0.749020
0.250980 0.000000 0.749020
0.376471 0.000000 0.749020
0.501961 0.000000 0.749020
0.623529 0.000000 0.749020
0.749020 0.000000 0.749020
0.874510 0.000000 0.749020
1.000000 0.000000 0.749020
0.000000 0.223529 0.749020
0.125490 0.223529 0.749020
0.250980 0.223529 0.749020
0.376471 0.223529 0.749020
0.501961 0.223529 0.749020
0.623529 0.223529 0.749020
0.749020 0.223529 0.749020
0.874510 0.223529 0.749020
1.000000 0.223529 0.749020
0.000000 0.427451 0.749020
0.125490 0.427451 0.749020
0.250980 0.427451 0.749020
0.376471 0.427451 0.749020
0.501961 0.427451 0.749020
0.623529 0.427451 0.749020
0.749020 0.427451 0.749020
0.874510 0.427451 0.749020
1.000000 0.427451 0.749020
0.000000 0.596078 0.749020
0.125490 0.596078 0.749020
0.250980 0.596078 0.749020
0.376471 0.596078 0.749020
0.501961 0.596078 0.749020
0.623529 0.596078 0.749020
0.749020 0.596078 0.749020
0.874510 0.596078 0.749020
1.000000 0.596078 0.749020
0.000000 0.721569 0.749020
0.125490 0.721569 0.749020
0.250980 0.721569 0.749020
0.376471 0.721569 0.749020
0.501961 0.721569 0.749020
0.623529 0.721569 0.749020
0.749020 0.721569 0.749020
0.874510 0.721569 0.749020
1.000000 0.721569 0.749020
0.000000 0.811765 0.749020
0.125490 0.811765 0.749020
0.250980 0.811765 0.749020
0.376471 0.811765 0.749020
0.501961 0.811765 0.749020
0.623529 0.811765 0.749020
0.749020 0.811765 0.749020
0.874510 0.811765 0.749020
1.000000 0.811765 0.749020
0.000000 0.886275 0.749020
0.125490 0.886275 0.749020
0.250980 0.886275 0.749020
0.376471 0.886275 0.749020
0.501961 0.886275 0.749020
0.623529 0.886275 0.749020
0.749020 0.886275 0.749020
0.874510 0.886275 0.749020
1.000000 0.886275 0.749020
0.000000 0.945098 0.749020
0.125490 0.945098 0.749020
0.250980 0.945098 0.749020
0.376471 0.945098 0.749020
0.501961 0.945098 0.749020
0.623529 0.945098 0.749020
0.749020 0.945098 0.749020
0.874510 0.945098 0.749020
1.000000 0.945098 0.749020
0.000000 1.000000 0.749020
0.125490 1.000000 0.749020
0.250980 1.000000 0.749020
0.376471 1.000000 0.749020
0.501961 1.000000 0.749020
0.623529 1.000000 0.749020
0.749020 1.000000 0.749020
0.874510 1.000000 0.749020
1.000000 1.000000 0.749020
0.000000 0.000000 0.874510
0.125490 0.000000 0.874510
0.250980 0.000000 0.874510
0.376471 0.000000 0.874510
0.501961 0.000000 0.874510
0.623529 0.000000 0.874510
0.749020 0.000000 0.874510
0.874510 0.000000 0.874510
1.000000 0.000000 0.874510
0.000000 0.223529 0.874510
0.125490 0.223529 0.874510
0.250980 0.223529 0.874510
0.376471 0.223529 0.874510
0.501961 0.223529 0.874510
0.623529 0.223529 0.874510
0.749020 0.223529 0.874510
0.874510 0.223529 0.874510
1.000000 0.223529 0.874510
0.000000 0.427451 0.874510
0.125490 0.427451 0.874510
0.250980 0.427451 0.874510
0.376471 0.427451 0.874510
0.501961 0.427451 0.874510
0.623529 0.427451 0.874510
0.749020 0.427451 0.874510
0.874510 0.427451 0.874510
1.000000 0.427451 0.874510
0.000000 0.596078 0.874510
0.125490 0.596078 0.874510
0.250980 0.596078 0.874510
0.376471 0.596078 0.874510
0.501961 0.596078 0.874510
0.623529 0.596078 0.874510
0.749020 0.596078 0.874510
0.874510 0.596078 0.874510
1.000000 0.596078 0.874510
0.000000 0.721569 0.874510
0.125490 0.721569 0.874510
0.250980 0.721569 0.874510
0.376471 0.721569 0.874510
0.501961 0.721569 0.874510
0.623529 0.721569 0.874510
0.749020 0.721569 0.874510
0.874510 0.721569 0.874510
1.000000 0.721569 0.874510
0.000000 0.811765 0.874510
0.125490 0.811765 0.874510
0.250980 0.811765 0.874510
0.376471 0.811765 0.874510
0.501961 0.811765 0.874510
0.623529 0.811765 0.874510
0.749020 0.811765 0.874510
0.874510 0.811765 0.874510
1.000000 0.811765 0.874510
0.000000 0.886275 0.874510
0.125490 0.886275 0.874510
0.250980 0.886275 0.874510
0.376471 0.886275 0.874510
0.501961 0.886275 0.874510
0.623529 0.886275 0.874510
0.749020 0.886275 0.874510
0.874510 0.886275 0.874510
1.000000 0.886275 0.874510
0.000000 0.945098 0.874510
0.125490 0.945098 0.874510
0.250980 0.945098 0.874510
0.376471 0.945098 0.874510
0.501961 0.945098 0.874510
0.623529 0.945098 0.874510
0.749020 0.945098 0.874510
0.874510 0.945098 0.874510
1.000000 0.945098 0.874510
0.000000 1.000000 0.874510
0.125490 1.000000 0.874510
0.250980 1.000000 0.874510
0.376471 1.000000 0.874510
0.501961 1.000000 0.874510
0.623529 1.000000 0.874510
0.749020 1.000000 0.874510
0.874510 1.000000 0.874510
1.000000 1.000000 0.874510
0.000000 0.000000 1.000000
0.125490 0.000000 1.000000
0.250980 0.000000 1.000000
0.376471 0.000000 1.000000
0.501961 0.000000 1.000000
0.623529 0.000000 1.000000
0.749020 0.000000 1.000000
0.874510 0.000000 1.000000
1.000000 0.000000 1.000000
0.000000 0.223529 1.000000
0.125490 0.223529 1.000000
0.250980 0.223529 1.000000
0.376471 0.223529 1.000000
0.501961 0.223529 1.000000
0.623529 0.223529 1.000000
0.749020 0.223529 1.000000
0.874510 0.223529 1.000000
1.000000 0.223529 1.000000
0.000000 0.427451 1.000000
0.125490 0.427451 1.000000
0.250980 0.427451 1.000000
0.376471 0.427451 1.000000
0.501961 0.427451 1.000000
0.623529 0.427451 1.000000
0.749020 0.427451 1.000000
0.874510 0.427451 1.000000
1.000000 0.427451 1.000000
0.000000 0.596078 1.000000
0.125490 0.596078 1.000000
0.250980 0.596078 1.000000
0.376471 0.596078 1.000000
0.501961 0.596078 1.000000
0.623529 0.596078 1.000000
0.749020 0.596078 1.000000
0.874510 0.596078 1.000000
1.000000 0.596078 1.000000
0.000000 0.721569 1.000000
0.125490 0.721569 1.000000
0.250980 0.721569 1.000000
0.376471 0.721569 1.000000
0.501961 0.721569 1.000000
0.623529 0.721569 1.000000
0.749020 0.721569 1.000000
0.874510 0.721569 1.000000
1.000000 0.721569 1.000000
0.000000 0.811765 1.000000
0.125490 0.811765 1.000000
0.250980 0.811765 1.000000
0.376471 0.811765 1.000000
0.501961 0.811765 1.000000
0.623529 0.811765 1.000000
0.749020 0.811765 1.000000
0.874510 0.811765 1.000000
1.000000 0.811765 1.000000
0.000000 0.886275 1.000000
0.125490 0.886275 1.000000
0.250980 0.886275 1.000000
0.376471 0.886275 1.000000
0.501961 0.886275 1.000000
0.623529 0.886275 1.000000
0.749020 0.886275 1.000000
0.874510 0.886275 1.000000
1.000000 0.886275 1.000000
0.000000 0.945098 1.000000
0.125490 0.945098 1.000000
0.250980 0.945098 1.000000
0.376471 0.945098 1.000000
0.501961 0.945098 1.000000
0.623529 0.945098 1.000000
0.749020 0.945098 1.000000
0.874510 0.945098 1.000000
1.000000 0.945098 1.000000
0.000000 1.000000 1.000000
0.125490 1.000000 1.000000
0.250980 1.000000 1.000000
0.376471 1.000000 1.000000
0.501961 1.000000 1.000000
0.623529 1.000000 1.000000
0.749020 1.000000 1.000000
0.874510 1.000000 1.000000
1.000000 1.000000 1.000000
