LUTs/Damaging/LUT_GREEN/green_highlights.cube
#Generated by lutCreator.js
#Coded by SirSerch
#https://github.com/SirSerch/LutCreatorJs
TITLE lutCreatorJs_25
LUT_3D_SIZE 5
0.000000 0.000000 0.000000
0.250980 0.000000 0.000000
0.501961 0.000000 0.000000
0.749020 0.000000 0.000000
1.000000 0.000000 0.000000
0.000000 0.227451 0.000000
0.250980 0.227451 0.000000
0.501961 0.227451 0.000000
0.749020 0.227451 0.000000
1.000000 0.227451 0.000000
0.000000 0.494118 0.000000
0.250980 0.494118 0.000000
0.501961 0.494118 0.000000
0.749020 0.494118 0.000000
1.000000 0.494118 0.000000
0.000000 0.968627 0.000000
0.250980 0.968627 0.000000
0.501961 0.968627 0.000000
0.749020 0.968627 0.000000
1.000000 0.968627 0.000000
0.000000 1.000000 0.000000
0.250980 1.000000 0.000000
0.501961 1.000000 0.000000
0.749020 1.000000 0.000000
1.000000 1.000000 0.000000
0.000000 0.000000 0.250980
0.250980 0.000000 0.250980
0.501961 0.000000 0.250980
0.749020 0.000000 0.250980
1.000000 0.000000 0.250980
0.000000 0.227451 0.250980
0.250980 0.227451 0.250980
0.501961 0.227451 0.250980
0.749020 0.227451 0.250980
1.000000 0.227451 0.250980
0.000000 0.494118 0.250980
0.250980 0.494118 0.250980
0.501961 0.494118 0.250980
0.749020 0.494118 0.250980
1.000000 0.494118 0.250980
0.000000 0.968627 0.250980
0.250980 0.968627 0.250980
0.501961 0.968627 0.250980
0.749020 0.968627 0.250980
1.000000 0.968627 0.250980
0.000000 1.000000 0.250980
0.250980 1.000000 0.250980
0.501961 1.000000 0.250980
0.749020 1.000000 0.250980
1.000000 1.000000 0.250980
0.000000 0.000000 0.501961
0.250980 0.000000 0.501961
0.501961 0.000000 0.501961
0.749020 0.000000 0.501961
1.000000 0.000000 0.501961
0.000000 0.227451 0.501961
0.250980 0.227451 0.501961
0.501961 0.227451 0.501961
0.749020 0.227451 0.501961
1.000000 0.227451 0.501961
0.000000 0.494118 0.501961
0.250980 0.494118 0.501961
0.501961 0.494118 0.501961
0.749020 0.494118 0.501961
1.000000 0.494118 0.501961
0.000000 0.968627 0.501961
0.250980 0.968627 0.501961
0.501961 0.968627 0.501961
0.749020 0.968627 0.501961
1.000000 0.968627 0.501961
0.000000 1.000000 0.501961
0.250980 1.000000 0.501961
0.501961 1.000000 0.501961
0.749020 1.000000 0.501961
1.000000 1.000000 0.501961
0.000000 0.000000 0.749020
0.250980 0.000000 0.749020
0.501961 0.000000 0.749020
0.749020 0.000000 0.749020
1.000000 0.000000 0.749020
0.000000 0.227451 0.749020
0.250980 0.227451 0.749020
0.501961 0.227451 0.749020
0.749020 0.227451 0.749020
1.000000 0.227451 0.749020
0.000000 0.494118 0.749020
0.250980 0.494118 0.749020
0.501961 0.494118 0.749020
0.749020 0.494118 0.749020
1.000000 0.494118 0.749020
0.000000 0.968627 0.749020
0.250980 0.968627 0.749020
0.501961 0.968627 0.749020
0.749020 0.968627 0.749020
1.000000 0.968627 0.749020
0.000000 1.000000 0.749020
0.250980 1.000000 0.749020
0.501961 1.000000 0.749020
0.749020 1.000000 0.749020
1.000000 1.000000 0.749020
0.000000 0.000000 1.000000
0.250980 0.000000 1.000000
0.501961 0.000000 1.000000
0.749020 0.000000 1.000000
1.000000 0.000000 1.000000
0.000000 0.227451 1.000000
0.250980 0.227451 1.000000
0.501961 0.227451 1.000000
0.749020 0.227451 1.000000
1.000000 0.227451 1.000000
0.000000 0.494118 1.000000
0.250980 0.494118 1.000000
0.501961 0.494118 1.000000
0.749020 0.494118 1.000000
1.000000 0.494118 1.000000
0.000000 0.968627 1.000000
0.250980 0.968627 1.000000
0.501961 0.968627 1.000000
0.749020 0.968627 1.000000
1.000000 0.968627 1.000000
0.000000 1.000000 1.000000
0.250980 1.000000 1.000000
0.501961 1.000000 1.000000
0.749020 1.000000 1.000000
1.000000 1.000000 1.000000
