LUTs/Damaging/LUT_GREEN/green_highlights.cube
#Generated by lutCreator.js
#Coded by SirSerch
#https://github.com/SirSerch/LutCreatorJs
TITLE lutCreatorJs_25
LUT_3D_SIZE 9
0.000000 0.000000 0.000000
0.125490 0.000000 0.000000
0.250980 0.000000 0.000000
0.376471 0.000000 0.000000
0.501961 0.000000 0.000000
0.623529 0.000000 0.000000
0.749020 0.000000 0.000000
0.874510 0.000000 0.000000
1.000000 0.000000 0.000000
0.000000 0.109804 0.000000
0.125490 0.109804 0.000000
0.250980 0.109804 0.000000
0.376471 0.109804 0.000000
0.501961 0.109804 0.000000
0.623529 0.109804 0.000000
0.749020 0.109804 0.000000
0.874510 0.109804 0.000000
1.000000 0.109804 0.000000
0.000000 0.227451 0.000000
0.125490 0.227451 0.000000
0.250980 0.227451 0.000000
0.376471 0.227451 0.000000
0.501961 0.227451 0.000000
0.623529 0.227451 0.000000
0.749020 0.227451 0.000000
0.874510 0.227451 0.000000
1.000000 0.227451 0.000000
0.000000 0.352941 0.000000
0.125490 0.352941 0.000000
0.250980 0.352941 0.000000
0.376471 0.352941 0.000000
0.501961 0.352941 0.000000
0.623529 0.352941 0.000000
0.749020 0.352941 0.000000
0.874510 0.352941 0.000000
1.000000 0.352941 0.000000
0.000000 0.494118 0.000000
0.125490 0.494118 0.000000
0.250980 0.494118 0.000000
0.376471 0.494118 0.000000
0.501961 0.494118 0.000000
0.623529 0.494118 0.000000
0.749020 0.494118 0.000000
0.874510 0.494118 0.000000
1.000000 0.494118 0.000000
0.000000 0.670588 0.000000
0.125490 0.670588 0.000000
0.250980 0.670588 0.000000
0.376471 0.670588 0.000000
0.501961 0.670588 0.000000
0.623529 0.670588 0.000000
0.749020 0.670588 0.000000
0.874510 0.670588 0.000000
1.000000 0.670588 0.000000
0.000000 0.968627 0.000000
0.125490 0.968627 0.000000
0.250980 0.968627 0.000000
0.376471 0.968627 0.000000
0.501961 0.968627 0.000000
0.623529 0.968627 0.000000
0.749020 0.968627 0.000000
0.874510 0.968627 0.000000
1.000000 0.968627 0.000000
0.000000 1.000000 0.000000
0.125490 1.000000 0.000000
0.250980 1.000000 0.000000
0.376471 1.000000 0.000000
0.501961 1.000000 0.000000
0.623529 1.000000 0.000000
0.749020 1.000000 0.000000
0.874510 1.000000 0.000000
1.000000 1.000000 0.000000
0.000000 1.000000 0.000000
0.125490 1.000000 0.000000
0.250980 1.000000 0.000000
0.376471 1.000000 0.000000
0.501961 1.000000 0.000000
0.623529 1.000000 0.000000
0.749020 1.000000 0.000000
0.874510 1.000000 0.000000
1.000000 1.000000 0.000000
0.000000 0.000000 0.125490
0.125490 0.000000 0.125490
0.250980 0.000000 0.125490
0.376471 0.000000 0.125490
0.501961 0.000000 0.125490
0.623529 0.000000 0.125490
0.749020 0.000000 0.125490
0.874510 0.000000 0.125490
1.000000 0.000000 0.125490
0.000000 0.109804 0.125490
0.125490 0.109804 0.125490
0.250980 0.109804 0.125490
0.376471 0.109804 0.125490
0.501961 0.109804 0.125490
0.623529 0.109804 0.125490
0.749020 0.109804 0.125490
0.874510 0.109804 0.125490
1.000000 0.109804 0.125490
0.000000 0.227451 0.125490
0.125490 0.227451 0.125490
0.250980 0.227451 0.125490
0.376471 0.227451 0.125490
0.501961 0.227451 0.125490
0.623529 0.227451 0.125490
0.749020 0.227451 0.125490
0.874510 0.227451 0.125490
1.000000 0.227451 0.125490
0.000000 0.352941 0.125490
0.125490 0.352941 0.125490
0.250980 0.352941 0.125490
0.376471 0.352941 0.125490
0.501961 0.352941 0.125490
0.623529 0.352941 0.125490
0.749020 0.352941 0.125490
0.874510 0.352941 0.125490
1.000000 0.352941 0.125490
0.000000 0.494118 0.125490
0.125490 0.494118 0.125490
0.250980 0.494118 0.125490
0.376471 0.494118 0.125490
0.501961 0.494118 0.125490
0.623529 0.494118 0.125490
0.749020 0.494118 0.125490
0.874510 0.494118 0.125490
1.000000 0.494118 0.125490
0.000000 0.670588 0.125490
0.125490 0.670588 0.125490
0.250980 0.670588 0.125490
0.376471 0.670588 0.125490
0.501961 0.670588 0.125490
0.623529 0.670588 0.125490
0.749020 0.670588 0.125490
0.874510 0.670588 0.125490
1.000000 0.670588 0.125490
0.000000 0.968627 0.125490
0.125490 0.968627 0.125490
0.250980 0.968627 0.125490
0.376471 0.968627 0.125490
0.501961 0.968627 0.125490
0.623529 0.968627 0.125490
0.749020 0.968627 0.125490
0.874510 0.968627 0.125490
1.000000 0.968627 0.125490
0.000000 1.000000 0.125490
0.125490 1.000000 0.125490
0.250980 1.000000 0.125490
0.376471 1.000000 0.125490
0.501961 1.000000 0.125490
0.623529 1.000000 0.125490
0.749020 1.000000 0.125490
0.874510 1.000000 0.125490
1.000000 1.000000 0.125490
0.000000 1.000000 0.125490
0.125490 1.000000 0.125490
0.250980 1.000000 0.125490
0.376471 1.000000 0.125490
0.501961 1.000000 0.125490
0.623529 1.000000 0.125490
0.749020 1.000000 0.125490
0.874510 1.000000 0.125490
1.000000 1.000000 0.125490
0.000000 0.000000 0.250980
0.125490 0.000000 0.250980
0.250980 0.000000 0.250980
0.376471 0.000000 0.250980
0.501961 0.000000 0.250980
0.623529 0.000000 0.250980
0.749020 0.000000 0.250980
0.874510 0.000000 0.250980
1.000000 0.000000 0.250980
0.000000 0.109804 0.250980
0.125490 0.109804 0.250980
0.250980 0.109804 0.250980
0.376471 0.109804 0.250980
0.501961 0.109804 0.250980
0.623529 0.109804 0.250980
0.749020 0.109804 0.250980
0.874510 0.109804 0.250980
1.000000 0.109804 0.250980
0.000000 0.227451 0.250980
0.125490 0.227451 0.250980
0.250980 0.227451 0.250980
0.376471 0.227451 0.250980
0.501961 0.227451 0.250980
0.623529 0.227451 0.250980
0.749020 0.227451 0.250980
0.874510 0.227451 0.250980
1.000000 0.227451 0.250980
0.000000 0.352941 0.250980
0.125490 0.352941 0.250980
0.250980 0.352941 0.250980
0.376471 0.352941 0.250980
0.501961 0.352941 0.250980
0.623529 0.352941 0.250980
0.749020 0.352941 0.250980
0.874510 0.352941 0.250980
1.000000 0.352941 0.250980
0.000000 0.494118 0.250980
0.125490 0.494118 0.250980
0.250980 0.494118 0.250980
0.376471 0.494118 0.250980
0.501961 0.494118 0.250980
0.623529 0.494118 0.250980
0.749020 0.494118 0.250980
0.874510 0.494118 0.250980
1.000000 0.494118 0.250980
0.000000 0.670588 0.250980
0.125490 0.670588 0.250980
0.250980 0.670588 0.250980
0.376471 0.670588 0.250980
0.501961 0.670588 0.250980
0.623529 0.670588 0.250980
0.749020 0.670588 0.250980
0.874510 0.670588 0.250980
1.000000 0.670588 0.250980
0.000000 0.968627 0.250980
0.125490 0.968627 0.250980
0.250980 0.968627 0.250980
0.376471 0.968627 0.250980
0.501961 0.968627 0.250980
0.623529 0.968627 0.250980
0.749020 0.968627 0.250980
0.874510 0.968627 0.250980
1.000000 0.968627 0.250980
0.000000 1.000000 0.250980
0.125490 1.000000 0.250980
0.250980 1.000000 0.250980
0.376471 1.000000 0.250980
0.501961 1.000000 0.250980
0.623529 1.000000 0.250980
0.749020 1.000000 0.250980
0.874510 1.000000 0.250980
1.000000 1.000000 0.250980
0.000000 1.000000 0.250980
0.125490 1.000000 0.250980
0.250980 1.000000 0.250980
0.376471 1.000000 0.250980
0.501961 1.000000 0.250980
0.623529 1.000000 0.250980
0.749020 1.000000 0.250980
0.874510 1.000000 0.250980
1.000000 1.000000 0.250980
0.000000 0.000000 0.376471
0.125490 0.000000 0.376471
0.250980 0.000000 0.376471
0.376471 0.000000 0.376471
0.501961 0.000000 0.376471
0.623529 0.000000 0.376471
0.749020 0.000000 0.376471
0.874510 0.000000 0.376471
1.000000 0.000000 0.376471
0.000000 0.109804 0.376471
0.125490 0.109804 0.376471
0.250980 0.109804 0.376471
0.376471 0.109804 0.376471
0.501961 0.109804 0.376471
0.623529 0.109804 0.376471
0.749020 0.109804 0.376471
0.874510 0.109804 0.376471
1.000000 0.109804 0.376471
0.000000 0.227451 0.376471
0.125490 0.227451 0.376471
0.250980 0.227451 0.376471
0.376471 0.227451 0.376471
0.501961 0.227451 0.376471
0.623529 0.227451 0.376471
0.749020 0.227451 0.376471
0.874510 0.227451 0.376471
1.000000 0.227451 0.376471
0.000000 0.352941 0.376471
0.125490 0.352941 0.376471
0.250980 0.352941 0.376471
0.376471 0.352941 0.376471
0.501961 0.352941 0.376471
0.623529 0.352941 0.376471
0.749020 0.352941 0.376471
0.874510 0.352941 0.376471
1.000000 0.352941 0.376471
0.000000 0.494118 0.376471
0.125490 0.494118 0.376471
0.250980 0.494118 0.376471
0.376471 0.494118 0.376471
0.501961 0.494118 0.376471
0.623529 0.494118 0.376471
0.749020 0.494118 0.376471
0.874510 0.494118 0.376471
1.000000 0.494118 0.376471
0.000000 0.670588 0.376471
0.125490 0.670588 0.376471
0.250980 0.670588 0.376471
0.376471 0.670588 0.376471
0.501961 0.670588 0.376471
0.623529 0.670588 0.376471
0.749020 0.670588 0.376471
0.874510 0.670588 0.376471
1.000000 0.670588 0.376471
0.000000 0.968627 0.376471
0.125490 0.968627 0.376471
0.250980 0.968627 0.376471
0.376471 0.968627 0.376471
0.501961 0.968627 0.376471
0.623529 0.968627 0.376471
0.749020 0.968627 0.376471
0.874510 0.968627 0.376471
1.000000 0.968627 0.376471
0.000000 1.000000 0.376471
0.125490 1.000000 0.376471
0.250980 1.000000 0.376471
0.376471 1.000000 0.376471
0.501961 1.000000 0.376471
0.623529 1.000000 0.376471
0.749020 1.000000 0.376471
0.874510 1.000000 0.376471
1.000000 1.000000 0.376471
0.000000 1.000000 0.376471
0.125490 1.000000 0.376471
0.250980 1.000000 0.376471
0.376471 1.000000 0.376471
0.501961 1.000000 0.376471
0.623529 1.000000 0.376471
0.749020 1.000000 0.376471
0.874510 1.000000 0.376471
1.000000 1.000000 0.376471
0.000000 0.000000 0.501961
0.125490 0.000000 0.501961
0.250980 0.000000 0.501961
0.376471 0.000000 0.501961
0.501961 0.000000 0.501961
0.623529 0.000000 0.501961
0.749020 0.000000 0.501961
0.874510 0.000000 0.501961
1.000000 0.000000 0.501961
0.000000 0.109804 0.501961
0.125490 0.109804 0.501961
0.250980 0.109804 0.501961
0.376471 0.109804 0.501961
0.501961 0.109804 0.501961
0.623529 0.109804 0.501961
0.749020 0.109804 0.501961
0.874510 0.109804 0.501961
1.000000 0.109804 0.501961
0.000000 0.227451 0.501961
0.125490 0.227451 0.501961
0.250980 0.227451 0.501961
0.376471 0.227451 0.501961
0.501961 0.227451 0.501961
0.623529 0.227451 0.501961
0.749020 0.227451 0.501961
0.874510 0.227451 0.501961
1.000000 0.227451 0.501961
0.000000 0.352941 0.501961
0.125490 0.352941 0.501961
0.250980 0.352941 0.501961
0.376471 0.352941 0.501961
0.501961 0.352941 0.501961
0.623529 0.352941 0.501961
0.749020 0.352941 0.501961
0.874510 0.352941 0.501961
1.000000 0.352941 0.501961
0.000000 0.494118 0.501961
0.125490 0.494118 0.501961
0.250980 0.494118 0.501961
0.376471 0.494118 0.501961
0.501961 0.494118 0.501961
0.623529 0.494118 0.501961
0.749020 0.494118 0.501961
0.874510 0.494118 0.501961
1.000000 0.494118 0.501961
0.000000 0.670588 0.501961
0.125490 0.670588 0.501961
0.250980 0.670588 0.501961
0.376471 0.670588 0.501961
0.501961 0.670588 0.501961
0.623529 0.670588 0.501961
0.749020 0.670588 0.501961
0.874510 0.670588 0.501961
1.000000 0.670588 0.501961
0.000000 0.968627 0.501961
0.125490 0.968627 0.501961
0.250980 0.968627 0.501961
0.376471 0.968627 0.501961
0.501961 0.968627 0.501961
0.623529 0.968627 0.501961
0.749020 0.968627 0.501961
0.874510 0.968627 0.501961
1.000000 0.968627 0.501961
0.000000 1.000000 0.501961
0.125490 1.000000 0.501961
0.250980 1.000000 0.501961
0.376471 1.000000 0.501961
0.501961 1.000000 0.501961
0.623529 1.000000 0.501961
0.749020 1.000000 0.501961
0.874510 1.000000 0.501961
1.000000 1.000000 0.501961
0.000000 1.000000 0.501961
0.125490 1.000000 0.501961
0.250980 1.000000 0.501961
0.376471 1.000000 0.501961
0.501961 1.000000 0.501961
0.623529 1.000000 0.501961
0.749020 1.000000 0.501961
0.874510 1.000000 0.501961
1.000000 1.000000 0.501961
0.000000 0.000000 0.623529
0.125490 0.000000 0.623529
0.250980 0.000000 0.623529
0.376471 0.000000 0.623529
0.501961 0.000000 0.623529
0.623529 0.000000 0.623529
0.749020 0.000000 0.623529
0.874510 0.000000 0.623529
1.000000 0.000000 0.623529
0.000000 0.109804 0.623529
0.125490 0.109804 0.623529
0.250980 0.109804 0.623529
0.376471 0.109804 0.623529
0.501961 0.109804 0.623529
0.623529 0.109804 0.623529
0.749020 0.109804 0.623529
0.874510 0.109804 0.623529
1.000000 0.109804 0.623529
0.000000 0.227451 0.623529
0.125490 0.227451 0.623529
0.250980 0.227451 0.623529
0.376471 0.227451 0.623529
0.501961 0.227451 0.623529
0.623529 0.227451 0.623529
0.749020 0.227451 0.623529
0.874510 0.227451 0.623529
1.000000 0.227451 0.623529
0.000000 0.352941 0.623529
0.125490 0.352941 0.623529
0.250980 0.352941 0.623529
0.376471 0.352941 0.623529
0.501961 0.352941 0.623529
0.623529 0.352941 0.623529
0.749020 0.352941 0.623529
0.874510 0.352941 0.623529
1.000000 0.352941 0.623529
0.000000 0.494118 0.623529
0.125490 0.494118 0.623529
0.250980 0.494118 0.623529
0.376471 0.494118 0.623529
0.501961 0.494118 0.623529
0.623529 0.494118 0.623529
0.749020 0.494118 0.623529
0.874510 0.494118 0.623529
1.000000 0.494118 0.623529
0.000000 0.670588 0.623529
0.125490 0.670588 0.623529
0.250980 0.670588 0.623529
0.376471 0.670588 0.623529
0.501961 0.670588 0.623529
0.623529 0.670588 0.623529
0.749020 0.670588 0.623529
0.874510 0.670588 0.623529
1.000000 0.670588 0.623529
0.000000 0.968627 0.623529
0.125490 0.968627 0.623529
0.250980 0.968627 0.623529
0.376471 0.968627 0.623529
0.501961 0.968627 0.623529
0.623529 0.968627 0.623529
0.749020 0.968627 0.623529
0.874510 0.968627 0.623529
1.000000 0.968627 0.623529
0.000000 1.000000 0.623529
0.125490 1.000000 0.623529
0.250980 1.000000 0.623529
0.376471 1.000000 0.623529
0.501961 1.000000 0.623529
0.623529 1.000000 0.623529
0.749020 1.000000 0.623529
0.874510 1.000000 0.623529
1.000000 1.000000 0.623529
0.000000 1.000000 0.623529
0.125490 1.000000 0.623529
0.250980 1.000000 0.623529
0.376471 1.000000 0.623529
0.501961 1.000000 0.623529
0.623529 1.000000 0.623529
0.749020 1.000000 0.623529
0.874510 1.000000 0.623529
1.000000 1.000000 0.623529
0.000000 0.000000 0.749020
0.125490 0.000000 0.749020
0.250980 0.000000 0.749020
0.376471 0.000000 0.749020
0.501961 0.000000 0.749020
0.623529 0.000000 0.749020
0.749020 0.000000 0.749020
0.874510 0.000000 0.749020
1.000000 0.000000 0.749020
0.000000 0.109804 0.749020
0.125490 0.109804 0.749020
0.250980 0.109804 0.749020
0.376471 0.109804 0.749020
0.501961 0.109804 0.749020
0.623529 0.109804 0.749020
0.749020 0.109804 0.749020
0.874510 0.109804 0.749020
1.000000 0.109804 0.749020
0.000000 0.227451 0.749020
0.125490 0.227451 0.749020
0.250980 0.227451 0.749020
0.376471 0.227451 0.749020
0.501961 0.227451 0.749020
0.623529 0.227451 0.749020
0.749020 0.227451 0.749020
0.874510 0.227451 0.749020
1.000000 0.227451 0.749020
0.000000 0.352941 0.749020
0.125490 0.352941 0.749020
0.250980 0.352941 0.749020
0.376471 0.352941 0.749020
0.501961 0.352941 0.749020
0.623529 0.352941 0.749020
0.749020 0.352941 0.749020
0.874510 0.352941 0.749020
1.000000 0.352941 0.749020
0.000000 0.494118 0.749020
0.125490 0.494118 0.749020
0.250980 0.494118 0.749020
0.376471 0.494118 0.749020
0.501961 0.494118 0.749020
0.623529 0.494118 0.749020
0.749020 0.494118 0.749020
0.874510 0.494118 0.749020
1.000000 0.494118 0.749020
0.000000 0.670588 0.749020
0.125490 0.670588 0.749020
0.250980 0.670588 0.749020
0.376471 0.670588 0.749020
0.501961 0.670588 0.749020
0.623529 0.670588 0.749020
0.749020 0.670588 0.749020
0.874510 0.670588 0.749020
1.000000 0.670588 0.749020
0.000000 0.968627 0.749020
0.125490 0.968627 0.749020
0.250980 0.968627 0.749020
0.376471 0.968627 0.749020
0.501961 0.968627 0.749020
0.623529 0.968627 0.749020
0.749020 0.968627 0.749020
0.874510 0.968627 0.749020
1.000000 0.968627 0.749020
0.000000 1.000000 0.749020
0.125490 1.000000 0.749020
0.250980 1.000000 0.749020
0.376471 1.000000 0.749020
0.501961 1.000000 0.749020
0.623529 1.000000 0.749020
0.749020 1.000000 0.749020
0.874510 1.000000 0.749020
1.000000 1.000000 0.749020
0.000000 1.000000 0.749020
0.125490 1.000000 0.749020
0.250980 1.000000 0.749020
0.376471 1.000000 0.749020
0.501961 1.000000 0.749020
0.623529 1.000000 0.749020
0.749020 1.000000 0.749020
0.874510 1.000000 0.749020
1.000000 1.000000 0.749020
0.000000 0.000000 0.874510
0.125490 0.000000 0.874510
0.250980 0.000000 0.874510
0.376471 0.000000 0.874510
0.501961 0.000000 0.874510
0.623529 0.000000 0.874510
0.749020 0.000000 0.874510
0.874510 0.000000 0.874510
1.000000 0.000000 0.874510
0.000000 0.109804 0.874510
0.125490 0.109804 0.874510
0.250980 0.109804 0.874510
0.376471 0.109804 0.874510
0.501961 0.109804 0.874510
0.623529 0.109804 0.874510
0.749020 0.109804 0.874510
0.874510 0.109804 0.874510
1.000000 0.109804 0.874510
0.000000 0.227451 0.874510
0.125490 0.227451 0.874510
0.250980 0.227451 0.874510
0.376471 0.227451 0.874510
0.501961 0.227451 0.874510
0.623529 0.227451 0.874510
0.749020 0.227451 0.874510
0.874510 0.227451 0.874510
1.000000 0.227451 0.874510
0.000000 0.352941 0.874510
0.125490 0.352941 0.874510
0.250980 0.352941 0.874510
0.376471 0.352941 0.874510
0.501961 0.352941 0.874510
0.623529 0.352941 0.874510
0.749020 0.352941 0.874510
0.874510 0.352941 0.874510
1.000000 0.352941 0.874510
0.000000 0.494118 0.874510
0.125490 0.494118 0.874510
0.250980 0.494118 0.874510
0.376471 0.494118 0.874510
0.501961 0.494118 0.874510
0.623529 0.494118 0.874510
0.749020 0.494118 0.874510
0.874510 0.494118 0.874510
1.000000 0.494118 0.874510
0.000000 0.670588 0.874510
0.125490 0.670588 0.874510
0.250980 0.670588 0.874510
0.376471 0.670588 0.874510
0.501961 0.670588 0.874510
0.623529 0.670588 0.874510
0.749020 0.670588 0.874510
0.874510 0.670588 0.874510
1.000000 0.670588 0.874510
0.000000 0.968627 0.874510
0.125490 0.968627 0.874510
0.250980 0.968627 0.874510
0.376471 0.968627 0.874510
0.501961 0.968627 0.874510
0.623529 0.968627 0.874510
0.749020 0.968627 0.874510
0.874510 0.968627 0.874510
1.000000 0.968627 0.874510
0.000000 1.000000 0.874510
0.125490 1.000000 0.874510
0.250980 1.000000 0.874510
0.376471 1.000000 0.874510
0.501961 1.000000 0.874510
0.623529 1.000000 0.874510
0.749020 1.000000 0.874510
0.874510 1.000000 0.874510
1.000000 1.000000 0.874510
0.000000 1.000000 0.874510
0.125490 1.000000 0.874510
0.250980 1.000000 0.874510
0.376471 1.000000 0.874510
0.501961 1.000000 0.874510
0.623529 1.000000 0.874510
0.749020 1.000000 0.874510
0.874510 1.000000 0.874510
1.000000 1.000000 0.874510
0.000000 0.000000 1.000000
0.125490 0.000000 1.000000
0.250980 0.000000 1.000000
0.376471 0.000000 1.000000
0.501961 0.000000 1.000000
0.623529 0.000000 1.000000
0.749020 0.000000 1.000000
0.874510 0.000000 1.000000
1.000000 0.000000 1.000000
0.000000 0.109804 1.000000
0.125490 0.109804 1.000000
0.250980 0.109804 1.000000
0.376471 0.109804 1.000000
0.501961 0.109804 1.000000
0.623529 0.109804 1.000000
0.749020 0.109804 1.000000
0.874510 0.109804 1.000000
1.000000 0.109804 1.000000
0.000000 0.227451 1.000000
0.125490 0.227451 1.000000
0.250980 0.227451 1.000000
0.376471 0.227451 1.000000
0.501961 0.227451 1.000000
0.623529 0.227451 1.000000
0.749020 0.227451 1.000000
0.874510 0.227451 1.000000
1.000000 0.227451 1.000000
0.000000 0.352941 1.000000
0.125490 0.352941 1.000000
0.250980 0.352941 1.000000
0.376471 0.352941 1.000000
0.501961 0.352941 1.000000
0.623529 0.352941 1.000000
0.749020 0.352941 1.000000
0.874510 0.352941 1.000000
1.000000 0.352941 1.000000
0.000000 0.494118 1.000000
0.125490 0.494118 1.000000
0.250980 0.494118 1.000000
0.376471 0.494118 1.000000
0.501961 0.494118 1.000000
0.623529 0.494118 1.000000
0.749020 0.494118 1.000000
0.874510 0.494118 1.000000
1.000000 0.494118 1.000000
0.000000 0.670588 1.000000
0.125490 0.670588 1.000000
0.250980 0.670588 1.000000
0.376471 0.670588 1.000000
0.501961 0.670588 1.000000
0.623529 0.670588 1.000000
0.749020 0.670588 1.000000
0.874510 0.670588 1.000000
1.000000 0.670588 1.000000
0.000000 0.968627 1.000000
0.125490 0.968627 1.000000
0.250980 0.968627 1.000000
0.376471 0.968627 1.000000
0.501961 0.968627 1.000000
0.623529 0.968627 1.000000
0.749020 0.968627 1.000000
0.874510 0.968627 1.000000
1.000000 0.968627 1.000000
0.000000 1.000000 1.000000
0.125490 1.000000 1.000000
0.250980 1.000000 1.000000
0.376471 1.000000 1.000000
0.501961 1.000000 1.000000
0.623529 1.000000 1.000000
0.749020 1.000000 1.000000
0.874510 1.000000 1.000000
1.000000 1.000000 1.000000
0.000000 1.000000 1.000000
0.125490 1.000000 1.000000
0.250980 1.000000 1.000000
0.376471 1.000000 1.000000
0.501961 1.000000 1.000000
0.623529 1.000000 1.000000
0.749020 1.000000 1.000000
0.874510 1.000000 1.000000
1.000000 1.000000 1.000000
