LUTs/Damaging/LUT_GREEN/Storybook.cube
#Generated by lutCreator.js
#Coded by SirSerch
#https://github.com/SirSerch/LutCreatorJs
TITLE lutCreatorJs_25
LUT_3D_SIZE 25
0.000000 0.000000 0.000000
0.070588 0.000000 0.000000
0.133333 0.000000 0.000000
0.203922 0.000000 0.000000
0.270588 0.000000 0.000000
0.329412 0.000000 0.000000
0.392157 0.000000 0.000000
0.447059 0.000000 0.000000
0.505882 0.000000 0.000000
0.556863 0.000000 0.000000
0.603922 0.000000 0.000000
0.647059 0.000000 0.000000
0.690196 0.000000 0.000000
0.725490 0.000000 0.000000
0.760784 0.000000 0.000000
0.788235 0.000000 0.000000
0.819608 0.000000 0.000000
0.847059 0.000000 0.000000
0.870588 0.000000 0.000000
0.894118 0.000000 0.000000
0.917647 0.000000 0.000000
0.937255 0.000000 0.000000
0.960784 0.000000 0.000000
0.980392 0.000000 0.000000
1.000000 0.000000 0.000000
0.000000 0.070588 0.000000
0.070588 0.070588 0.000000
0.133333 0.070588 0.000000
0.203922 0.070588 0.000000
0.270588 0.070588 0.000000
0.329412 0.070588 0.000000
0.392157 0.070588 0.000000
0.447059 0.070588 0.000000
0.505882 0.070588 0.000000
0.556863 0.070588 0.000000
0.603922 0.070588 0.000000
0.647059 0.070588 0.000000
0.690196 0.070588 0.000000
0.725490 0.070588 0.000000
0.760784 0.070588 0.000000
0.788235 0.070588 0.000000
0.819608 0.070588 0.000000
0.847059 0.070588 0.000000
0.870588 0.070588 0.000000
0.894118 0.070588 0.000000
0.917647 0.070588 0.000000
0.937255 0.070588 0.000000
0.960784 0.070588 0.000000
0.980392 0.070588 0.000000
1.000000 0.070588 0.000000
0.000000 0.133333 0.000000
0.070588 0.133333 0.000000
0.133333 0.133333 0.000000
0.203922 0.133333 0.000000
0.270588 0.133333 0.000000
0.329412 0.133333 0.000000
0.392157 0.133333 0.000000
0.447059 0.133333 0.000000
0.505882 0.133333 0.000000
0.556863 0.133333 0.000000
0.603922 0.133333 0.000000
0.647059 0.133333 0.000000
0.690196 0.133333 0.000000
0.725490 0.133333 0.000000
0.760784 0.133333 0.000000
0.788235 0.133333 0.000000
0.819608 0.133333 0.000000
0.847059 0.133333 0.000000
0.870588 0.133333 0.000000
0.894118 0.133333 0.000000
0.917647 0.133333 0.000000
0.937255 0.133333 0.000000
0.960784 0.133333 0.000000
0.980392 0.133333 0.000000
1.000000 0.133333 0.000000
0.000000 0.203922 0.000000
0.070588 0.203922 0.000000
0.133333 0.203922 0.000000
0.203922 0.203922 0.000000
0.270588 0.203922 0.000000
0.329412 0.203922 0.000000
0.392157 0.203922 0.000000
0.447059 0.203922 0.000000
0.505882 0.203922 0.000000
0.556863 0.203922 0.000000
0.603922 0.203922 0.000000
0.647059 0.203922 0.000000
0.690196 0.203922 0.000000
0.725490 0.203922 0.000000
0.760784 0.203922 0.000000
0.788235 0.203922 0.000000
0.819608 0.203922 0.000000
0.847059 0.203922 0.000000
0.870588 0.203922 0.000000
0.894118 0.203922 0.000000
0.917647 0.203922 0.000000
0.937255 0.203922 0.000000
0.960784 0.203922 0.000000
0.980392 0.203922 0.000000
1.000000 0.203922 0.000000
0.000000 0.270588 0.000000
0.070588 0.270588 0.000000
0.133333 0.270588 0.000000
0.203922 0.270588 0.000000
0.270588 0.270588 0.000000
0.329412 0.270588 0.000000
0.392157 0.270588 0.000000
0.447059 0.270588 0.000000
0.505882 0.270588 0.000000
0.556863 0.270588 0.000000
0.603922 0.270588 0.000000
0.647059 0.270588 0.000000
0.690196 0.270588 0.000000
0.725490 0.270588 0.000000
0.760784 0.270588 0.000000
0.788235 0.270588 0.000000
0.819608 0.270588 0.000000
0.847059 0.270588 0.000000
0.870588 0.270588 0.000000
0.894118 0.270588 0.000000
0.917647 0.270588 0.000000
0.937255 0.270588 0.000000
0.960784 0.270588 0.000000
0.980392 0.270588 0.000000
1.000000 0.270588 0.000000
0.000000 0.329412 0.000000
0.070588 0.329412 0.000000
0.133333 0.329412 0.000000
0.203922 0.329412 0.000000
0.270588 0.329412 0.000000
0.329412 0.329412 0.000000
0.392157 0.329412 0.000000
0.447059 0.329412 0.000000
0.505882 0.329412 0.000000
0.556863 0.329412 0.000000
0.603922 0.329412 0.000000
0.647059 0.329412 0.000000
0.690196 0.329412 0.000000
0.725490 0.329412 0.000000
0.760784 0.329412 0.000000
0.788235 0.329412 0.000000
0.819608 0.329412 0.000000
0.847059 0.329412 0.000000
0.870588 0.329412 0.000000
0.894118 0.329412 0.000000
0.917647 0.329412 0.000000
0.937255 0.329412 0.000000
0.960784 0.329412 0.000000
0.980392 0.329412 0.000000
1.000000 0.329412 0.000000
0.000000 0.392157 0.000000
0.070588 0.392157 0.000000
0.133333 0.392157 0.000000
0.203922 0.392157 0.000000
0.270588 0.392157 0.000000
0.329412 0.392157 0.000000
0.392157 0.392157 0.000000
0.447059 0.392157 0.000000
0.505882 0.392157 0.000000
0.556863 0.392157 0.000000
0.603922 0.392157 0.000000
0.647059 0.392157 0.000000
0.690196 0.392157 0.000000
0.725490 0.392157 0.000000
0.760784 0.392157 0.000000
0.788235 0.392157 0.000000
0.819608 0.392157 0.000000
0.847059 0.392157 0.000000
0.870588 0.392157 0.000000
0.894118 0.392157 0.000000
0.917647 0.392157 0.000000
0.937255 0.392157 0.000000
0.960784 0.392157 0.000000
0.980392 0.392157 0.000000
1.000000 0.392157 0.000000
0.000000 0.447059 0.000000
0.070588 0.447059 0.000000
0.133333 0.447059 0.000000
0.203922 0.447059 0.000000
0.270588 0.447059 0.000000
0.329412 0.447059 0.000000
0.392157 0.447059 0.000000
0.447059 0.447059 0.000000
0.505882 0.447059 0.000000
0.556863 0.447059 0.000000
0.603922 0.447059 0.000000
0.647059 0.447059 0.000000
0.690196 0.447059 0.000000
0.725490 0.447059 0.000000
0.760784 0.447059 0.000000
0.788235 0.447059 0.000000
0.819608 0.447059 0.000000
0.847059 0.447059 0.000000
0.870588 0.447059 0.000000
0.894118 0.447059 0.000000
0.917647 0.447059 0.000000
0.937255 0.447059 0.000000
0.960784 0.447059 0.000000
0.980392 0.447059 0.000000
1.000000 0.447059 0.000000
0.000000 0.505882 0.000000
0.070588 0.505882 0.000000
0.133333 0.505882 0.000000
0.203922 0.505882 0.000000
0.270588 0.505882 0.000000
0.329412 0.505882 0.000000
0.392157 0.505882 0.000000
0.447059 0.505882 0.000000
0.505882 0.505882 0.000000
0.556863 0.505882 0.000000
0.603922 0.505882 0.000000
0.647059 0.505882 0.000000
0.690196 0.505882 0.000000
0.725490 0.505882 0.000000
0.760784 0.505882 0.000000
0.788235 0.505882 0.000000
0.819608 0.505882 0.000000
0.847059 0.505882 0.000000
0.870588 0.505882 0.000000
0.894118 0.505882 0.000000
0.917647 0.505882 0.000000
0.937255 0.505882 0.000000
0.960784 0.505882 0.000000
0.980392 0.505882 0.000000
1.000000 0.505882 0.000000
0.000000 0.556863 0.000000
0.070588 0.556863 0.000000
0.133333 0.556863 0.000000
0.203922 0.556863 0.000000
0.270588 0.556863 0.000000
0.329412 0.556863 0.000000
0.392157 0.556863 0.000000
0.447059 0.556863 0.000000
0.505882 0.556863 0.000000
0.556863 0.556863 0.000000
0.603922 0.556863 0.000000
0.647059 0.556863 0.000000
0.690196 0.556863 0.000000
0.725490 0.556863 0.000000
0.760784 0.556863 0.000000
0.788235 0.556863 0.000000
0.819608 0.556863 0.000000
0.847059 0.556863 0.000000
0.870588 0.556863 0.000000
0.894118 0.556863 0.000000
0.917647 0.556863 0.000000
0.937255 0.556863 0.000000
0.960784 0.556863 0.000000
0.980392 0.556863 0.000000
1.000000 0.556863 0.000000
0.000000 0.603922 0.000000
0.070588 0.603922 0.000000
0.133333 0.603922 0.000000
0.203922 0.603922 0.000000
0.270588 0.603922 0.000000
0.329412 0.603922 0.000000
0.392157 0.603922 0.000000
0.447059 0.603922 0.000000
0.505882 0.603922 0.000000
0.556863 0.603922 0.000000
0.603922 0.603922 0.000000
0.647059 0.603922 0.000000
0.690196 0.603922 0.000000
0.725490 0.603922 0.000000
0.760784 0.603922 0.000000
0.788235 0.603922 0.000000
0.819608 0.603922 0.000000
0.847059 0.603922 0.000000
0.870588 0.603922 0.000000
0.894118 0.603922 0.000000
0.917647 0.603922 0.000000
0.937255 0.603922 0.000000
0.960784 0.603922 0.000000
0.980392 0.603922 0.000000
1.000000 0.603922 0.000000
0.000000 0.647059 0.000000
0.070588 0.647059 0.000000
0.133333 0.647059 0.000000
0.203922 0.647059 0.000000
0.270588 0.647059 0.000000
0.329412 0.647059 0.000000
0.392157 0.647059 0.000000
0.447059 0.647059 0.000000
0.505882 0.647059 0.000000
0.556863 0.647059 0.000000
0.603922 0.647059 0.000000
0.647059 0.647059 0.000000
0.690196 0.647059 0.000000
0.725490 0.647059 0.000000
0.760784 0.647059 0.000000
0.788235 0.647059 0.000000
0.819608 0.647059 0.000000
0.847059 0.647059 0.000000
0.870588 0.647059 0.000000
0.894118 0.647059 0.000000
0.917647 0.647059 0.000000
0.937255 0.647059 0.000000
0.960784 0.647059 0.000000
0.980392 0.647059 0.000000
1.000000 0.647059 0.000000
0.000000 0.690196 0.000000
0.070588 0.690196 0.000000
0.133333 0.690196 0.000000
0.203922 0.690196 0.000000
0.270588 0.690196 0.000000
0.329412 0.690196 0.000000
0.392157 0.690196 0.000000
0.447059 0.690196 0.000000
0.505882 0.690196 0.000000
0.556863 0.690196 0.000000
0.603922 0.690196 0.000000
0.647059 0.690196 0.000000
0.690196 0.690196 0.000000
0.725490 0.690196 0.000000
0.760784 0.690196 0.000000
0.788235 0.690196 0.000000
0.819608 0.690196 0.000000
0.847059 0.690196 0.000000
0.870588 0.690196 0.000000
0.894118 0.690196 0.000000
0.917647 0.690196 0.000000
0.937255 0.690196 0.000000
0.960784 0.690196 0.000000
0.980392 0.690196 0.000000
1.000000 0.690196 0.000000
0.000000 0.721569 0.000000
0.070588 0.721569 0.000000
0.133333 0.721569 0.000000
0.203922 0.721569 0.000000
0.270588 0.721569 0.000000
0.329412 0.721569 0.000000
0.392157 0.721569 0.000000
0.447059 0.721569 0.000000
0.505882 0.721569 0.000000
0.556863 0.721569 0.000000
0.603922 0.721569 0.000000
0.647059 0.721569 0.000000
0.690196 0.721569 0.000000
0.725490 0.721569 0.000000
0.760784 0.721569 0.000000
0.788235 0.721569 0.000000
0.819608 0.721569 0.000000
0.847059 0.721569 0.000000
0.870588 0.721569 0.000000
0.894118 0.721569 0.000000
0.917647 0.721569 0.000000
0.937255 0.721569 0.000000
0.960784 0.721569 0.000000
0.980392 0.721569 0.000000
1.000000 0.721569 0.000000
0.000000 0.756863 0.000000
0.070588 0.756863 0.000000
0.133333 0.756863 0.000000
0.203922 0.756863 0.000000
0.270588 0.756863 0.000000
0.329412 0.756863 0.000000
0.392157 0.756863 0.000000
0.447059 0.756863 0.000000
0.505882 0.756863 0.000000
0.556863 0.756863 0.000000
0.603922 0.756863 0.000000
0.647059 0.756863 0.000000
0.690196 0.756863 0.000000
0.725490 0.756863 0.000000
0.760784 0.756863 0.000000
0.788235 0.756863 0.000000
0.819608 0.756863 0.000000
0.847059 0.756863 0.000000
0.870588 0.756863 0.000000
0.894118 0.756863 0.000000
0.917647 0.756863 0.000000
0.937255 0.756863 0.000000
0.960784 0.756863 0.000000
0.980392 0.756863 0.000000
1.000000 0.756863 0.000000
0.000000 0.788235 0.000000
0.070588 0.788235 0.000000
0.133333 0.788235 0.000000
0.203922 0.788235 0.000000
0.270588 0.788235 0.000000
0.329412 0.788235 0.000000
0.392157 0.788235 0.000000
0.447059 0.788235 0.000000
0.505882 0.788235 0.000000
0.556863 0.788235 0.000000
0.603922 0.788235 0.000000
0.647059 0.788235 0.000000
0.690196 0.788235 0.000000
0.725490 0.788235 0.000000
0.760784 0.788235 0.000000
0.788235 0.788235 0.000000
0.819608 0.788235 0.000000
0.847059 0.788235 0.000000
0.870588 0.788235 0.000000
0.894118 0.788235 0.000000
0.917647 0.788235 0.000000
0.937255 0.788235 0.000000
0.960784 0.788235 0.000000
0.980392 0.788235 0.000000
1.000000 0.788235 0.000000
0.000000 0.819608 0.000000
0.070588 0.819608 0.000000
0.133333 0.819608 0.000000
0.203922 0.819608 0.000000
0.270588 0.819608 0.000000
0.329412 0.819608 0.000000
0.392157 0.819608 0.000000
0.447059 0.819608 0.000000
0.505882 0.819608 0.000000
0.556863 0.819608 0.000000
0.603922 0.819608 0.000000
0.647059 0.819608 0.000000
0.690196 0.819608 0.000000
0.725490 0.819608 0.000000
0.760784 0.819608 0.000000
0.788235 0.819608 0.000000
0.819608 0.819608 0.000000
0.847059 0.819608 0.000000
0.870588 0.819608 0.000000
0.894118 0.819608 0.000000
0.917647 0.819608 0.000000
0.937255 0.819608 0.000000
0.960784 0.819608 0.000000
0.980392 0.819608 0.000000
1.000000 0.819608 0.000000
0.000000 0.847059 0.000000
0.070588 0.847059 0.000000
0.133333 0.847059 0.000000
0.203922 0.847059 0.000000
0.270588 0.847059 0.000000
0.329412 0.847059 0.000000
0.392157 0.847059 0.000000
0.447059 0.847059 0.000000
0.505882 0.847059 0.000000
0.556863 0.847059 0.000000
0.603922 0.847059 0.000000
0.647059 0.847059 0.000000
0.690196 0.847059 0.000000
0.725490 0.847059 0.000000
0.760784 0.847059 0.000000
0.788235 0.847059 0.000000
0.819608 0.847059 0.000000
0.847059 0.847059 0.000000
0.870588 0.847059 0.000000
0.894118 0.847059 0.000000
0.917647 0.847059 0.000000
0.937255 0.847059 0.000000
0.960784 0.847059 0.000000
0.980392 0.847059 0.000000
1.000000 0.847059 0.000000
0.000000 0.870588 0.000000
0.070588 0.870588 0.000000
0.133333 0.870588 0.000000
0.203922 0.870588 0.000000
0.270588 0.870588 0.000000
0.329412 0.870588 0.000000
0.392157 0.870588 0.000000
0.447059 0.870588 0.000000
0.505882 0.870588 0.000000
0.556863 0.870588 0.000000
0.603922 0.870588 0.000000
0.647059 0.870588 0.000000
0.690196 0.870588 0.000000
0.725490 0.870588 0.000000
0.760784 0.870588 0.000000
0.788235 0.870588 0.000000
0.819608 0.870588 0.000000
0.847059 0.870588 0.000000
0.870588 0.870588 0.000000
0.894118 0.870588 0.000000
0.917647 0.870588 0.000000
0.937255 0.870588 0.000000
0.960784 0.870588 0.000000
0.980392 0.870588 0.000000
1.000000 0.870588 0.000000
0.000000 0.894118 0.000000
0.070588 0.894118 0.000000
0.133333 0.894118 0.000000
0.203922 0.894118 0.000000
0.270588 0.894118 0.000000
0.329412 0.894118 0.000000
0.392157 0.894118 0.000000
0.447059 0.894118 0.000000
0.505882 0.894118 0.000000
0.556863 0.894118 0.000000
0.603922 0.894118 0.000000
0.647059 0.894118 0.000000
0.690196 0.894118 0.000000
0.725490 0.894118 0.000000
0.760784 0.894118 0.000000
0.788235 0.894118 0.000000
0.819608 0.894118 0.000000
0.847059 0.894118 0.000000
0.870588 0.894118 0.000000
0.894118 0.894118 0.000000
0.917647 0.894118 0.000000
0.937255 0.894118 0.000000
0.960784 0.894118 0.000000
0.980392 0.894118 0.000000
1.000000 0.894118 0.000000
0.000000 0.917647 0.000000
0.070588 0.917647 0.000000
0.133333 0.917647 0.000000
0.203922 0.917647 0.000000
0.270588 0.917647 0.000000
0.329412 0.917647 0.000000
0.392157 0.917647 0.000000
0.447059 0.917647 0.000000
0.505882 0.917647 0.000000
0.556863 0.917647 0.000000
0.603922 0.917647 0.000000
0.647059 0.917647 0.000000
0.690196 0.917647 0.000000
0.725490 0.917647 0.000000
0.760784 0.917647 0.000000
0.788235 0.917647 0.000000
0.819608 0.917647 0.000000
0.847059 0.917647 0.000000
0.870588 0.917647 0.000000
0.894118 0.917647 0.000000
0.917647 0.917647 0.000000
0.937255 0.917647 0.000000
0.960784 0.917647 0.000000
0.980392 0.917647 0.000000
1.000000 0.917647 0.000000
0.000000 0.937255 0.000000
0.070588 0.937255 0.000000
0.133333 0.937255 0.000000
0.203922 0.937255 0.000000
0.270588 0.937255 0.000000
0.329412 0.937255 0.000000
0.392157 0.937255 0.000000
0.447059 0.937255 0.000000
0.505882 0.937255 0.000000
0.556863 0.937255 0.000000
0.603922 0.937255 0.000000
0.647059 0.937255 0.000000
0.690196 0.937255 0.000000
0.725490 0.937255 0.000000
0.760784 0.937255 0.000000
0.788235 0.937255 0.000000
0.819608 0.937255 0.000000
0.847059 0.937255 0.000000
0.870588 0.937255 0.000000
0.894118 0.937255 0.000000
0.917647 0.937255 0.000000
0.937255 0.937255 0.000000
0.960784 0.937255 0.000000
0.980392 0.937255 0.000000
1.000000 0.937255 0.000000
0.000000 0.960784 0.000000
0.070588 0.960784 0.000000
0.133333 0.960784 0.000000
0.203922 0.960784 0.000000
0.270588 0.960784 0.000000
0.329412 0.960784 0.000000
0.392157 0.960784 0.000000
0.447059 0.960784 0.000000
0.505882 0.960784 0.000000
0.556863 0.960784 0.000000
0.603922 0.960784 0.000000
0.647059 0.960784 0.000000
0.690196 0.960784 0.000000
0.725490 0.960784 0.000000
0.760784 0.960784 0.000000
0.788235 0.960784 0.000000
0.819608 0.960784 0.000000
0.847059 0.960784 0.000000
0.870588 0.960784 0.000000
0.894118 0.960784 0.000000
0.917647 0.960784 0.000000
0.937255 0.960784 0.000000
0.960784 0.960784 0.000000
0.980392 0.960784 0.000000
1.000000 0.960784 0.000000
0.000000 0.980392 0.000000
0.070588 0.980392 0.000000
0.133333 0.980392 0.000000
0.203922 0.980392 0.000000
0.270588 0.980392 0.000000
0.329412 0.980392 0.000000
0.392157 0.980392 0.000000
0.447059 0.980392 0.000000
0.505882 0.980392 0.000000
0.556863 0.980392 0.000000
0.603922 0.980392 0.000000
0.647059 0.980392 0.000000
0.690196 0.980392 0.000000
0.725490 0.980392 0.000000
0.760784 0.980392 0.000000
0.788235 0.980392 0.000000
0.819608 0.980392 0.000000
0.847059 0.980392 0.000000
0.870588 0.980392 0.000000
0.894118 0.980392 0.000000
0.917647 0.980392 0.000000
0.937255 0.980392 0.000000
0.960784 0.980392 0.000000
0.980392 0.980392 0.000000
1.000000 0.980392 0.000000
0.000000 1.000000 0.000000
0.070588 1.000000 0.000000
0.133333 1.000000 0.000000
0.203922 1.000000 0.000000
0.270588 1.000000 0.000000
0.329412 1.000000 0.000000
0.392157 1.000000 0.000000
0.447059 1.000000 0.000000
0.505882 1.000000 0.000000
0.556863 1.000000 0.000000
0.603922 1.000000 0.000000
0.647059 1.000000 0.000000
0.690196 1.000000 0.000000
0.725490 1.000000 0.000000
0.760784 1.000000 0.000000
0.788235 1.000000 0.000000
0.819608 1.000000 0.000000
0.847059 1.000000 0.000000
0.870588 1.000000 0.000000
0.894118 1.000000 0.000000
0.917647 1.000000 0.000000
0.937255 1.000000 0.000000
0.960784 1.000000 0.000000
0.980392 1.000000 0.000000
1.000000 1.000000 0.000000
0.000000 0.000000 0.043137
0.070588 0.000000 0.043137
0.133333 0.000000 0.043137
0.203922 0.000000 0.043137
0.270588 0.000000 0.043137
0.329412 0.000000 0.043137
0.392157 0.000000 0.043137
0.447059 0.000000 0.043137
0.505882 0.000000 0.043137
0.556863 0.000000 0.043137
0.603922 0.000000 0.043137
0.647059 0.000000 0.043137
0.690196 0.000000 0.043137
0.725490 0.000000 0.043137
0.760784 0.000000 0.043137
0.788235 0.000000 0.043137
0.819608 0.000000 0.043137
0.847059 0.000000 0.043137
0.870588 0.000000 0.043137
0.894118 0.000000 0.043137
0.917647 0.000000 0.043137
0.937255 0.000000 0.043137
0.960784 0.000000 0.043137
0.980392 0.000000 0.043137
1.000000 0.000000 0.043137
0.000000 0.070588 0.043137
0.070588 0.070588 0.043137
0.133333 0.070588 0.043137
0.203922 0.070588 0.043137
0.270588 0.070588 0.043137
0.329412 0.070588 0.043137
0.392157 0.070588 0.043137
0.447059 0.070588 0.043137
0.505882 0.070588 0.043137
0.556863 0.070588 0.043137
0.603922 0.070588 0.043137
0.647059 0.070588 0.043137
0.690196 0.070588 0.043137
0.725490 0.070588 0.043137
0.760784 0.070588 0.043137
0.788235 0.070588 0.043137
0.819608 0.070588 0.043137
0.847059 0.070588 0.043137
0.870588 0.070588 0.043137
0.894118 0.070588 0.043137
0.917647 0.070588 0.043137
0.937255 0.070588 0.043137
0.960784 0.070588 0.043137
0.980392 0.070588 0.043137
1.000000 0.070588 0.043137
0.000000 0.133333 0.043137
0.070588 0.133333 0.043137
0.133333 0.133333 0.043137
0.203922 0.133333 0.043137
0.270588 0.133333 0.043137
0.329412 0.133333 0.043137
0.392157 0.133333 0.043137
0.447059 0.133333 0.043137
0.505882 0.133333 0.043137
0.556863 0.133333 0.043137
0.603922 0.133333 0.043137
0.647059 0.133333 0.043137
0.690196 0.133333 0.043137
0.725490 0.133333 0.043137
0.760784 0.133333 0.043137
0.788235 0.133333 0.043137
0.819608 0.133333 0.043137
0.847059 0.133333 0.043137
0.870588 0.133333 0.043137
0.894118 0.133333 0.043137
0.917647 0.133333 0.043137
0.937255 0.133333 0.043137
0.960784 0.133333 0.043137
0.980392 0.133333 0.043137
1.000000 0.133333 0.043137
0.000000 0.203922 0.043137
0.070588 0.203922 0.043137
0.133333 0.203922 0.043137
0.203922 0.203922 0.043137
0.270588 0.203922 0.043137
0.329412 0.203922 0.043137
0.392157 0.203922 0.043137
0.447059 0.203922 0.043137
0.505882 0.203922 0.043137
0.556863 0.203922 0.043137
0.603922 0.203922 0.043137
0.647059 0.203922 0.043137
0.690196 0.203922 0.043137
0.725490 0.203922 0.043137
0.760784 0.203922 0.043137
0.788235 0.203922 0.043137
0.819608 0.203922 0.043137
0.847059 0.203922 0.043137
0.870588 0.203922 0.043137
0.894118 0.203922 0.043137
0.917647 0.203922 0.043137
0.937255 0.203922 0.043137
0.960784 0.203922 0.043137
0.980392 0.203922 0.043137
1.000000 0.203922 0.043137
0.000000 0.270588 0.043137
0.070588 0.270588 0.043137
0.133333 0.270588 0.043137
0.203922 0.270588 0.043137
0.270588 0.270588 0.043137
0.329412 0.270588 0.043137
0.392157 0.270588 0.043137
0.447059 0.270588 0.043137
0.505882 0.270588 0.043137
0.556863 0.270588 0.043137
0.603922 0.270588 0.043137
0.647059 0.270588 0.043137
0.690196 0.270588 0.043137
0.725490 0.270588 0.043137
0.760784 0.270588 0.043137
0.788235 0.270588 0.043137
0.819608 0.270588 0.043137
0.847059 0.270588 0.043137
0.870588 0.270588 0.043137
0.894118 0.270588 0.043137
0.917647 0.270588 0.043137
0.937255 0.270588 0.043137
0.960784 0.270588 0.043137
0.980392 0.270588 0.043137
1.000000 0.270588 0.043137
0.000000 0.329412 0.043137
0.070588 0.329412 0.043137
0.133333 0.329412 0.043137
0.203922 0.329412 0.043137
0.270588 0.329412 0.043137
0.329412 0.329412 0.043137
0.392157 0.329412 0.043137
0.447059 0.329412 0.043137
0.505882 0.329412 0.043137
0.556863 0.329412 0.043137
0.603922 0.329412 0.043137
0.647059 0.329412 0.043137
0.690196 0.329412 0.043137
0.725490 0.329412 0.043137
0.760784 0.329412 0.043137
0.788235 0.329412 0.043137
0.819608 0.329412 0.043137
0.847059 0.329412 0.043137
0.870588 0.329412 0.043137
0.894118 0.329412 0.043137
0.917647 0.329412 0.043137
0.937255 0.329412 0.043137
0.960784 0.329412 0.043137
0.980392 0.329412 0.043137
1.000000 0.329412 0.043137
0.000000 0.392157 0.043137
0.070588 0.392157 0.043137
0.133333 0.392157 0.043137
0.203922 0.392157 0.043137
0.270588 0.392157 0.043137
0.329412 0.392157 0.043137
0.392157 0.392157 0.043137
0.447059 0.392157 0.043137
0.505882 0.392157 0.043137
0.556863 0.392157 0.043137
0.603922 0.392157 0.043137
0.647059 0.392157 0.043137
0.690196 0.392157 0.043137
0.725490 0.392157 0.043137
0.760784 0.392157 0.043137
0.788235 0.392157 0.043137
0.819608 0.392157 0.043137
0.847059 0.392157 0.043137
0.870588 0.392157 0.043137
0.894118 0.392157 0.043137
0.917647 0.392157 0.043137
0.937255 0.392157 0.043137
0.960784 0.392157 0.043137
0.980392 0.392157 0.043137
1.000000 0.392157 0.043137
0.000000 0.447059 0.043137
0.070588 0.447059 0.043137
0.133333 0.447059 0.043137
0.203922 0.447059 0.043137
0.270588 0.447059 0.043137
0.329412 0.447059 0.043137
0.392157 0.447059 0.043137
0.447059 0.447059 0.043137
0.505882 0.447059 0.043137
0.556863 0.447059 0.043137
0.603922 0.447059 0.043137
0.647059 0.447059 0.043137
0.690196 0.447059 0.043137
0.725490 0.447059 0.043137
0.760784 0.447059 0.043137
0.788235 0.447059 0.043137
0.819608 0.447059 0.043137
0.847059 0.447059 0.043137
0.870588 0.447059 0.043137
0.894118 0.447059 0.043137
0.917647 0.447059 0.043137
0.937255 0.447059 0.043137
0.960784 0.447059 0.043137
0.980392 0.447059 0.043137
1.000000 0.447059 0.043137
0.000000 0.505882 0.043137
0.070588 0.505882 0.043137
0.133333 0.505882 0.043137
0.203922 0.505882 0.043137
0.270588 0.505882 0.043137
0.329412 0.505882 0.043137
0.392157 0.505882 0.043137
0.447059 0.505882 0.043137
0.505882 0.505882 0.043137
0.556863 0.505882 0.043137
0.603922 0.505882 0.043137
0.647059 0.505882 0.043137
0.690196 0.505882 0.043137
0.725490 0.505882 0.043137
0.760784 0.505882 0.043137
0.788235 0.505882 0.043137
0.819608 0.505882 0.043137
0.847059 0.505882 0.043137
0.870588 0.505882 0.043137
0.894118 0.505882 0.043137
0.917647 0.505882 0.043137
0.937255 0.505882 0.043137
0.960784 0.505882 0.043137
0.980392 0.505882 0.043137
1.000000 0.505882 0.043137
0.000000 0.556863 0.043137
0.070588 0.556863 0.043137
0.133333 0.556863 0.043137
0.203922 0.556863 0.043137
0.270588 0.556863 0.043137
0.329412 0.556863 0.043137
0.392157 0.556863 0.043137
0.447059 0.556863 0.043137
0.505882 0.556863 0.043137
0.556863 0.556863 0.043137
0.603922 0.556863 0.043137
0.647059 0.556863 0.043137
0.690196 0.556863 0.043137
0.725490 0.556863 0.043137
0.760784 0.556863 0.043137
0.788235 0.556863 0.043137
0.819608 0.556863 0.043137
0.847059 0.556863 0.043137
0.870588 0.556863 0.043137
0.894118 0.556863 0.043137
0.917647 0.556863 0.043137
0.937255 0.556863 0.043137
0.960784 0.556863 0.043137
0.980392 0.556863 0.043137
1.000000 0.556863 0.043137
0.000000 0.603922 0.043137
0.070588 0.603922 0.043137
0.133333 0.603922 0.043137
0.203922 0.603922 0.043137
0.270588 0.603922 0.043137
0.329412 0.603922 0.043137
0.392157 0.603922 0.043137
0.447059 0.603922 0.043137
0.505882 0.603922 0.043137
