LUTs/Damaging/LUT_GREEN/Storybook.cube
#Generated by lutCreator.js
#Coded by SirSerch
#https://github.com/SirSerch/LutCreatorJs
TITLE lutCreatorJs_25
LUT_3D_SIZE 5
0.000000 0.000000 0.000000
0.392157 0.000000 0.000000
0.690196 0.000000 0.000000
0.870588 0.000000 0.000000
1.000000 0.000000 0.000000
0.000000 0.392157 0.000000
0.392157 0.392157 0.000000
0.690196 0.392157 0.000000
0.870588 0.392157 0.000000
1.000000 0.392157 0.000000
0.000000 0.690196 0.000000
0.392157 0.690196 0.000000
0.690196 0.690196 0.000000
0.870588 0.690196 0.000000
1.000000 0.690196 0.000000
0.000000 0.870588 0.000000
0.392157 0.870588 0.000000
0.690196 0.870588 0.000000
0.870588 0.870588 0.000000
1.000000 0.870588 0.000000
0.000000 1.000000 0.000000
0.392157 1.000000 0.000000
0.690196 1.000000 0.000000
0.870588 1.000000 0.000000
1.000000 1.000000 0.000000
0.000000 0.000000 0.250980
0.392157 0.000000 0.250980
0.690196 0.000000 0.250980
0.870588 0.000000 0.250980
1.000000 0.000000 0.250980
0.000000 0.392157 0.250980
0.392157 0.392157 0.250980
0.690196 0.392157 0.250980
0.870588 0.392157 0.250980
1.000000 0.392157 0.250980
0.000000 0.690196 0.250980
0.392157 0.690196 0.250980
0.690196 0.690196 0.250980
0.870588 0.690196 0.250980
1.000000 0.690196 0.250980
0.000000 0.870588 0.250980
0.392157 0.870588 0.250980
0.690196 0.870588 0.250980
0.870588 0.870588 0.250980
1.000000 0.870588 0.250980
0.000000 1.000000 0.250980
0.392157 1.000000 0.250980
0.690196 1.000000 0.250980
0.870588 1.000000 0.250980
1.000000 1.000000 0.250980
0.000000 0.000000 0.501961
0.392157 0.000000 0.501961
0.690196 0.000000 0.501961
0.870588 0.000000 0.501961
1.000000 0.000000 0.501961
0.000000 0.392157 0.501961
0.392157 0.392157 0.501961
0.690196 0.392157 0.501961
0.870588 0.392157 0.501961
1.000000 0.392157 0.501961
0.000000 0.690196 0.501961
0.392157 0.690196 0.501961
0.690196 0.690196 0.501961
0.870588 0.690196 0.501961
1.000000 0.690196 0.501961
0.000000 0.870588 0.501961
0.392157 0.870588 0.501961
0.690196 0.870588 0.501961
0.870588 0.870588 0.501961
1.000000 0.870588 0.501961
0.000000 1.000000 0.501961
0.392157 1.000000 0.501961
0.690196 1.000000 0.501961
0.870588 1.000000 0.501961
1.000000 1.000000 0.501961
0.000000 0.000000 0.749020
0.392157 0.000000 0.749020
0.690196 0.000000 0.749020
0.870588 0.000000 0.749020
1.000000 0.000000 0.749020
0.000000 0.392157 0.749020
0.392157 0.392157 0.749020
0.690196 0.392157 0.749020
0.870588 0.392157 0.749020
1.000000 0.392157 0.749020
0.000000 0.690196 0.749020
0.392157 0.690196 0.749020
0.690196 0.690196 0.749020
0.870588 0.690196 0.749020
1.000000 0.690196 0.749020
0.000000 0.870588 0.749020
0.392157 0.870588 0.749020
0.690196 0.870588 0.749020
0.870588 0.870588 0.749020
1.000000 0.870588 0.749020
0.000000 1.000000 0.749020
0.392157 1.000000 0.749020
0.690196 1.000000 0.749020
0.870588 1.000000 0.749020
1.000000 1.000000 0.749020
0.000000 0.000000 1.000000
0.392157 0.000000 1.000000
0.690196 0.000000 1.000000
0.870588 0.000000 1.000000
1.000000 0.000000 1.000000
0.000000 0.392157 1.000000
0.392157 0.392157 1.000000
0.690196 0.392157 1.000000
0.870588 0.392157 1.000000
1.000000 0.392157 1.000000
0.000000 0.690196 1.000000
0.392157 0.690196 1.000000
0.690196 0.690196 1.000000
0.870588 0.690196 1.000000
1.000000 0.690196 1.000000
0.000000 0.870588 1.000000
0.392157 0.870588 1.000000
0.690196 0.870588 1.000000
0.870588 0.870588 1.000000
1.000000 0.870588 1.000000
0.000000 1.000000 1.000000
0.392157 1.000000 1.000000
0.690196 1.000000 1.000000
0.870588 1.000000 1.000000
1.000000 1.000000 1.000000
