LUTs/Damaging/LUT_GREEN/Storybook.cube
#Generated by lutCreator.js
#Coded by SirSerch
#https://github.com/SirSerch/LutCreatorJs
TITLE lutCreatorJs_25
LUT_3D_SIZE 9
0.000000 0.000000 0.000000
0.203922 0.000000 0.000000
0.392157 0.000000 0.000000
0.556863 0.000000 0.000000
0.690196 0.000000 0.000000
0.788235 0.000000 0.000000
0.870588 0.000000 0.000000
0.937255 0.000000 0.000000
1.000000 0.000000 0.000000
0.000000 0.203922 0.000000
0.203922 0.203922 0.000000
0.392157 0.203922 0.000000
0.556863 0.203922 0.000000
0.690196 0.203922 0.000000
0.788235 0.203922 0.000000
0.870588 0.203922 0.000000
0.937255 0.203922 0.000000
1.000000 0.203922 0.000000
0.000000 0.392157 0.000000
0.203922 0.392157 0.000000
0.392157 0.392157 0.000000
0.556863 0.392157 0.000000
0.690196 0.392157 0.000000
0.788235 0.392157 0.000000
0.870588 0.392157 0.000000
0.937255 0.392157 0.000000
1.000000 0.392157 0.000000
0.000000 0.556863 0.000000
0.203922 0.556863 0.000000
0.392157 0.556863 0.000000
0.556863 0.556863 0.000000
0.690196 0.556863 0.000000
0.788235 0.556863 0.000000
0.870588 0.556863 0.000000
0.937255 0.556863 0.000000
1.000000 0.556863 0.000000
0.000000 0.690196 0.000000
0.203922 0.690196 0.000000
0.392157 0.690196 0.000000
0.556863 0.690196 0.000000
0.690196 0.690196 0.000000
0.788235 0.690196 0.000000
0.870588 0.690196 0.000000
0.937255 0.690196 0.000000
1.000000 0.690196 0.000000
0.000000 0.788235 0.000000
0.203922 0.788235 0.000000
0.392157 0.788235 0.000000
0.556863 0.788235 0.000000
0.690196 0.788235 0.000000
0.788235 0.788235 0.000000
0.870588 0.788235 0.000000
0.937255 0.788235 0.000000
1.000000 0.788235 0.000000
0.000000 0.870588 0.000000
0.203922 0.870588 0.000000
0.392157 0.870588 0.000000
0.556863 0.870588 0.000000
0.690196 0.870588 0.000000
0.788235 0.870588 0.000000
0.870588 0.870588 0.000000
0.937255 0.870588 0.000000
1.000000 0.870588 0.000000
0.000000 0.937255 0.000000
0.203922 0.937255 0.000000
0.392157 0.937255 0.000000
0.556863 0.937255 0.000000
0.690196 0.937255 0.000000
0.788235 0.937255 0.000000
0.870588 0.937255 0.000000
0.937255 0.937255 0.000000
1.000000 0.937255 0.000000
0.000000 1.000000 0.000000
0.203922 1.000000 0.000000
0.392157 1.000000 0.000000
0.556863 1.000000 0.000000
0.690196 1.000000 0.000000
0.788235 1.000000 0.000000
0.870588 1.000000 0.000000
0.937255 1.000000 0.000000
1.000000 1.000000 0.000000
0.000000 0.000000 0.125490
0.203922 0.000000 0.125490
0.392157 0.000000 0.125490
0.556863 0.000000 0.125490
0.690196 0.000000 0.125490
0.788235 0.000000 0.125490
0.870588 0.000000 0.125490
0.937255 0.000000 0.125490
1.000000 0.000000 0.125490
0.000000 0.203922 0.125490
0.203922 0.203922 0.125490
0.392157 0.203922 0.125490
0.556863 0.203922 0.125490
0.690196 0.203922 0.125490
0.788235 0.203922 0.125490
0.870588 0.203922 0.125490
0.937255 0.203922 0.125490
1.000000 0.203922 0.125490
0.000000 0.392157 0.125490
0.203922 0.392157 0.125490
0.392157 0.392157 0.125490
0.556863 0.392157 0.125490
0.690196 0.392157 0.125490
0.788235 0.392157 0.125490
0.870588 0.392157 0.125490
0.937255 0.392157 0.125490
1.000000 0.392157 0.125490
0.000000 0.556863 0.125490
0.203922 0.556863 0.125490
0.392157 0.556863 0.125490
0.556863 0.556863 0.125490
0.690196 0.556863 0.125490
0.788235 0.556863 0.125490
0.870588 0.556863 0.125490
0.937255 0.556863 0.125490
1.000000 0.556863 0.125490
0.000000 0.690196 0.125490
0.203922 0.690196 0.125490
0.392157 0.690196 0.125490
0.556863 0.690196 0.125490
0.690196 0.690196 0.125490
0.788235 0.690196 0.125490
0.870588 0.690196 0.125490
0.937255 0.690196 0.125490
1.000000 0.690196 0.125490
0.000000 0.788235 0.125490
0.203922 0.788235 0.125490
0.392157 0.788235 0.125490
0.556863 0.788235 0.125490
0.690196 0.788235 0.125490
0.788235 0.788235 0.125490
0.870588 0.788235 0.125490
0.937255 0.788235 0.125490
1.000000 0.788235 0.125490
0.000000 0.870588 0.125490
0.203922 0.870588 0.125490
0.392157 0.870588 0.125490
0.556863 0.870588 0.125490
0.690196 0.870588 0.125490
0.788235 0.870588 0.125490
0.870588 0.870588 0.125490
0.937255 0.870588 0.125490
1.000000 0.870588 0.125490
0.000000 0.937255 0.125490
0.203922 0.937255 0.125490
0.392157 0.937255 0.125490
0.556863 0.937255 0.125490
0.690196 0.937255 0.125490
0.788235 0.937255 0.125490
0.870588 0.937255 0.125490
0.937255 0.937255 0.125490
1.000000 0.937255 0.125490
0.000000 1.000000 0.125490
0.203922 1.000000 0.125490
0.392157 1.000000 0.125490
0.556863 1.000000 0.125490
0.690196 1.000000 0.125490
0.788235 1.000000 0.125490
0.870588 1.000000 0.125490
0.937255 1.000000 0.125490
1.000000 1.000000 0.125490
0.000000 0.000000 0.250980
0.203922 0.000000 0.250980
0.392157 0.000000 0.250980
0.556863 0.000000 0.250980
0.690196 0.000000 0.250980
0.788235 0.000000 0.250980
0.870588 0.000000 0.250980
0.937255 0.000000 0.250980
1.000000 0.000000 0.250980
0.000000 0.203922 0.250980
0.203922 0.203922 0.250980
0.392157 0.203922 0.250980
0.556863 0.203922 0.250980
0.690196 0.203922 0.250980
0.788235 0.203922 0.250980
0.870588 0.203922 0.250980
0.937255 0.203922 0.250980
1.000000 0.203922 0.250980
0.000000 0.392157 0.250980
0.203922 0.392157 0.250980
0.392157 0.392157 0.250980
0.556863 0.392157 0.250980
0.690196 0.392157 0.250980
0.788235 0.392157 0.250980
0.870588 0.392157 0.250980
0.937255 0.392157 0.250980
1.000000 0.392157 0.250980
0.000000 0.556863 0.250980
0.203922 0.556863 0.250980
0.392157 0.556863 0.250980
0.556863 0.556863 0.250980
0.690196 0.556863 0.250980
0.788235 0.556863 0.250980
0.870588 0.556863 0.250980
0.937255 0.556863 0.250980
1.000000 0.556863 0.250980
0.000000 0.690196 0.250980
0.203922 0.690196 0.250980
0.392157 0.690196 0.250980
0.556863 0.690196 0.250980
0.690196 0.690196 0.250980
0.788235 0.690196 0.250980
0.870588 0.690196 0.250980
0.937255 0.690196 0.250980
1.000000 0.690196 0.250980
0.000000 0.788235 0.250980
0.203922 0.788235 0.250980
0.392157 0.788235 0.250980
0.556863 0.788235 0.250980
0.690196 0.788235 0.250980
0.788235 0.788235 0.250980
0.870588 0.788235 0.250980
0.937255 0.788235 0.250980
1.000000 0.788235 0.250980
0.000000 0.870588 0.250980
0.203922 0.870588 0.250980
0.392157 0.870588 0.250980
0.556863 0.870588 0.250980
0.690196 0.870588 0.250980
0.788235 0.870588 0.250980
0.870588 0.870588 0.250980
0.937255 0.870588 0.250980
1.000000 0.870588 0.250980
0.000000 0.937255 0.250980
0.203922 0.937255 0.250980
0.392157 0.937255 0.250980
0.556863 0.937255 0.250980
0.690196 0.937255 0.250980
0.788235 0.937255 0.250980
0.870588 0.937255 0.250980
0.937255 0.937255 0.250980
1.000000 0.937255 0.250980
0.000000 1.000000 0.250980
0.203922 1.000000 0.250980
0.392157 1.000000 0.250980
0.556863 1.000000 0.250980
0.690196 1.000000 0.250980
0.788235 1.000000 0.250980
0.870588 1.000000 0.250980
0.937255 1.000000 0.250980
1.000000 1.000000 0.250980
0.000000 0.000000 0.376471
0.203922 0.000000 0.376471
0.392157 0.000000 0.376471
0.556863 0.000000 0.376471
0.690196 0.000000 0.376471
0.788235 0.000000 0.376471
0.870588 0.000000 0.376471
0.937255 0.000000 0.376471
1.000000 0.000000 0.376471
0.000000 0.203922 0.376471
0.203922 0.203922 0.376471
0.392157 0.203922 0.376471
0.556863 0.203922 0.376471
0.690196 0.203922 0.376471
0.788235 0.203922 0.376471
0.870588 0.203922 0.376471
0.937255 0.203922 0.376471
1.000000 0.203922 0.376471
0.000000 0.392157 0.376471
0.203922 0.392157 0.376471
0.392157 0.392157 0.376471
0.556863 0.392157 0.376471
0.690196 0.392157 0.376471
0.788235 0.392157 0.376471
0.870588 0.392157 0.376471
0.937255 0.392157 0.376471
1.000000 0.392157 0.376471
0.000000 0.556863 0.376471
0.203922 0.556863 0.376471
0.392157 0.556863 0.376471
0.556863 0.556863 0.376471
0.690196 0.556863 0.376471
0.788235 0.556863 0.376471
0.870588 0.556863 0.376471
0.937255 0.556863 0.376471
1.000000 0.556863 0.376471
0.000000 0.690196 0.376471
0.203922 0.690196 0.376471
0.392157 0.690196 0.376471
0.556863 0.690196 0.376471
0.690196 0.690196 0.376471
0.788235 0.690196 0.376471
0.870588 0.690196 0.376471
0.937255 0.690196 0.376471
1.000000 0.690196 0.376471
0.000000 0.788235 0.376471
0.203922 0.788235 0.376471
0.392157 0.788235 0.376471
0.556863 0.788235 0.376471
0.690196 0.788235 0.376471
0.788235 0.788235 0.376471
0.870588 0.788235 0.376471
0.937255 0.788235 0.376471
1.000000 0.788235 0.376471
0.000000 0.870588 0.376471
0.203922 0.870588 0.376471
0.392157 0.870588 0.376471
0.556863 0.870588 0.376471
0.690196 0.870588 0.376471
0.788235 0.870588 0.376471
0.870588 0.870588 0.376471
0.937255 0.870588 0.376471
1.000000 0.870588 0.376471
0.000000 0.937255 0.376471
0.203922 0.937255 0.376471
0.392157 0.937255 0.376471
0.556863 0.937255 0.376471
0.690196 0.937255 0.376471
0.788235 0.937255 0.376471
0.870588 0.937255 0.376471
0.937255 0.937255 0.376471
1.000000 0.937255 0.376471
0.000000 1.000000 0.376471
0.203922 1.000000 0.376471
0.392157 1.000000 0.376471
0.556863 1.000000 0.376471
0.690196 1.000000 0.376471
0.788235 1.000000 0.376471
0.870588 1.000000 0.376471
0.937255 1.000000 0.376471
1.000000 1.000000 0.376471
0.000000 0.000000 0.501961
0.203922 0.000000 0.501961
0.392157 0.000000 0.501961
0.556863 0.000000 0.501961
0.690196 0.000000 0.501961
0.788235 0.000000 0.501961
0.870588 0.000000 0.501961
0.937255 0.000000 0.501961
1.000000 0.000000 0.501961
0.000000 0.203922 0.501961
0.203922 0.203922 0.501961
0.392157 0.203922 0.501961
0.556863 0.203922 0.501961
0.690196 0.203922 0.501961
0.788235 0.203922 0.501961
0.870588 0.203922 0.501961
0.937255 0.203922 0.501961
1.000000 0.203922 0.501961
0.000000 0.392157 0.501961
0.203922 0.392157 0.501961
0.392157 0.392157 0.501961
0.556863 0.392157 0.501961
0.690196 0.392157 0.501961
0.788235 0.392157 0.501961
0.870588 0.392157 0.501961
0.937255 0.392157 0.501961
1.000000 0.392157 0.501961
0.000000 0.556863 0.501961
0.203922 0.556863 0.501961
0.392157 0.556863 0.501961
0.556863 0.556863 0.501961
0.690196 0.556863 0.501961
0.788235 0.556863 0.501961
0.870588 0.556863 0.501961
0.937255 0.556863 0.501961
1.000000 0.556863 0.501961
0.000000 0.690196 0.501961
0.203922 0.690196 0.501961
0.392157 0.690196 0.501961
0.556863 0.690196 0.501961
0.690196 0.690196 0.501961
0.788235 0.690196 0.501961
0.870588 0.690196 0.501961
0.937255 0.690196 0.501961
1.000000 0.690196 0.501961
0.000000 0.788235 0.501961
0.203922 0.788235 0.501961
0.392157 0.788235 0.501961
0.556863 0.788235 0.501961
0.690196 0.788235 0.501961
0.788235 0.788235 0.501961
0.870588 0.788235 0.501961
0.937255 0.788235 0.501961
1.000000 0.788235 0.501961
0.000000 0.870588 0.501961
0.203922 0.870588 0.501961
0.392157 0.870588 0.501961
0.556863 0.870588 0.501961
0.690196 0.870588 0.501961
0.788235 0.870588 0.501961
0.870588 0.870588 0.501961
0.937255 0.870588 0.501961
1.000000 0.870588 0.501961
0.000000 0.937255 0.501961
0.203922 0.937255 0.501961
0.392157 0.937255 0.501961
0.556863 0.937255 0.501961
0.690196 0.937255 0.501961
0.788235 0.937255 0.501961
0.870588 0.937255 0.501961
0.937255 0.937255 0.501961
1.000000 0.937255 0.501961
0.000000 1.000000 0.501961
0.203922 1.000000 0.501961
0.392157 1.000000 0.501961
0.556863 1.000000 0.501961
0.690196 1.000000 0.501961
0.788235 1.000000 0.501961
0.870588 1.000000 0.501961
0.937255 1.000000 0.501961
1.000000 1.000000 0.501961
0.000000 0.000000 0.623529
0.203922 0.000000 0.623529
0.392157 0.000000 0.623529
0.556863 0.000000 0.623529
0.690196 0.000000 0.623529
0.788235 0.000000 0.623529
0.870588 0.000000 0.623529
0.937255 0.000000 0.623529
1.000000 0.000000 0.623529
0.000000 0.203922 0.623529
0.203922 0.203922 0.623529
0.392157 0.203922 0.623529
0.556863 0.203922 0.623529
0.690196 0.203922 0.623529
0.788235 0.203922 0.623529
0.870588 0.203922 0.623529
0.937255 0.203922 0.623529
1.000000 0.203922 0.623529
0.000000 0.392157 0.623529
0.203922 0.392157 0.623529
0.392157 0.392157 0.623529
0.556863 0.392157 0.623529
0.690196 0.392157 0.623529
0.788235 0.392157 0.623529
0.870588 0.392157 0.623529
0.937255 0.392157 0.623529
1.000000 0.392157 0.623529
0.000000 0.556863 0.623529
0.203922 0.556863 0.623529
0.392157 0.556863 0.623529
0.556863 0.556863 0.623529
0.690196 0.556863 0.623529
0.788235 0.556863 0.623529
0.870588 0.556863 0.623529
0.937255 0.556863 0.623529
1.000000 0.556863 0.623529
0.000000 0.690196 0.623529
0.203922 0.690196 0.623529
0.392157 0.690196 0.623529
0.556863 0.690196 0.623529
0.690196 0.690196 0.623529
0.788235 0.690196 0.623529
0.870588 0.690196 0.623529
0.937255 0.690196 0.623529
1.000000 0.690196 0.623529
0.000000 0.788235 0.623529
0.203922 0.788235 0.623529
0.392157 0.788235 0.623529
0.556863 0.788235 0.623529
0.690196 0.788235 0.623529
0.788235 0.788235 0.623529
0.870588 0.788235 0.623529
0.937255 0.788235 0.623529
1.000000 0.788235 0.623529
0.000000 0.870588 0.623529
0.203922 0.870588 0.623529
0.392157 0.870588 0.623529
0.556863 0.870588 0.623529
0.690196 0.870588 0.623529
0.788235 0.870588 0.623529
0.870588 0.870588 0.623529
0.937255 0.870588 0.623529
1.000000 0.870588 0.623529
0.000000 0.937255 0.623529
0.203922 0.937255 0.623529
0.392157 0.937255 0.623529
0.556863 0.937255 0.623529
0.690196 0.937255 0.623529
0.788235 0.937255 0.623529
0.870588 0.937255 0.623529
0.937255 0.937255 0.623529
1.000000 0.937255 0.623529
0.000000 1.000000 0.623529
0.203922 1.000000 0.623529
0.392157 1.000000 0.623529
0.556863 1.000000 0.623529
0.690196 1.000000 0.623529
0.788235 1.000000 0.623529
0.870588 1.000000 0.623529
0.937255 1.000000 0.623529
1.000000 1.000000 0.623529
0.000000 0.000000 0.749020
0.203922 0.000000 0.749020
0.392157 0.000000 0.749020
0.556863 0.000000 0.749020
0.690196 0.000000 0.749020
0.788235 0.000000 0.749020
0.870588 0.000000 0.749020
0.937255 0.000000 0.749020
1.000000 0.000000 0.749020
0.000000 0.203922 0.749020
0.203922 0.203922 0.749020
0.392157 0.203922 0.749020
0.556863 0.203922 0.749020
0.690196 0.203922 0.749020
0.788235 0.203922 0.749020
0.870588 0.203922 0.749020
0.937255 0.203922 0.749020
1.000000 0.203922 0.749020
0.000000 0.392157 0.749020
0.203922 0.392157 0.749020
0.392157 0.392157 0.749020
0.556863 0.392157 0.749020
0.690196 0.392157 0.749020
0.788235 0.392157 0.749020
0.870588 0.392157 0.749020
0.937255 0.392157 0.749020
1.000000 0.392157 0.749020
0.000000 0.556863 0.749020
0.203922 0.556863 0.749020
0.392157 0.556863 0.749020
0.556863 0.556863 0.749020
0.690196 0.556863 0.749020
0.788235 0.556863 0.749020
0.870588 0.556863 0.749020
0.937255 0.556863 0.749020
1.000000 0.556863 0.749020
0.000000 0.690196 0.749020
0.203922 0.690196 0.749020
0.392157 0.690196 0.749020
0.556863 0.690196 0.749020
0.690196 0.690196 0.749020
0.788235 0.690196 0.749020
0.870588 0.690196 0.749020
0.937255 0.690196 0.749020
1.000000 0.690196 0.749020
0.000000 0.788235 0.749020
0.203922 0.788235 0.749020
0.392157 0.788235 0.749020
0.556863 0.788235 0.749020
0.690196 0.788235 0.749020
0.788235 0.788235 0.749020
0.870588 0.788235 0.749020
0.937255 0.788235 0.749020
1.000000 0.788235 0.749020
0.000000 0.870588 0.749020
0.203922 0.870588 0.749020
0.392157 0.870588 0.749020
0.556863 0.870588 0.749020
0.690196 0.870588 0.749020
0.788235 0.870588 0.749020
0.870588 0.870588 0.749020
0.937255 0.870588 0.749020
1.000000 0.870588 0.749020
0.000000 0.937255 0.749020
0.203922 0.937255 0.749020
0.392157 0.937255 0.749020
0.556863 0.937255 0.749020
0.690196 0.937255 0.749020
0.788235 0.937255 0.749020
0.870588 0.937255 0.749020
0.937255 0.937255 0.749020
1.000000 0.937255 0.749020
0.000000 1.000000 0.749020
0.203922 1.000000 0.749020
0.392157 1.000000 0.749020
0.556863 1.000000 0.749020
0.690196 1.000000 0.749020
0.788235 1.000000 0.749020
0.870588 1.000000 0.749020
0.937255 1.000000 0.749020
1.000000 1.000000 0.749020
0.000000 0.000000 0.874510
0.203922 0.000000 0.874510
0.392157 0.000000 0.874510
0.556863 0.000000 0.874510
0.690196 0.000000 0.874510
0.788235 0.000000 0.874510
0.870588 0.000000 0.874510
0.937255 0.000000 0.874510
1.000000 0.000000 0.874510
0.000000 0.203922 0.874510
0.203922 0.203922 0.874510
0.392157 0.203922 0.874510
0.556863 0.203922 0.874510
0.690196 0.203922 0.874510
0.788235 0.203922 0.874510
0.870588 0.203922 0.874510
0.937255 0.203922 0.874510
1.000000 0.203922 0.874510
0.000000 0.392157 0.874510
0.203922 0.392157 0.874510
0.392157 0.392157 0.874510
0.556863 0.392157 0.874510
0.690196 0.392157 0.874510
0.788235 0.392157 0.874510
0.870588 0.392157 0.874510
0.937255 0.392157 0.874510
1.000000 0.392157 0.874510
0.000000 0.556863 0.874510
0.203922 0.556863 0.874510
0.392157 0.556863 0.874510
0.556863 0.556863 0.874510
0.690196 0.556863 0.874510
0.788235 0.556863 0.874510
0.870588 0.556863 0.874510
0.937255 0.556863 0.874510
1.000000 0.556863 0.874510
0.000000 0.690196 0.874510
0.203922 0.690196 0.874510
0.392157 0.690196 0.874510
0.556863 0.690196 0.874510
0.690196 0.690196 0.874510
0.788235 0.690196 0.874510
0.870588 0.690196 0.874510
0.937255 0.690196 0.874510
1.000000 0.690196 0.874510
0.000000 0.788235 0.874510
0.203922 0.788235 0.874510
0.392157 0.788235 0.874510
0.556863 0.788235 0.874510
0.690196 0.788235 0.874510
0.788235 0.788235 0.874510
0.870588 0.788235 0.874510
0.937255 0.788235 0.874510
1.000000 0.788235 0.874510
0.000000 0.870588 0.874510
0.203922 0.870588 0.874510
0.392157 0.870588 0.874510
0.556863 0.870588 0.874510
0.690196 0.870588 0.874510
0.788235 0.870588 0.874510
0.870588 0.870588 0.874510
0.937255 0.870588 0.874510
1.000000 0.870588 0.874510
0.000000 0.937255 0.874510
0.203922 0.937255 0.874510
0.392157 0.937255 0.874510
0.556863 0.937255 0.874510
0.690196 0.937255 0.874510
0.788235 0.937255 0.874510
0.870588 0.937255 0.874510
0.937255 0.937255 0.874510
1.000000 0.937255 0.874510
0.000000 1.000000 0.874510
0.203922 1.000000 0.874510
0.392157 1.000000 0.874510
0.556863 1.000000 0.874510
0.690196 1.000000 0.874510
0.788235 1.000000 0.874510
0.870588 1.000000 0.874510
0.937255 1.000000 0.874510
1.000000 1.000000 0.874510
0.000000 0.000000 1.000000
0.203922 0.000000 1.000000
0.392157 0.000000 1.000000
0.556863 0.000000 1.000000
0.690196 0.000000 1.000000
0.788235 0.000000 1.000000
0.870588 0.000000 1.000000
0.937255 0.000000 1.000000
1.000000 0.000000 1.000000
0.000000 0.203922 1.000000
0.203922 0.203922 1.000000
0.392157 0.203922 1.000000
0.556863 0.203922 1.000000
0.690196 0.203922 1.000000
0.788235 0.203922 1.000000
0.870588 0.203922 1.000000
0.937255 0.203922 1.000000
1.000000 0.203922 1.000000
0.000000 0.392157 1.000000
0.203922 0.392157 1.000000
0.392157 0.392157 1.000000
0.556863 0.392157 1.000000
0.690196 0.392157 1.000000
0.788235 0.392157 1.000000
0.870588 0.392157 1.000000
0.937255 0.392157 1.000000
1.000000 0.392157 1.000000
0.000000 0.556863 1.000000
0.203922 0.556863 1.000000
0.392157 0.556863 1.000000
0.556863 0.556863 1.000000
0.690196 0.556863 1.000000
0.788235 0.556863 1.000000
0.870588 0.556863 1.000000
0.937255 0.556863 1.000000
1.000000 0.556863 1.000000
0.000000 0.690196 1.000000
0.203922 0.690196 1.000000
0.392157 0.690196 1.000000
0.556863 0.690196 1.000000
0.690196 0.690196 1.000000
0.788235 0.690196 1.000000
0.870588 0.690196 1.000000
0.937255 0.690196 1.000000
1.000000 0.690196 1.000000
0.000000 0.788235 1.000000
0.203922 0.788235 1.000000
0.392157 0.788235 1.000000
0.556863 0.788235 1.000000
0.690196 0.788235 1.000000
0.788235 0.788235 1.000000
0.870588 0.788235 1.000000
0.937255 0.788235 1.000000
1.000000 0.788235 1.000000
0.000000 0.870588 1.000000
0.203922 0.870588 1.000000
0.392157 0.870588 1.000000
0.556863 0.870588 1.000000
0.690196 0.870588 1.000000
0.788235 0.870588 1.000000
0.870588 0.870588 1.000000
0.937255 0.870588 1.000000
1.000000 0.870588 1.000000
0.000000 0.937255 1.000000
0.203922 0.937255 1.000000
0.392157 0.937255 1.000000
0.556863 0.937255 1.000000
0.690196 0.937255 1.000000
0.788235 0.937255 1.000000
0.870588 0.937255 1.000000
0.937255 0.937255 1.000000
1.000000 0.937255 1.000000
0.000000 1.000000 1.000000
0.203922 1.000000 1.000000
0.392157 1.000000 1.000000
0.556863 1.000000 1.000000
0.690196 1.000000 1.000000
0.788235 1.000000 1.000000
0.870588 1.000000 1.000000
0.937255 1.000000 1.000000
1.000000 1.000000 1.000000
