LUTs/Damaging/LUT_GREEN/teal.cube
#Generated by lutCreator.js
#Coded by SirSerch
#https://github.com/SirSerch/LutCreatorJs
TITLE lutCreatorJs_25
LUT_3D_SIZE 9
0.000000 0.000000 0.000000
0.125490 0.000000 0.000000
0.250980 0.000000 0.000000
0.376471 0.000000 0.000000
0.501961 0.000000 0.000000
0.623529 0.000000 0.000000
0.749020 0.000000 0.000000
0.874510 0.000000 0.000000
1.000000 0.000000 0.000000
0.000000 0.188235 0.000000
0.125490 0.188235 0.000000
0.250980 0.188235 0.000000
0.376471 0.188235 0.000000
0.501961 0.188235 0.000000
0.623529 0.188235 0.000000
0.749020 0.188235 0.000000
0.874510 0.188235 0.000000
1.000000 0.188235 0.000000
0.000000 0.368627 0.000000
0.125490 0.368627 0.000000
0.250980 0.368627 0.000000
0.376471 0.368627 0.000000
0.501961 0.368627 0.000000
0.623529 0.368627 0.000000
0.749020 0.368627 0.000000
0.874510 0.368627 0.000000
1.000000 0.368627 0.000000
0.000000 0.529412 0.000000
0.125490 0.529412 0.000000
0.250980 0.529412 0.000000
0.376471 0.529412 0.000000
0.501961 0.529412 0.000000
0.623529 0.529412 0.000000
0.749020 0.529412 0.000000
0.874510 0.529412 0.000000
1.000000 0.529412 0.000000
0.000000 0.658824 0.000000
0.125490 0.658824 0.000000
0.250980 0.658824 0.000000
0.376471 0.658824 0.000000
0.501961 0.658824 0.000000
0.623529 0.658824 0.000000
0.749020 0.658824 0.000000
0.874510 0.658824 0.000000
1.000000 0.658824 0.000000
0.000000 0.760784 0.000000
0.125490 0.760784 0.000000
0.250980 0.760784 0.000000
0.376471 0.760784 0.000000
0.501961 0.760784 0.000000
0.623529 0.760784 0.000000
0.749020 0.760784 0.000000
0.874510 0.760784 0.000000
1.000000 0.760784 0.000000
0.000000 0.850980 0.000000
0.125490 0.850980 0.000000
0.250980 0.850980 0.000000
0.376471 0.850980 0.000000
0.501961 0.850980 0.000000
0.623529 0.850980 0.000000
0.749020 0.850980 0.000000
0.874510 0.850980 0.000000
1.000000 0.850980 0.000000
0.000000 0.929412 0.000000
0.125490 0.929412 0.000000
0.250980 0.929412 0.000000
0.376471 0.929412 0.000000
0.501961 0.929412 0.000000
0.623529 0.929412 0.000000
0.749020 0.929412 0.000000
0.874510 0.929412 0.000000
1.000000 0.929412 0.000000
0.000000 1.000000 0.000000
0.125490 1.000000 0.000000
0.250980 1.000000 0.000000
0.376471 1.000000 0.000000
0.501961 1.000000 0.000000
0.623529 1.000000 0.000000
0.749020 1.000000 0.000000
0.874510 1.000000 0.000000
1.000000 1.000000 0.000000
0.000000 0.000000 0.192157
0.125490 0.000000 0.192157
0.250980 0.000000 0.192157
0.376471 0.000000 0.192157
0.501961 0.000000 0.192157
0.623529 0.000000 0.192157
0.749020 0.000000 0.192157
0.874510 0.000000 0.192157
1.000000 0.000000 0.192157
0.000000 0.188235 0.192157
0.125490 0.188235 0.192157
0.250980 0.188235 0.192157
0.376471 0.188235 0.192157
0.501961 0.188235 0.192157
0.623529 0.188235 0.192157
0.749020 0.188235 0.192157
0.874510 0.188235 0.192157
1.000000 0.188235 0.192157
0.000000 0.368627 0.192157
0.125490 0.368627 0.192157
0.250980 0.368627 0.192157
0.376471 0.368627 0.192157
0.501961 0.368627 0.192157
0.623529 0.368627 0.192157
0.749020 0.368627 0.192157
0.874510 0.368627 0.192157
1.000000 0.368627 0.192157
0.000000 0.529412 0.192157
0.125490 0.529412 0.192157
0.250980 0.529412 0.192157
0.376471 0.529412 0.192157
0.501961 0.529412 0.192157
0.623529 0.529412 0.192157
0.749020 0.529412 0.192157
0.874510 0.529412 0.192157
1.000000 0.529412 0.192157
0.000000 0.658824 0.192157
0.125490 0.658824 0.192157
0.250980 0.658824 0.192157
0.376471 0.658824 0.192157
0.501961 0.658824 0.192157
0.623529 0.658824 0.192157
0.749020 0.658824 0.192157
0.874510 0.658824 0.192157
1.000000 0.658824 0.192157
0.000000 0.760784 0.192157
0.125490 0.760784 0.192157
0.250980 0.760784 0.192157
0.376471 0.760784 0.192157
0.501961 0.760784 0.192157
0.623529 0.760784 0.192157
0.749020 0.760784 0.192157
0.874510 0.760784 0.192157
1.000000 0.760784 0.192157
0.000000 0.850980 0.192157
0.125490 0.850980 0.192157
0.250980 0.850980 0.192157
0.376471 0.850980 0.192157
0.501961 0.850980 0.192157
0.623529 0.850980 0.192157
0.749020 0.850980 0.192157
0.874510 0.850980 0.192157
1.000000 0.850980 0.192157
0.000000 0.929412 0.192157
0.125490 0.929412 0.192157
0.250980 0.929412 0.192157
0.376471 0.929412 0.192157
0.501961 0.929412 0.192157
0.623529 0.929412 0.192157
0.749020 0.929412 0.192157
0.874510 0.929412 0.192157
1.000000 0.929412 0.192157
0.000000 1.000000 0.192157
0.125490 1.000000 0.192157
0.250980 1.000000 0.192157
0.376471 1.000000 0.192157
0.501961 1.000000 0.192157
0.623529 1.000000 0.192157
0.749020 1.000000 0.192157
0.874510 1.000000 0.192157
1.000000 1.000000 0.192157
0.000000 0.000000 0.372549
0.125490 0.000000 0.372549
0.250980 0.000000 0.372549
0.376471 0.000000 0.372549
0.501961 0.000000 0.372549
0.623529 0.000000 0.372549
0.749020 0.000000 0.372549
0.874510 0.000000 0.372549
1.000000 0.000000 0.372549
0.000000 0.188235 0.372549
0.125490 0.188235 0.372549
0.250980 0.188235 0.372549
0.376471 0.188235 0.372549
0.501961 0.188235 0.372549
0.623529 0.188235 0.372549
0.749020 0.188235 0.372549
0.874510 0.188235 0.372549
1.000000 0.188235 0.372549
0.000000 0.368627 0.372549
0.125490 0.368627 0.372549
0.250980 0.368627 0.372549
0.376471 0.368627 0.372549
0.501961 0.368627 0.372549
0.623529 0.368627 0.372549
0.749020 0.368627 0.372549
0.874510 0.368627 0.372549
1.000000 0.368627 0.372549
0.000000 0.529412 0.372549
0.125490 0.529412 0.372549
0.250980 0.529412 0.372549
0.376471 0.529412 0.372549
0.501961 0.529412 0.372549
0.623529 0.529412 0.372549
0.749020 0.529412 0.372549
0.874510 0.529412 0.372549
1.000000 0.529412 0.372549
0.000000 0.658824 0.372549
0.125490 0.658824 0.372549
0.250980 0.658824 0.372549
0.376471 0.658824 0.372549
0.501961 0.658824 0.372549
0.623529 0.658824 0.372549
0.749020 0.658824 0.372549
0.874510 0.658824 0.372549
1.000000 0.658824 0.372549
0.000000 0.760784 0.372549
0.125490 0.760784 0.372549
0.250980 0.760784 0.372549
0.376471 0.760784 0.372549
0.501961 0.760784 0.372549
0.623529 0.760784 0.372549
0.749020 0.760784 0.372549
0.874510 0.760784 0.372549
1.000000 0.760784 0.372549
0.000000 0.850980 0.372549
0.125490 0.850980 0.372549
0.250980 0.850980 0.372549
0.376471 0.850980 0.372549
0.501961 0.850980 0.372549
0.623529 0.850980 0.372549
0.749020 0.850980 0.372549
0.874510 0.850980 0.372549
1.000000 0.850980 0.372549
0.000000 0.929412 0.372549
0.125490 0.929412 0.372549
0.250980 0.929412 0.372549
0.376471 0.929412 0.372549
0.501961 0.929412 0.372549
0.623529 0.929412 0.372549
0.749020 0.929412 0.372549
0.874510 0.929412 0.372549
1.000000 0.929412 0.372549
0.000000 1.000000 0.372549
0.125490 1.000000 0.372549
0.250980 1.000000 0.372549
0.376471 1.000000 0.372549
0.501961 1.000000 0.372549
0.623529 1.000000 0.372549
0.749020 1.000000 0.372549
0.874510 1.000000 0.372549
1.000000 1.000000 0.372549
0.000000 0.000000 0.533333
0.125490 0.000000 0.533333
0.250980 0.000000 0.533333
0.376471 0.000000 0.533333
0.501961 0.000000 0.533333
0.623529 0.000000 0.533333
0.749020 0.000000 0.533333
0.874510 0.000000 0.533333
1.000000 0.000000 0.533333
0.000000 0.188235 0.533333
0.125490 0.188235 0.533333
0.250980 0.188235 0.533333
0.376471 0.188235 0.533333
0.501961 0.188235 0.533333
0.623529 0.188235 0.533333
0.749020 0.188235 0.533333
0.874510 0.188235 0.533333
1.000000 0.188235 0.533333
0.000000 0.368627 0.533333
0.125490 0.368627 0.533333
0.250980 0.368627 0.533333
0.376471 0.368627 0.533333
0.501961 0.368627 0.533333
0.623529 0.368627 0.533333
0.749020 0.368627 0.533333
0.874510 0.368627 0.533333
1.000000 0.368627 0.533333
0.000000 0.529412 0.533333
0.125490 0.529412 0.533333
0.250980 0.529412 0.533333
0.376471 0.529412 0.533333
0.501961 0.529412 0.533333
0.623529 0.529412 0.533333
0.749020 0.529412 0.533333
0.874510 0.529412 0.533333
1.000000 0.529412 0.533333
0.000000 0.658824 0.533333
0.125490 0.658824 0.533333
0.250980 0.658824 0.533333
0.376471 0.658824 0.533333
0.501961 0.658824 0.533333
0.623529 0.658824 0.533333
0.749020 0.658824 0.533333
0.874510 0.658824 0.533333
1.000000 0.658824 0.533333
0.000000 0.760784 0.533333
0.125490 0.760784 0.533333
0.250980 0.760784 0.533333
0.376471 0.760784 0.533333
0.501961 0.760784 0.533333
0.623529 0.760784 0.533333
0.749020 0.760784 0.533333
0.874510 0.760784 0.533333
1.000000 0.760784 0.533333
0.000000 0.850980 0.533333
0.125490 0.850980 0.533333
0.250980 0.850980 0.533333
0.376471 0.850980 0.533333
0.501961 0.850980 0.533333
0.623529 0.850980 0.533333
0.749020 0.850980 0.533333
0.874510 0.850980 0.533333
1.000000 0.850980 0.533333
0.000000 0.929412 0.533333
0.125490 0.929412 0.533333
0.250980 0.929412 0.533333
0.376471 0.929412 0.533333
0.501961 0.929412 0.533333
0.623529 0.929412 0.533333
0.749020 0.929412 0.533333
0.874510 0.929412 0.533333
1.000000 0.929412 0.533333
0.000000 1.000000 0.533333
0.125490 1.000000 0.533333
0.250980 1.000000 0.533333
0.376471 1.000000 0.533333
0.501961 1.000000 0.533333
0.623529 1.000000 0.533333
0.749020 1.000000 0.533333
0.874510 1.000000 0.533333
1.000000 1.000000 0.533333
0.000000 0.000000 0.662745
0.125490 0.000000 0.662745
0.250980 0.000000 0.662745
0.376471 0.000000 0.662745
0.501961 0.000000 0.662745
0.623529 0.000000 0.662745
0.749020 0.000000 0.662745
0.874510 0.000000 0.662745
1.000000 0.000000 0.662745
0.000000 0.188235 0.662745
0.125490 0.188235 0.662745
0.250980 0.188235 0.662745
0.376471 0.188235 0.662745
0.501961 0.188235 0.662745
0.623529 0.188235 0.662745
0.749020 0.188235 0.662745
0.874510 0.188235 0.662745
1.000000 0.188235 0.662745
0.000000 0.368627 0.662745
0.125490 0.368627 0.662745
0.250980 0.368627 0.662745
0.376471 0.368627 0.662745
0.501961 0.368627 0.662745
0.623529 0.368627 0.662745
0.749020 0.368627 0.662745
0.874510 0.368627 0.662745
1.000000 0.368627 0.662745
0.000000 0.529412 0.662745
0.125490 0.529412 0.662745
0.250980 0.529412 0.662745
0.376471 0.529412 0.662745
0.501961 0.529412 0.662745
0.623529 0.529412 0.662745
0.749020 0.529412 0.662745
0.874510 0.529412 0.662745
1.000000 0.529412 0.662745
0.000000 0.658824 0.662745
0.125490 0.658824 0.662745
0.250980 0.658824 0.662745
0.376471 0.658824 0.662745
0.501961 0.658824 0.662745
0.623529 0.658824 0.662745
0.749020 0.658824 0.662745
0.874510 0.658824 0.662745
1.000000 0.658824 0.662745
0.000000 0.760784 0.662745
0.125490 0.760784 0.662745
0.250980 0.760784 0.662745
0.376471 0.760784 0.662745
0.501961 0.760784 0.662745
0.623529 0.760784 0.662745
0.749020 0.760784 0.662745
0.874510 0.760784 0.662745
1.000000 0.760784 0.662745
0.000000 0.850980 0.662745
0.125490 0.850980 0.662745
0.250980 0.850980 0.662745
0.376471 0.850980 0.662745
0.501961 0.850980 0.662745
0.623529 0.850980 0.662745
0.749020 0.850980 0.662745
0.874510 0.850980 0.662745
1.000000 0.850980 0.662745
0.000000 0.929412 0.662745
0.125490 0.929412 0.662745
0.250980 0.929412 0.662745
0.376471 0.929412 0.662745
0.501961 0.929412 0.662745
0.623529 0.929412 0.662745
0.749020 0.929412 0.662745
0.874510 0.929412 0.662745
1.000000 0.929412 0.662745
0.000000 1.000000 0.662745
0.125490 1.000000 0.662745
0.250980 1.000000 0.662745
0.376471 1.000000 0.662745
0.501961 1.000000 0.662745
0.623529 1.000000 0.662745
0.749020 1.000000 0.662745
0.874510 1.000000 0.662745
1.000000 1.000000 0.662745
0.000000 0.000000 0.764706
0.125490 0.000000 0.764706
0.250980 0.000000 0.764706
0.376471 0.000000 0.764706
0.501961 0.000000 0.764706
0.623529 0.000000 0.764706
0.749020 0.000000 0.764706
0.874510 0.000000 0.764706
1.000000 0.000000 0.764706
0.000000 0.188235 0.764706
0.125490 0.188235 0.764706
0.250980 0.188235 0.764706
0.376471 0.188235 0.764706
0.501961 0.188235 0.764706
0.623529 0.188235 0.764706
0.749020 0.188235 0.764706
0.874510 0.188235 0.764706
1.000000 0.188235 0.764706
0.000000 0.368627 0.764706
0.125490 0.368627 0.764706
0.250980 0.368627 0.764706
0.376471 0.368627 0.764706
0.501961 0.368627 0.764706
0.623529 0.368627 0.764706
0.749020 0.368627 0.764706
0.874510 0.368627 0.764706
1.000000 0.368627 0.764706
0.000000 0.529412 0.764706
0.125490 0.529412 0.764706
0.250980 0.529412 0.764706
0.376471 0.529412 0.764706
0.501961 0.529412 0.764706
0.623529 0.529412 0.764706
0.749020 0.529412 0.764706
0.874510 0.529412 0.764706
1.000000 0.529412 0.764706
0.000000 0.658824 0.764706
0.125490 0.658824 0.764706
0.250980 0.658824 0.764706
0.376471 0.658824 0.764706
0.501961 0.658824 0.764706
0.623529 0.658824 0.764706
0.749020 0.658824 0.764706
0.874510 0.658824 0.764706
1.000000 0.658824 0.764706
0.000000 0.760784 0.764706
0.125490 0.760784 0.764706
0.250980 0.760784 0.764706
0.376471 0.760784 0.764706
0.501961 0.760784 0.764706
0.623529 0.760784 0.764706
0.749020 0.760784 0.764706
0.874510 0.760784 0.764706
1.000000 0.760784 0.764706
0.000000 0.850980 0.764706
0.125490 0.850980 0.764706
0.250980 0.850980 0.764706
0.376471 0.850980 0.764706
0.501961 0.850980 0.764706
0.623529 0.850980 0.764706
0.749020 0.850980 0.764706
0.874510 0.850980 0.764706
1.000000 0.850980 0.764706
0.000000 0.929412 0.764706
0.125490 0.929412 0.764706
0.250980 0.929412 0.764706
0.376471 0.929412 0.764706
0.501961 0.929412 0.764706
0.623529 0.929412 0.764706
0.749020 0.929412 0.764706
0.874510 0.929412 0.764706
1.000000 0.929412 0.764706
0.000000 1.000000 0.764706
0.125490 1.000000 0.764706
0.250980 1.000000 0.764706
0.376471 1.000000 0.764706
0.501961 1.000000 0.764706
0.623529 1.000000 0.764706
0.749020 1.000000 0.764706
0.874510 1.000000 0.764706
1.000000 1.000000 0.764706
0.000000 0.000000 0.854902
0.125490 0.000000 0.854902
0.250980 0.000000 0.854902
0.376471 0.000000 0.854902
0.501961 0.000000 0.854902
0.623529 0.000000 0.854902
0.749020 0.000000 0.854902
0.874510 0.000000 0.854902
1.000000 0.000000 0.854902
0.000000 0.188235 0.854902
0.125490 0.188235 0.854902
0.250980 0.188235 0.854902
0.376471 0.188235 0.854902
0.501961 0.188235 0.854902
0.623529 0.188235 0.854902
0.749020 0.188235 0.854902
0.874510 0.188235 0.854902
1.000000 0.188235 0.854902
0.000000 0.368627 0.854902
0.125490 0.368627 0.854902
0.250980 0.368627 0.854902
0.376471 0.368627 0.854902
0.501961 0.368627 0.854902
0.623529 0.368627 0.854902
0.749020 0.368627 0.854902
0.874510 0.368627 0.854902
1.000000 0.368627 0.854902
0.000000 0.529412 0.854902
0.125490 0.529412 0.854902
0.250980 0.529412 0.854902
0.376471 0.529412 0.854902
0.501961 0.529412 0.854902
0.623529 0.529412 0.854902
0.749020 0.529412 0.854902
0.874510 0.529412 0.854902
1.000000 0.529412 0.854902
0.000000 0.658824 0.854902
0.125490 0.658824 0.854902
0.250980 0.658824 0.854902
0.376471 0.658824 0.854902
0.501961 0.658824 0.854902
0.623529 0.658824 0.854902
0.749020 0.658824 0.854902
0.874510 0.658824 0.854902
1.000000 0.658824 0.854902
0.000000 0.760784 0.854902
0.125490 0.760784 0.854902
0.250980 0.760784 0.854902
0.376471 0.760784 0.854902
0.501961 0.760784 0.854902
0.623529 0.760784 0.854902
0.749020 0.760784 0.854902
0.874510 0.760784 0.854902
1.000000 0.760784 0.854902
0.000000 0.850980 0.854902
0.125490 0.850980 0.854902
0.250980 0.850980 0.854902
0.376471 0.850980 0.854902
0.501961 0.850980 0.854902
0.623529 0.850980 0.854902
0.749020 0.850980 0.854902
0.874510 0.850980 0.854902
1.000000 0.850980 0.854902
0.000000 0.929412 0.854902
0.125490 0.929412 0.854902
0.250980 0.929412 0.854902
0.376471 0.929412 0.854902
0.501961 0.929412 0.854902
0.623529 0.929412 0.854902
0.749020 0.929412 0.854902
0.874510 0.929412 0.854902
1.000000 0.929412 0.854902
0.000000 1.000000 0.854902
0.125490 1.000000 0.854902
0.250980 1.000000 0.854902
0.376471 1.000000 0.854902
0.501961 1.000000 0.854902
0.623529 1.000000 0.854902
0.749020 1.000000 0.854902
0.874510 1.000000 0.854902
1.000000 1.000000 0.854902
0.000000 0.000000 0.929412
0.125490 0.000000 0.929412
0.250980 0.000000 0.929412
0.376471 0.000000 0.929412
0.501961 0.000000 0.929412
0.623529 0.000000 0.929412
0.749020 0.000000 0.929412
0.874510 0.000000 0.929412
1.000000 0.000000 0.929412
0.000000 0.188235 0.929412
0.125490 0.188235 0.929412
0.250980 0.188235 0.929412
0.376471 0.188235 0.929412
0.501961 0.188235 0.929412
0.623529 0.188235 0.929412
0.749020 0.188235 0.929412
0.874510 0.188235 0.929412
1.000000 0.188235 0.929412
0.000000 0.368627 0.929412
0.125490 0.368627 0.929412
0.250980 0.368627 0.929412
0.376471 0.368627 0.929412
0.501961 0.368627 0.929412
0.623529 0.368627 0.929412
0.749020 0.368627 0.929412
0.874510 0.368627 0.929412
1.000000 0.368627 0.929412
0.000000 0.529412 0.929412
0.125490 0.529412 0.929412
0.250980 0.529412 0.929412
0.376471 0.529412 0.929412
0.501961 0.529412 0.929412
0.623529 0.529412 0.929412
0.749020 0.529412 0.929412
0.874510 0.529412 0.929412
1.000000 0.529412 0.929412
0.000000 0.658824 0.929412
0.125490 0.658824 0.929412
0.250980 0.658824 0.929412
0.376471 0.658824 0.929412
0.501961 0.658824 0.929412
0.623529 0.658824 0.929412
0.749020 0.658824 0.929412
0.874510 0.658824 0.929412
1.000000 0.658824 0.929412
0.000000 0.760784 0.929412
0.125490 0.760784 0.929412
0.250980 0.760784 0.929412
0.376471 0.760784 0.929412
0.501961 0.760784 0.929412
0.623529 0.760784 0.929412
0.749020 0.760784 0.929412
0.874510 0.760784 0.929412
1.000000 0.760784 0.929412
0.000000 0.850980 0.929412
0.125490 0.850980 0.929412
0.250980 0.850980 0.929412
0.376471 0.850980 0.929412
0.501961 0.850980 0.929412
0.623529 0.850980 0.929412
0.749020 0.850980 0.929412
0.874510 0.850980 0.929412
1.000000 0.850980 0.929412
0.000000 0.929412 0.929412
0.125490 0.929412 0.929412
0.250980 0.929412 0.929412
0.376471 0.929412 0.929412
0.501961 0.929412 0.929412
0.623529 0.929412 0.929412
0.749020 0.929412 0.929412
0.874510 0.929412 0.929412
1.000000 0.929412 0.929412
0.000000 1.000000 0.929412
0.125490 1.000000 0.929412
0.250980 1.000000 0.929412
0.376471 1.000000 0.929412
0.501961 1.000000 0.929412
0.623529 1.000000 0.929412
0.749020 1.000000 0.929412
0.874510 1.000000 0.929412
1.000000 1.000000 0.929412
0.000000 0.000000 1.000000
0.125490 0.000000 1.000000
0.250980 0.000000 1.000000
0.376471 0.000000 1.000000
0.501961 0.000000 1.000000
0.623529 0.000000 1.000000
0.749020 0.000000 1.000000
0.874510 0.000000 1.000000
1.000000 0.000000 1.000000
0.000000 0.188235 1.000000
0.125490 0.188235 1.000000
0.250980 0.188235 1.000000
0.376471 0.188235 1.000000
0.501961 0.188235 1.000000
0.623529 0.188235 1.000000
0.749020 0.188235 1.000000
0.874510 0.188235 1.000000
1.000000 0.188235 1.000000
0.000000 0.368627 1.000000
0.125490 0.368627 1.000000
0.250980 0.368627 1.000000
0.376471 0.368627 1.000000
0.501961 0.368627 1.000000
0.623529 0.368627 1.000000
0.749020 0.368627 1.000000
0.874510 0.368627 1.000000
1.000000 0.368627 1.000000
0.000000 0.529412 1.000000
0.125490 0.529412 1.000000
0.250980 0.529412 1.000000
0.376471 0.529412 1.000000
0.501961 0.529412 1.000000
0.623529 0.529412 1.000000
0.749020 0.529412 1.000000
0.874510 0.529412 1.000000
1.000000 0.529412 1.000000
0.000000 0.658824 1.000000
0.125490 0.658824 1.000000
0.250980 0.658824 1.000000
0.376471 0.658824 1.000000
0.501961 0.658824 1.000000
0.623529 0.658824 1.000000
0.749020 0.658824 1.000000
0.874510 0.658824 1.000000
1.000000 0.658824 1.000000
0.000000 0.760784 1.000000
0.125490 0.760784 1.000000
0.250980 0.760784 1.000000
0.376471 0.760784 1.000000
0.501961 0.760784 1.000000
0.623529 0.760784 1.000000
0.749020 0.760784 1.000000
0.874510 0.760784 1.000000
1.000000 0.760784 1.000000
0.000000 0.850980 1.000000
0.125490 0.850980 1.000000
0.250980 0.850980 1.000000
0.376471 0.850980 1.000000
0.501961 0.850980 1.000000
0.623529 0.850980 1.000000
0.749020 0.850980 1.000000
0.874510 0.850980 1.000000
1.000000 0.850980 1.000000
0.000000 0.929412 1.000000
0.125490 0.929412 1.000000
0.250980 0.929412 1.000000
0.376471 0.929412 1.000000
0.501961 0.929412 1.000000
0.623529 0.929412 1.000000
0.749020 0.929412 1.000000
0.874510 0.929412 1.000000
1.000000 0.929412 1.000000
0.000000 1.000000 1.000000
0.125490 1.000000 1.000000
0.250980 1.000000 1.000000
0.376471 1.000000 1.000000
0.501961 1.000000 1.000000
0.623529 1.000000 1.000000
0.749020 1.000000 1.000000
0.874510 1.000000 1.000000
1.000000 1.000000 1.000000
