LUTs/Damaging/LUT_GREEN/teal.cube
#Generated by lutCreator.js
#Coded by SirSerch
#https://github.com/SirSerch/LutCreatorJs
TITLE lutCreatorJs_25
LUT_3D_SIZE 5
0.000000 0.000000 0.000000
0.250980 0.000000 0.000000
0.501961 0.000000 0.000000
0.749020 0.000000 0.000000
1.000000 0.000000 0.000000
0.000000 0.368627 0.000000
0.250980 0.368627 0.000000
0.501961 0.368627 0.000000
0.749020 0.368627 0.000000
1.000000 0.368627 0.000000
0.000000 0.658824 0.000000
0.250980 0.658824 0.000000
0.501961 0.658824 0.000000
0.749020 0.658824 0.000000
1.000000 0.658824 0.000000
0.000000 0.850980 0.000000
0.250980 0.850980 0.000000
0.501961 0.850980 0.000000
0.749020 0.850980 0.000000
1.000000 0.850980 0.000000
0.000000 1.000000 0.000000
0.250980 1.000000 0.000000
0.501961 1.000000 0.000000
0.749020 1.000000 0.000000
1.000000 1.000000 0.000000
0.000000 0.000000 0.372549
0.250980 0.000000 0.372549
0.501961 0.000000 0.372549
0.749020 0.000000 0.372549
1.000000 0.000000 0.372549
0.000000 0.368627 0.372549
0.250980 0.368627 0.372549
0.501961 0.368627 0.372549
0.749020 0.368627 0.372549
1.000000 0.368627 0.372549
0.000000 0.658824 0.372549
0.250980 0.658824 0.372549
0.501961 0.658824 0.372549
0.749020 0.658824 0.372549
1.000000 0.658824 0.372549
0.000000 0.850980 0.372549
0.250980 0.850980 0.372549
0.501961 0.850980 0.372549
0.749020 0.850980 0.372549
1.000000 0.850980 0.372549
0.000000 1.000000 0.372549
0.250980 1.000000 0.372549
0.501961 1.000000 0.372549
0.749020 1.000000 0.372549
1.000000 1.000000 0.372549
0.000000 0.000000 0.662745
0.250980 0.000000 0.662745
0.501961 0.000000 0.662745
0.749020 0.000000 0.662745
1.000000 0.000000 0.662745
0.000000 0.368627 0.662745
0.250980 0.368627 0.662745
0.501961 0.368627 0.662745
0.749020 0.368627 0.662745
1.000000 0.368627 0.662745
0.000000 0.658824 0.662745
0.250980 0.658824 0.662745
0.501961 0.658824 0.662745
0.749020 0.658824 0.662745
1.000000 0.658824 0.662745
0.000000 0.850980 0.662745
0.250980 0.850980 0.662745
0.501961 0.850980 0.662745
0.749020 0.850980 0.662745
1.000000 0.850980 0.662745
0.000000 1.000000 0.662745
0.250980 1.000000 0.662745
0.501961 1.000000 0.662745
0.749020 1.000000 0.662745
1.000000 1.000000 0.662745
0.000000 0.000000 0.854902
0.250980 0.000000 0.854902
0.501961 0.000000 0.854902
0.749020 0.000000 0.854902
1.000000 0.000000 0.854902
0.000000 0.368627 0.854902
0.250980 0.368627 0.854902
0.501961 0.368627 0.854902
0.749020 0.368627 0.854902
1.000000 0.368627 0.854902
0.000000 0.658824 0.854902
0.250980 0.658824 0.854902
0.501961 0.658824 0.854902
0.749020 0.658824 0.854902
1.000000 0.658824 0.854902
0.000000 0.850980 0.854902
0.250980 0.850980 0.854902
0.501961 0.850980 0.854902
0.749020 0.850980 0.854902
1.000000 0.850980 0.854902
0.000000 1.000000 0.854902
0.250980 1.000000 0.854902
0.501961 1.000000 0.854902
0.749020 1.000000 0.854902
1.000000 1.000000 0.854902
0.000000 0.000000 1.000000
0.250980 0.000000 1.000000
0.501961 0.000000 1.000000
0.749020 0.000000 1.000000
1.000000 0.000000 1.000000
0.000000 0.368627 1.000000
0.250980 0.368627 1.000000
0.501961 0.368627 1.000000
0.749020 0.368627 1.000000
1.000000 0.368627 1.000000
0.000000 0.658824 1.000000
0.250980 0.658824 1.000000
0.501961 0.658824 1.000000
0.749020 0.658824 1.000000
1.000000 0.658824 1.000000
0.000000 0.850980 1.000000
0.250980 0.850980 1.000000
0.501961 0.850980 1.000000
0.749020 0.850980 1.000000
1.000000 0.850980 1.000000
0.000000 1.000000 1.000000
0.250980 1.000000 1.000000
0.501961 1.000000 1.000000
0.749020 1.000000 1.000000
1.000000 1.000000 1.000000
