LUTs/Damaging/LUT_GREEN/teal.cube
#Generated by lutCreator.js
#Coded by SirSerch
#https://github.com/SirSerch/LutCreatorJs
TITLE lutCreatorJs_25
LUT_3D_SIZE 25
0.000000 0.000000 0.000000
0.043137 0.000000 0.000000
0.082353 0.000000 0.000000
0.125490 0.000000 0.000000
0.168627 0.000000 0.000000
0.207843 0.000000 0.000000
0.250980 0.000000 0.000000
0.290196 0.000000 0.000000
0.333333 0.000000 0.000000
0.376471 0.000000 0.000000
0.415686 0.000000 0.000000
0.458824 0.000000 0.000000
0.501961 0.000000 0.000000
0.541176 0.000000 0.000000
0.584314 0.000000 0.000000
0.623529 0.000000 0.000000
0.666667 0.000000 0.000000
0.709804 0.000000 0.000000
0.749020 0.000000 0.000000
0.792157 0.000000 0.000000
0.835294 0.000000 0.000000
0.874510 0.000000 0.000000
0.917647 0.000000 0.000000
0.956863 0.000000 0.000000
1.000000 0.000000 0.000000
0.000000 0.066667 0.000000
0.043137 0.066667 0.000000
0.082353 0.066667 0.000000
0.125490 0.066667 0.000000
0.168627 0.066667 0.000000
0.207843 0.066667 0.000000
0.250980 0.066667 0.000000
0.290196 0.066667 0.000000
0.333333 0.066667 0.000000
0.376471 0.066667 0.000000
0.415686 0.066667 0.000000
0.458824 0.066667 0.000000
0.501961 0.066667 0.000000
0.541176 0.066667 0.000000
0.584314 0.066667 0.000000
0.623529 0.066667 0.000000
0.666667 0.066667 0.000000
0.709804 0.066667 0.000000
0.749020 0.066667 0.000000
0.792157 0.066667 0.000000
0.835294 0.066667 0.000000
0.874510 0.066667 0.000000
0.917647 0.066667 0.000000
0.956863 0.066667 0.000000
1.000000 0.066667 0.000000
0.000000 0.125490 0.000000
0.043137 0.125490 0.000000
0.082353 0.125490 0.000000
0.125490 0.125490 0.000000
0.168627 0.125490 0.000000
0.207843 0.125490 0.000000
0.250980 0.125490 0.000000
0.290196 0.125490 0.000000
0.333333 0.125490 0.000000
0.376471 0.125490 0.000000
0.415686 0.125490 0.000000
0.458824 0.125490 0.000000
0.501961 0.125490 0.000000
0.541176 0.125490 0.000000
0.584314 0.125490 0.000000
0.623529 0.125490 0.000000
0.666667 0.125490 0.000000
0.709804 0.125490 0.000000
0.749020 0.125490 0.000000
0.792157 0.125490 0.000000
0.835294 0.125490 0.000000
0.874510 0.125490 0.000000
0.917647 0.125490 0.000000
0.956863 0.125490 0.000000
1.000000 0.125490 0.000000
0.000000 0.188235 0.000000
0.043137 0.188235 0.000000
0.082353 0.188235 0.000000
0.125490 0.188235 0.000000
0.168627 0.188235 0.000000
0.207843 0.188235 0.000000
0.250980 0.188235 0.000000
0.290196 0.188235 0.000000
0.333333 0.188235 0.000000
0.376471 0.188235 0.000000
0.415686 0.188235 0.000000
0.458824 0.188235 0.000000
0.501961 0.188235 0.000000
0.541176 0.188235 0.000000
0.584314 0.188235 0.000000
0.623529 0.188235 0.000000
0.666667 0.188235 0.000000
0.709804 0.188235 0.000000
0.749020 0.188235 0.000000
0.792157 0.188235 0.000000
0.835294 0.188235 0.000000
0.874510 0.188235 0.000000
0.917647 0.188235 0.000000
0.956863 0.188235 0.000000
1.000000 0.188235 0.000000
0.000000 0.254902 0.000000
0.043137 0.254902 0.000000
0.082353 0.254902 0.000000
0.125490 0.254902 0.000000
0.168627 0.254902 0.000000
0.207843 0.254902 0.000000
0.250980 0.254902 0.000000
0.290196 0.254902 0.000000
0.333333 0.254902 0.000000
0.376471 0.254902 0.000000
0.415686 0.254902 0.000000
0.458824 0.254902 0.000000
0.501961 0.254902 0.000000
0.541176 0.254902 0.000000
0.584314 0.254902 0.000000
0.623529 0.254902 0.000000
0.666667 0.254902 0.000000
0.709804 0.254902 0.000000
0.749020 0.254902 0.000000
0.792157 0.254902 0.000000
0.835294 0.254902 0.000000
0.874510 0.254902 0.000000
0.917647 0.254902 0.000000
0.956863 0.254902 0.000000
1.000000 0.254902 0.000000
0.000000 0.309804 0.000000
0.043137 0.309804 0.000000
0.082353 0.309804 0.000000
0.125490 0.309804 0.000000
0.168627 0.309804 0.000000
0.207843 0.309804 0.000000
0.250980 0.309804 0.000000
0.290196 0.309804 0.000000
0.333333 0.309804 0.000000
0.376471 0.309804 0.000000
0.415686 0.309804 0.000000
0.458824 0.309804 0.000000
0.501961 0.309804 0.000000
0.541176 0.309804 0.000000
0.584314 0.309804 0.000000
0.623529 0.309804 0.000000
0.666667 0.309804 0.000000
0.709804 0.309804 0.000000
0.749020 0.309804 0.000000
0.792157 0.309804 0.000000
0.835294 0.309804 0.000000
0.874510 0.309804 0.000000
0.917647 0.309804 0.000000
0.956863 0.309804 0.000000
1.000000 0.309804 0.000000
0.000000 0.368627 0.000000
0.043137 0.368627 0.000000
0.082353 0.368627 0.000000
0.125490 0.368627 0.000000
0.168627 0.368627 0.000000
0.207843 0.368627 0.000000
0.250980 0.368627 0.000000
0.290196 0.368627 0.000000
0.333333 0.368627 0.000000
0.376471 0.368627 0.000000
0.415686 0.368627 0.000000
0.458824 0.368627 0.000000
0.501961 0.368627 0.000000
0.541176 0.368627 0.000000
0.584314 0.368627 0.000000
0.623529 0.368627 0.000000
0.666667 0.368627 0.000000
0.709804 0.368627 0.000000
0.749020 0.368627 0.000000
0.792157 0.368627 0.000000
0.835294 0.368627 0.000000
0.874510 0.368627 0.000000
0.917647 0.368627 0.000000
0.956863 0.368627 0.000000
1.000000 0.368627 0.000000
0.000000 0.423529 0.000000
0.043137 0.423529 0.000000
0.082353 0.423529 0.000000
0.125490 0.423529 0.000000
0.168627 0.423529 0.000000
0.207843 0.423529 0.000000
0.250980 0.423529 0.000000
0.290196 0.423529 0.000000
0.333333 0.423529 0.000000
0.376471 0.423529 0.000000
0.415686 0.423529 0.000000
0.458824 0.423529 0.000000
0.501961 0.423529 0.000000
0.541176 0.423529 0.000000
0.584314 0.423529 0.000000
0.623529 0.423529 0.000000
0.666667 0.423529 0.000000
0.709804 0.423529 0.000000
0.749020 0.423529 0.000000
0.792157 0.423529 0.000000
0.835294 0.423529 0.000000
0.874510 0.423529 0.000000
0.917647 0.423529 0.000000
0.956863 0.423529 0.000000
1.000000 0.423529 0.000000
0.000000 0.478431 0.000000
0.043137 0.478431 0.000000
0.082353 0.478431 0.000000
0.125490 0.478431 0.000000
0.168627 0.478431 0.000000
0.207843 0.478431 0.000000
0.250980 0.478431 0.000000
0.290196 0.478431 0.000000
0.333333 0.478431 0.000000
0.376471 0.478431 0.000000
0.415686 0.478431 0.000000
0.458824 0.478431 0.000000
0.501961 0.478431 0.000000
0.541176 0.478431 0.000000
0.584314 0.478431 0.000000
0.623529 0.478431 0.000000
0.666667 0.478431 0.000000
0.709804 0.478431 0.000000
0.749020 0.478431 0.000000
0.792157 0.478431 0.000000
0.835294 0.478431 0.000000
0.874510 0.478431 0.000000
0.917647 0.478431 0.000000
0.956863 0.478431 0.000000
1.000000 0.478431 0.000000
0.000000 0.529412 0.000000
0.043137 0.529412 0.000000
0.082353 0.529412 0.000000
0.125490 0.529412 0.000000
0.168627 0.529412 0.000000
0.207843 0.529412 0.000000
0.250980 0.529412 0.000000
0.290196 0.529412 0.000000
0.333333 0.529412 0.000000
0.376471 0.529412 0.000000
0.415686 0.529412 0.000000
0.458824 0.529412 0.000000
0.501961 0.529412 0.000000
0.541176 0.529412 0.000000
0.584314 0.529412 0.000000
0.623529 0.529412 0.000000
0.666667 0.529412 0.000000
0.709804 0.529412 0.000000
0.749020 0.529412 0.000000
0.792157 0.529412 0.000000
0.835294 0.529412 0.000000
0.874510 0.529412 0.000000
0.917647 0.529412 0.000000
0.956863 0.529412 0.000000
1.000000 0.529412 0.000000
0.000000 0.572549 0.000000
0.043137 0.572549 0.000000
0.082353 0.572549 0.000000
0.125490 0.572549 0.000000
0.168627 0.572549 0.000000
0.207843 0.572549 0.000000
0.250980 0.572549 0.000000
0.290196 0.572549 0.000000
0.333333 0.572549 0.000000
0.376471 0.572549 0.000000
0.415686 0.572549 0.000000
0.458824 0.572549 0.000000
0.501961 0.572549 0.000000
0.541176 0.572549 0.000000
0.584314 0.572549 0.000000
0.623529 0.572549 0.000000
0.666667 0.572549 0.000000
0.709804 0.572549 0.000000
0.749020 0.572549 0.000000
0.792157 0.572549 0.000000
0.835294 0.572549 0.000000
0.874510 0.572549 0.000000
0.917647 0.572549 0.000000
0.956863 0.572549 0.000000
1.000000 0.572549 0.000000
0.000000 0.615686 0.000000
0.043137 0.615686 0.000000
0.082353 0.615686 0.000000
0.125490 0.615686 0.000000
0.168627 0.615686 0.000000
0.207843 0.615686 0.000000
0.250980 0.615686 0.000000
0.290196 0.615686 0.000000
0.333333 0.615686 0.000000
0.376471 0.615686 0.000000
0.415686 0.615686 0.000000
0.458824 0.615686 0.000000
0.501961 0.615686 0.000000
0.541176 0.615686 0.000000
0.584314 0.615686 0.000000
0.623529 0.615686 0.000000
0.666667 0.615686 0.000000
0.709804 0.615686 0.000000
0.749020 0.615686 0.000000
0.792157 0.615686 0.000000
0.835294 0.615686 0.000000
0.874510 0.615686 0.000000
0.917647 0.615686 0.000000
0.956863 0.615686 0.000000
1.000000 0.615686 0.000000
0.000000 0.658824 0.000000
0.043137 0.658824 0.000000
0.082353 0.658824 0.000000
0.125490 0.658824 0.000000
0.168627 0.658824 0.000000
0.207843 0.658824 0.000000
0.250980 0.658824 0.000000
0.290196 0.658824 0.000000
0.333333 0.658824 0.000000
0.376471 0.658824 0.000000
0.415686 0.658824 0.000000
0.458824 0.658824 0.000000
0.501961 0.658824 0.000000
0.541176 0.658824 0.000000
0.584314 0.658824 0.000000
0.623529 0.658824 0.000000
0.666667 0.658824 0.000000
0.709804 0.658824 0.000000
0.749020 0.658824 0.000000
0.792157 0.658824 0.000000
0.835294 0.658824 0.000000
0.874510 0.658824 0.000000
0.917647 0.658824 0.000000
0.956863 0.658824 0.000000
1.000000 0.658824 0.000000
0.000000 0.694118 0.000000
0.043137 0.694118 0.000000
0.082353 0.694118 0.000000
0.125490 0.694118 0.000000
0.168627 0.694118 0.000000
0.207843 0.694118 0.000000
0.250980 0.694118 0.000000
0.290196 0.694118 0.000000
0.333333 0.694118 0.000000
0.376471 0.694118 0.000000
0.415686 0.694118 0.000000
0.458824 0.694118 0.000000
0.501961 0.694118 0.000000
0.541176 0.694118 0.000000
0.584314 0.694118 0.000000
0.623529 0.694118 0.000000
0.666667 0.694118 0.000000
0.709804 0.694118 0.000000
0.749020 0.694118 0.000000
0.792157 0.694118 0.000000
0.835294 0.694118 0.000000
0.874510 0.694118 0.000000
0.917647 0.694118 0.000000
0.956863 0.694118 0.000000
1.000000 0.694118 0.000000
0.000000 0.729412 0.000000
0.043137 0.729412 0.000000
0.082353 0.729412 0.000000
0.125490 0.729412 0.000000
0.168627 0.729412 0.000000
0.207843 0.729412 0.000000
0.250980 0.729412 0.000000
0.290196 0.729412 0.000000
0.333333 0.729412 0.000000
0.376471 0.729412 0.000000
0.415686 0.729412 0.000000
0.458824 0.729412 0.000000
0.501961 0.729412 0.000000
0.541176 0.729412 0.000000
0.584314 0.729412 0.000000
0.623529 0.729412 0.000000
0.666667 0.729412 0.000000
0.709804 0.729412 0.000000
0.749020 0.729412 0.000000
0.792157 0.729412 0.000000
0.835294 0.729412 0.000000
0.874510 0.729412 0.000000
0.917647 0.729412 0.000000
0.956863 0.729412 0.000000
1.000000 0.729412 0.000000
0.000000 0.760784 0.000000
0.043137 0.760784 0.000000
0.082353 0.760784 0.000000
0.125490 0.760784 0.000000
0.168627 0.760784 0.000000
0.207843 0.760784 0.000000
0.250980 0.760784 0.000000
0.290196 0.760784 0.000000
0.333333 0.760784 0.000000
0.376471 0.760784 0.000000
0.415686 0.760784 0.000000
0.458824 0.760784 0.000000
0.501961 0.760784 0.000000
0.541176 0.760784 0.000000
0.584314 0.760784 0.000000
0.623529 0.760784 0.000000
0.666667 0.760784 0.000000
0.709804 0.760784 0.000000
0.749020 0.760784 0.000000
0.792157 0.760784 0.000000
0.835294 0.760784 0.000000
0.874510 0.760784 0.000000
0.917647 0.760784 0.000000
0.956863 0.760784 0.000000
1.000000 0.760784 0.000000
0.000000 0.796078 0.000000
0.043137 0.796078 0.000000
0.082353 0.796078 0.000000
0.125490 0.796078 0.000000
0.168627 0.796078 0.000000
0.207843 0.796078 0.000000
0.250980 0.796078 0.000000
0.290196 0.796078 0.000000
0.333333 0.796078 0.000000
0.376471 0.796078 0.000000
0.415686 0.796078 0.000000
0.458824 0.796078 0.000000
0.501961 0.796078 0.000000
0.541176 0.796078 0.000000
0.584314 0.796078 0.000000
0.623529 0.796078 0.000000
0.666667 0.796078 0.000000
0.709804 0.796078 0.000000
0.749020 0.796078 0.000000
0.792157 0.796078 0.000000
0.835294 0.796078 0.000000
0.874510 0.796078 0.000000
0.917647 0.796078 0.000000
0.956863 0.796078 0.000000
1.000000 0.796078 0.000000
0.000000 0.823529 0.000000
0.043137 0.823529 0.000000
0.082353 0.823529 0.000000
0.125490 0.823529 0.000000
0.168627 0.823529 0.000000
0.207843 0.823529 0.000000
0.250980 0.823529 0.000000
0.290196 0.823529 0.000000
0.333333 0.823529 0.000000
0.376471 0.823529 0.000000
0.415686 0.823529 0.000000
0.458824 0.823529 0.000000
0.501961 0.823529 0.000000
0.541176 0.823529 0.000000
0.584314 0.823529 0.000000
0.623529 0.823529 0.000000
0.666667 0.823529 0.000000
0.709804 0.823529 0.000000
0.749020 0.823529 0.000000
0.792157 0.823529 0.000000
0.835294 0.823529 0.000000
0.874510 0.823529 0.000000
0.917647 0.823529 0.000000
0.956863 0.823529 0.000000
1.000000 0.823529 0.000000
0.000000 0.850980 0.000000
0.043137 0.850980 0.000000
0.082353 0.850980 0.000000
0.125490 0.850980 0.000000
0.168627 0.850980 0.000000
0.207843 0.850980 0.000000
0.250980 0.850980 0.000000
0.290196 0.850980 0.000000
0.333333 0.850980 0.000000
0.376471 0.850980 0.000000
0.415686 0.850980 0.000000
0.458824 0.850980 0.000000
0.501961 0.850980 0.000000
0.541176 0.850980 0.000000
0.584314 0.850980 0.000000
0.623529 0.850980 0.000000
0.666667 0.850980 0.000000
0.709804 0.850980 0.000000
0.749020 0.850980 0.000000
0.792157 0.850980 0.000000
0.835294 0.850980 0.000000
0.874510 0.850980 0.000000
0.917647 0.850980 0.000000
0.956863 0.850980 0.000000
1.000000 0.850980 0.000000
0.000000 0.878431 0.000000
0.043137 0.878431 0.000000
0.082353 0.878431 0.000000
0.125490 0.878431 0.000000
0.168627 0.878431 0.000000
0.207843 0.878431 0.000000
0.250980 0.878431 0.000000
0.290196 0.878431 0.000000
0.333333 0.878431 0.000000
0.376471 0.878431 0.000000
0.415686 0.878431 0.000000
0.458824 0.878431 0.000000
0.501961 0.878431 0.000000
0.541176 0.878431 0.000000
0.584314 0.878431 0.000000
0.623529 0.878431 0.000000
0.666667 0.878431 0.000000
0.709804 0.878431 0.000000
0.749020 0.878431 0.000000
0.792157 0.878431 0.000000
0.835294 0.878431 0.000000
0.874510 0.878431 0.000000
0.917647 0.878431 0.000000
0.956863 0.878431 0.000000
1.000000 0.878431 0.000000
0.000000 0.905882 0.000000
0.043137 0.905882 0.000000
0.082353 0.905882 0.000000
0.125490 0.905882 0.000000
0.168627 0.905882 0.000000
0.207843 0.905882 0.000000
0.250980 0.905882 0.000000
0.290196 0.905882 0.000000
0.333333 0.905882 0.000000
0.376471 0.905882 0.000000
0.415686 0.905882 0.000000
0.458824 0.905882 0.000000
0.501961 0.905882 0.000000
0.541176 0.905882 0.000000
0.584314 0.905882 0.000000
0.623529 0.905882 0.000000
0.666667 0.905882 0.000000
0.709804 0.905882 0.000000
0.749020 0.905882 0.000000
0.792157 0.905882 0.000000
0.835294 0.905882 0.000000
0.874510 0.905882 0.000000
0.917647 0.905882 0.000000
0.956863 0.905882 0.000000
1.000000 0.905882 0.000000
0.000000 0.929412 0.000000
0.043137 0.929412 0.000000
0.082353 0.929412 0.000000
0.125490 0.929412 0.000000
0.168627 0.929412 0.000000
0.207843 0.929412 0.000000
0.250980 0.929412 0.000000
0.290196 0.929412 0.000000
0.333333 0.929412 0.000000
0.376471 0.929412 0.000000
0.415686 0.929412 0.000000
0.458824 0.929412 0.000000
0.501961 0.929412 0.000000
0.541176 0.929412 0.000000
0.584314 0.929412 0.000000
0.623529 0.929412 0.000000
0.666667 0.929412 0.000000
0.709804 0.929412 0.000000
0.749020 0.929412 0.000000
0.792157 0.929412 0.000000
0.835294 0.929412 0.000000
0.874510 0.929412 0.000000
0.917647 0.929412 0.000000
0.956863 0.929412 0.000000
1.000000 0.929412 0.000000
0.000000 0.952941 0.000000
0.043137 0.952941 0.000000
0.082353 0.952941 0.000000
0.125490 0.952941 0.000000
0.168627 0.952941 0.000000
0.207843 0.952941 0.000000
0.250980 0.952941 0.000000
0.290196 0.952941 0.000000
0.333333 0.952941 0.000000
0.376471 0.952941 0.000000
0.415686 0.952941 0.000000
0.458824 0.952941 0.000000
0.501961 0.952941 0.000000
0.541176 0.952941 0.000000
0.584314 0.952941 0.000000
0.623529 0.952941 0.000000
0.666667 0.952941 0.000000
0.709804 0.952941 0.000000
0.749020 0.952941 0.000000
0.792157 0.952941 0.000000
0.835294 0.952941 0.000000
0.874510 0.952941 0.000000
0.917647 0.952941 0.000000
0.956863 0.952941 0.000000
1.000000 0.952941 0.000000
0.000000 0.976471 0.000000
0.043137 0.976471 0.000000
0.082353 0.976471 0.000000
0.125490 0.976471 0.000000
0.168627 0.976471 0.000000
0.207843 0.976471 0.000000
0.250980 0.976471 0.000000
0.290196 0.976471 0.000000
0.333333 0.976471 0.000000
0.376471 0.976471 0.000000
0.415686 0.976471 0.000000
0.458824 0.976471 0.000000
0.501961 0.976471 0.000000
0.541176 0.976471 0.000000
0.584314 0.976471 0.000000
0.623529 0.976471 0.000000
0.666667 0.976471 0.000000
0.709804 0.976471 0.000000
0.749020 0.976471 0.000000
0.792157 0.976471 0.000000
0.835294 0.976471 0.000000
0.874510 0.976471 0.000000
0.917647 0.976471 0.000000
0.956863 0.976471 0.000000
1.000000 0.976471 0.000000
0.000000 1.000000 0.000000
0.043137 1.000000 0.000000
0.082353 1.000000 0.000000
0.125490 1.000000 0.000000
0.168627 1.000000 0.000000
0.207843 1.000000 0.000000
0.250980 1.000000 0.000000
0.290196 1.000000 0.000000
0.333333 1.000000 0.000000
0.376471 1.000000 0.000000
0.415686 1.000000 0.000000
0.458824 1.000000 0.000000
0.501961 1.000000 0.000000
0.541176 1.000000 0.000000
0.584314 1.000000 0.000000
0.623529 1.000000 0.000000
0.666667 1.000000 0.000000
0.709804 1.000000 0.000000
0.749020 1.000000 0.000000
0.792157 1.000000 0.000000
0.835294 1.000000 0.000000
0.874510 1.000000 0.000000
0.917647 1.000000 0.000000
0.956863 1.000000 0.000000
1.000000 1.000000 0.000000
0.000000 0.000000 0.066667
0.043137 0.000000 0.066667
0.082353 0.000000 0.066667
0.125490 0.000000 0.066667
0.168627 0.000000 0.066667
0.207843 0.000000 0.066667
0.250980 0.000000 0.066667
0.290196 0.000000 0.066667
0.333333 0.000000 0.066667
0.376471 0.000000 0.066667
0.415686 0.000000 0.066667
0.458824 0.000000 0.066667
0.501961 0.000000 0.066667
0.541176 0.000000 0.066667
0.584314 0.000000 0.066667
0.623529 0.000000 0.066667
0.666667 0.000000 0.066667
0.709804 0.000000 0.066667
0.749020 0.000000 0.066667
0.792157 0.000000 0.066667
0.835294 0.000000 0.066667
0.874510 0.000000 0.066667
0.917647 0.000000 0.066667
0.956863 0.000000 0.066667
1.000000 0.000000 0.066667
0.000000 0.066667 0.066667
0.043137 0.066667 0.066667
0.082353 0.066667 0.066667
0.125490 0.066667 0.066667
0.168627 0.066667 0.066667
0.207843 0.066667 0.066667
0.250980 0.066667 0.066667
0.290196 0.066667 0.066667
0.333333 0.066667 0.066667
0.376471 0.066667 0.066667
0.415686 0.066667 0.066667
0.458824 0.066667 0.066667
0.501961 0.066667 0.066667
0.541176 0.066667 0.066667
0.584314 0.066667 0.066667
0.623529 0.066667 0.066667
0.666667 0.066667 0.066667
0.709804 0.066667 0.066667
0.749020 0.066667 0.066667
0.792157 0.066667 0.066667
0.835294 0.066667 0.066667
0.874510 0.066667 0.066667
0.917647 0.066667 0.066667
0.956863 0.066667 0.066667
1.000000 0.066667 0.066667
0.000000 0.125490 0.066667
0.043137 0.125490 0.066667
0.082353 0.125490 0.066667
0.125490 0.125490 0.066667
0.168627 0.125490 0.066667
0.207843 0.125490 0.066667
0.250980 0.125490 0.066667
0.290196 0.125490 0.066667
0.333333 0.125490 0.066667
0.376471 0.125490 0.066667
0.415686 0.125490 0.066667
0.458824 0.125490 0.066667
0.501961 0.125490 0.066667
0.541176 0.125490 0.066667
0.584314 0.125490 0.066667
0.623529 0.125490 0.066667
0.666667 0.125490 0.066667
0.709804 0.125490 0.066667
0.749020 0.125490 0.066667
0.792157 0.125490 0.066667
0.835294 0.125490 0.066667
0.874510 0.125490 0.066667
0.917647 0.125490 0.066667
0.956863 0.125490 0.066667
1.000000 0.125490 0.066667
0.000000 0.188235 0.066667
0.043137 0.188235 0.066667
0.082353 0.188235 0.066667
0.125490 0.188235 0.066667
0.168627 0.188235 0.066667
0.207843 0.188235 0.066667
0.250980 0.188235 0.066667
0.290196 0.188235 0.066667
0.333333 0.188235 0.066667
0.376471 0.188235 0.066667
0.415686 0.188235 0.066667
0.458824 0.188235 0.066667
0.501961 0.188235 0.066667
0.541176 0.188235 0.066667
0.584314 0.188235 0.066667
0.623529 0.188235 0.066667
0.666667 0.188235 0.066667
0.709804 0.188235 0.066667
0.749020 0.188235 0.066667
0.792157 0.188235 0.066667
0.835294 0.188235 0.066667
0.874510 0.188235 0.066667
0.917647 0.188235 0.066667
0.956863 0.188235 0.066667
1.000000 0.188235 0.066667
0.000000 0.254902 0.066667
0.043137 0.254902 0.066667
0.082353 0.254902 0.066667
0.125490 0.254902 0.066667
0.168627 0.254902 0.066667
0.207843 0.254902 0.066667
0.250980 0.254902 0.066667
0.290196 0.254902 0.066667
0.333333 0.254902 0.066667
0.376471 0.254902 0.066667
0.415686 0.254902 0.066667
0.458824 0.254902 0.066667
0.501961 0.254902 0.066667
0.541176 0.254902 0.066667
0.584314 0.254902 0.066667
0.623529 0.254902 0.066667
0.666667 0.254902 0.066667
0.709804 0.254902 0.066667
0.749020 0.254902 0.066667
0.792157 0.254902 0.066667
0.835294 0.254902 0.066667
0.874510 0.254902 0.066667
0.917647 0.254902 0.066667
0.956863 0.254902 0.066667
1.000000 0.254902 0.066667
0.000000 0.309804 0.066667
0.043137 0.309804 0.066667
0.082353 0.309804 0.066667
0.125490 0.309804 0.066667
0.168627 0.309804 0.066667
0.207843 0.309804 0.066667
0.250980 0.309804 0.066667
0.290196 0.309804 0.066667
0.333333 0.309804 0.066667
0.376471 0.309804 0.066667
0.415686 0.309804 0.066667
0.458824 0.309804 0.066667
0.501961 0.309804 0.066667
0.541176 0.309804 0.066667
0.584314 0.309804 0.066667
0.623529 0.309804 0.066667
0.666667 0.309804 0.066667
0.709804 0.309804 0.066667
0.749020 0.309804 0.066667
0.792157 0.309804 0.066667
0.835294 0.309804 0.066667
0.874510 0.309804 0.066667
0.917647 0.309804 0.066667
0.956863 0.309804 0.066667
1.000000 0.309804 0.066667
0.000000 0.368627 0.066667
0.043137 0.368627 0.066667
0.082353 0.368627 0.066667
0.125490 0.368627 0.066667
0.168627 0.368627 0.066667
0.207843 0.368627 0.066667
0.250980 0.368627 0.066667
0.290196 0.368627 0.066667
0.333333 0.368627 0.066667
0.376471 0.368627 0.066667
0.415686 0.368627 0.066667
0.458824 0.368627 0.066667
0.501961 0.368627 0.066667
0.541176 0.368627 0.066667
0.584314 0.368627 0.066667
0.623529 0.368627 0.066667
0.666667 0.368627 0.066667
0.709804 0.368627 0.066667
0.749020 0.368627 0.066667
0.792157 0.368627 0.066667
0.835294 0.368627 0.066667
0.874510 0.368627 0.066667
0.917647 0.368627 0.066667
0.956863 0.368627 0.066667
1.000000 0.368627 0.066667
0.000000 0.423529 0.066667
0.043137 0.423529 0.066667
0.082353 0.423529 0.066667
0.125490 0.423529 0.066667
0.168627 0.423529 0.066667
0.207843 0.423529 0.066667
0.250980 0.423529 0.066667
0.290196 0.423529 0.066667
0.333333 0.423529 0.066667
0.376471 0.423529 0.066667
0.415686 0.423529 0.066667
0.458824 0.423529 0.066667
0.501961 0.423529 0.066667
0.541176 0.423529 0.066667
0.584314 0.423529 0.066667
0.623529 0.423529 0.066667
0.666667 0.423529 0.066667
0.709804 0.423529 0.066667
0.749020 0.423529 0.066667
0.792157 0.423529 0.066667
0.835294 0.423529 0.066667
0.874510 0.423529 0.066667
0.917647 0.423529 0.066667
0.956863 0.423529 0.066667
1.000000 0.423529 0.066667
0.000000 0.478431 0.066667
0.043137 0.478431 0.066667
0.082353 0.478431 0.066667
0.125490 0.478431 0.066667
0.168627 0.478431 0.066667
0.207843 0.478431 0.066667
0.250980 0.478431 0.066667
0.290196 0.478431 0.066667
0.333333 0.478431 0.066667
0.376471 0.478431 0.066667
0.415686 0.478431 0.066667
0.458824 0.478431 0.066667
0.501961 0.478431 0.066667
0.541176 0.478431 0.066667
0.584314 0.478431 0.066667
0.623529 0.478431 0.066667
0.666667 0.478431 0.066667
0.709804 0.478431 0.066667
0.749020 0.478431 0.066667
0.792157 0.478431 0.066667
0.835294 0.478431 0.066667
0.874510 0.478431 0.066667
0.917647 0.478431 0.066667
0.956863 0.478431 0.066667
1.000000 0.478431 0.066667
0.000000 0.529412 0.066667
0.043137 0.529412 0.066667
0.082353 0.529412 0.066667
0.125490 0.529412 0.066667
0.168627 0.529412 0.066667
0.207843 0.529412 0.066667
0.250980 0.529412 0.066667
0.290196 0.529412 0.066667
0.333333 0.529412 0.066667
0.376471 0.529412 0.066667
0.415686 0.529412 0.066667
0.458824 0.529412 0.066667
0.501961 0.529412 0.066667
0.541176 0.529412 0.066667
0.584314 0.529412 0.066667
0.623529 0.529412 0.066667
0.666667 0.529412 0.066667
0.709804 0.529412 0.066667
0.749020 0.529412 0.066667
0.792157 0.529412 0.066667
0.835294 0.529412 0.066667
0.874510 0.529412 0.066667
0.917647 0.529412 0.066667
0.956863 0.529412 0.066667
1.000000 0.529412 0.066667
0.000000 0.572549 0.066667
0.043137 0.572549 0.066667
0.082353 0.572549 0.066667
0.125490 0.572549 0.066667
0.168627 0.572549 0.066667
0.207843 0.572549 0.066667
0.250980 0.572549 0.066667
0.290196 0.572549 0.066667
0.333333 0.572549 0.066667
