LUTs/Damaging/LUT_EXPOSURE/dark_shadows2.cube
#Generated by lutCreator.js
#Coded by SirSerch
#https://github.com/SirSerch/LutCreatorJs
TITLE lutCreatorJs_25
LUT_3D_SIZE 5
0.000000 0.000000 0.000000
0.027451 0.000000 0.000000
0.513725 0.000000 0.000000
0.772549 0.000000 0.000000
1.000000 0.000000 0.000000
0.000000 0.027451 0.000000
0.027451 0.027451 0.000000
0.513725 0.027451 0.000000
0.772549 0.027451 0.000000
1.000000 0.027451 0.000000
0.000000 0.513725 0.000000
0.027451 0.513725 0.000000
0.513725 0.513725 0.000000
0.772549 0.513725 0.000000
1.000000 0.513725 0.000000
0.000000 0.772549 0.000000
0.027451 0.772549 0.000000
0.513725 0.772549 0.000000
0.772549 0.772549 0.000000
1.000000 0.772549 0.000000
0.000000 1.000000 0.000000
0.027451 1.000000 0.000000
0.513725 1.000000 0.000000
0.772549 1.000000 0.000000
1.000000 1.000000 0.000000
0.000000 0.000000 0.027451
0.027451 0.000000 0.027451
0.513725 0.000000 0.027451
0.772549 0.000000 0.027451
1.000000 0.000000 0.027451
0.000000 0.027451 0.027451
0.027451 0.027451 0.027451
0.513725 0.027451 0.027451
0.772549 0.027451 0.027451
1.000000 0.027451 0.027451
0.000000 0.513725 0.027451
0.027451 0.513725 0.027451
0.513725 0.513725 0.027451
0.772549 0.513725 0.027451
1.000000 0.513725 0.027451
0.000000 0.772549 0.027451
0.027451 0.772549 0.027451
0.513725 0.772549 0.027451
0.772549 0.772549 0.027451
1.000000 0.772549 0.027451
0.000000 1.000000 0.027451
0.027451 1.000000 0.027451
0.513725 1.000000 0.027451
0.772549 1.000000 0.027451
1.000000 1.000000 0.027451
0.000000 0.000000 0.513725
0.027451 0.000000 0.513725
0.513725 0.000000 0.513725
0.772549 0.000000 0.513725
1.000000 0.000000 0.513725
0.000000 0.027451 0.513725
0.027451 0.027451 0.513725
0.513725 0.027451 0.513725
0.772549 0.027451 0.513725
1.000000 0.027451 0.513725
0.000000 0.513725 0.513725
0.027451 0.513725 0.513725
0.513725 0.513725 0.513725
0.772549 0.513725 0.513725
1.000000 0.513725 0.513725
0.000000 0.772549 0.513725
0.027451 0.772549 0.513725
0.513725 0.772549 0.513725
0.772549 0.772549 0.513725
1.000000 0.772549 0.513725
0.000000 1.000000 0.513725
0.027451 1.000000 0.513725
0.513725 1.000000 0.513725
0.772549 1.000000 0.513725
1.000000 1.000000 0.513725
0.000000 0.000000 0.772549
0.027451 0.000000 0.772549
0.513725 0.000000 0.772549
0.772549 0.000000 0.772549
1.000000 0.000000 0.772549
0.000000 0.027451 0.772549
0.027451 0.027451 0.772549
0.513725 0.027451 0.772549
0.772549 0.027451 0.772549
1.000000 0.027451 0.772549
0.000000 0.513725 0.772549
0.027451 0.513725 0.772549
0.513725 0.513725 0.772549
0.772549 0.513725 0.772549
1.000000 0.513725 0.772549
0.000000 0.772549 0.772549
0.027451 0.772549 0.772549
0.513725 0.772549 0.772549
0.772549 0.772549 0.772549
1.000000 0.772549 0.772549
0.000000 1.000000 0.772549
0.027451 1.000000 0.772549
0.513725 1.000000 0.772549
0.772549 1.000000 0.772549
1.000000 1.000000 0.772549
0.000000 0.000000 1.000000
0.027451 0.000000 1.000000
0.513725 0.000000 1.000000
0.772549 0.000000 1.000000
1.000000 0.000000 1.000000
0.000000 0.027451 1.000000
0.027451 0.027451 1.000000
0.513725 0.027451 1.000000
0.772549 0.027451 1.000000
1.000000 0.027451 1.000000
0.000000 0.513725 1.000000
0.027451 0.513725 1.000000
0.513725 0.513725 1.000000
0.772549 0.513725 1.000000
1.000000 0.513725 1.000000
0.000000 0.772549 1.000000
0.027451 0.772549 1.000000
0.513725 0.772549 1.000000
0.772549 0.772549 1.000000
1.000000 0.772549 1.000000
0.000000 1.000000 1.000000
0.027451 1.000000 1.000000
0.513725 1.000000 1.000000
0.772549 1.000000 1.000000
1.000000 1.000000 1.000000
