LUTs/Damaging/LUT_EXPOSURE/dark_shadows2.cube
#Generated by lutCreator.js
#Coded by SirSerch
#https://github.com/SirSerch/LutCreatorJs
TITLE lutCreatorJs_25
LUT_3D_SIZE 9
0.000000 0.000000 0.000000
0.007843 0.000000 0.000000
0.027451 0.000000 0.000000
0.164706 0.000000 0.000000
0.513725 0.000000 0.000000
0.647059 0.000000 0.000000
0.772549 0.000000 0.000000
0.890196 0.000000 0.000000
1.000000 0.000000 0.000000
0.000000 0.007843 0.000000
0.007843 0.007843 0.000000
0.027451 0.007843 0.000000
0.164706 0.007843 0.000000
0.513725 0.007843 0.000000
0.647059 0.007843 0.000000
0.772549 0.007843 0.000000
0.890196 0.007843 0.000000
1.000000 0.007843 0.000000
0.000000 0.027451 0.000000
0.007843 0.027451 0.000000
0.027451 0.027451 0.000000
0.164706 0.027451 0.000000
0.513725 0.027451 0.000000
0.647059 0.027451 0.000000
0.772549 0.027451 0.000000
0.890196 0.027451 0.000000
1.000000 0.027451 0.000000
0.000000 0.164706 0.000000
0.007843 0.164706 0.000000
0.027451 0.164706 0.000000
0.164706 0.164706 0.000000
0.513725 0.164706 0.000000
0.647059 0.164706 0.000000
0.772549 0.164706 0.000000
0.890196 0.164706 0.000000
1.000000 0.164706 0.000000
0.000000 0.513725 0.000000
0.007843 0.513725 0.000000
0.027451 0.513725 0.000000
0.164706 0.513725 0.000000
0.513725 0.513725 0.000000
0.647059 0.513725 0.000000
0.772549 0.513725 0.000000
0.890196 0.513725 0.000000
1.000000 0.513725 0.000000
0.000000 0.647059 0.000000
0.007843 0.647059 0.000000
0.027451 0.647059 0.000000
0.164706 0.647059 0.000000
0.513725 0.647059 0.000000
0.647059 0.647059 0.000000
0.772549 0.647059 0.000000
0.890196 0.647059 0.000000
1.000000 0.647059 0.000000
0.000000 0.772549 0.000000
0.007843 0.772549 0.000000
0.027451 0.772549 0.000000
0.164706 0.772549 0.000000
0.513725 0.772549 0.000000
0.647059 0.772549 0.000000
0.772549 0.772549 0.000000
0.890196 0.772549 0.000000
1.000000 0.772549 0.000000
0.000000 0.890196 0.000000
0.007843 0.890196 0.000000
0.027451 0.890196 0.000000
0.164706 0.890196 0.000000
0.513725 0.890196 0.000000
0.647059 0.890196 0.000000
0.772549 0.890196 0.000000
0.890196 0.890196 0.000000
1.000000 0.890196 0.000000
0.000000 1.000000 0.000000
0.007843 1.000000 0.000000
0.027451 1.000000 0.000000
0.164706 1.000000 0.000000
0.513725 1.000000 0.000000
0.647059 1.000000 0.000000
0.772549 1.000000 0.000000
0.890196 1.000000 0.000000
1.000000 1.000000 0.000000
0.000000 0.000000 0.007843
0.007843 0.000000 0.007843
0.027451 0.000000 0.007843
0.164706 0.000000 0.007843
0.513725 0.000000 0.007843
0.647059 0.000000 0.007843
0.772549 0.000000 0.007843
0.890196 0.000000 0.007843
1.000000 0.000000 0.007843
0.000000 0.007843 0.007843
0.007843 0.007843 0.007843
0.027451 0.007843 0.007843
0.164706 0.007843 0.007843
0.513725 0.007843 0.007843
0.647059 0.007843 0.007843
0.772549 0.007843 0.007843
0.890196 0.007843 0.007843
1.000000 0.007843 0.007843
0.000000 0.027451 0.007843
0.007843 0.027451 0.007843
0.027451 0.027451 0.007843
0.164706 0.027451 0.007843
0.513725 0.027451 0.007843
0.647059 0.027451 0.007843
0.772549 0.027451 0.007843
0.890196 0.027451 0.007843
1.000000 0.027451 0.007843
0.000000 0.164706 0.007843
0.007843 0.164706 0.007843
0.027451 0.164706 0.007843
0.164706 0.164706 0.007843
0.513725 0.164706 0.007843
0.647059 0.164706 0.007843
0.772549 0.164706 0.007843
0.890196 0.164706 0.007843
1.000000 0.164706 0.007843
0.000000 0.513725 0.007843
0.007843 0.513725 0.007843
0.027451 0.513725 0.007843
0.164706 0.513725 0.007843
0.513725 0.513725 0.007843
0.647059 0.513725 0.007843
0.772549 0.513725 0.007843
0.890196 0.513725 0.007843
1.000000 0.513725 0.007843
0.000000 0.647059 0.007843
0.007843 0.647059 0.007843
0.027451 0.647059 0.007843
0.164706 0.647059 0.007843
0.513725 0.647059 0.007843
0.647059 0.647059 0.007843
0.772549 0.647059 0.007843
0.890196 0.647059 0.007843
1.000000 0.647059 0.007843
0.000000 0.772549 0.007843
0.007843 0.772549 0.007843
0.027451 0.772549 0.007843
0.164706 0.772549 0.007843
0.513725 0.772549 0.007843
0.647059 0.772549 0.007843
0.772549 0.772549 0.007843
0.890196 0.772549 0.007843
1.000000 0.772549 0.007843
0.000000 0.890196 0.007843
0.007843 0.890196 0.007843
0.027451 0.890196 0.007843
0.164706 0.890196 0.007843
0.513725 0.890196 0.007843
0.647059 0.890196 0.007843
0.772549 0.890196 0.007843
0.890196 0.890196 0.007843
1.000000 0.890196 0.007843
0.000000 1.000000 0.007843
0.007843 1.000000 0.007843
0.027451 1.000000 0.007843
0.164706 1.000000 0.007843
0.513725 1.000000 0.007843
0.647059 1.000000 0.007843
0.772549 1.000000 0.007843
0.890196 1.000000 0.007843
1.000000 1.000000 0.007843
0.000000 0.000000 0.027451
0.007843 0.000000 0.027451
0.027451 0.000000 0.027451
0.164706 0.000000 0.027451
0.513725 0.000000 0.027451
0.647059 0.000000 0.027451
0.772549 0.000000 0.027451
0.890196 0.000000 0.027451
1.000000 0.000000 0.027451
0.000000 0.007843 0.027451
0.007843 0.007843 0.027451
0.027451 0.007843 0.027451
0.164706 0.007843 0.027451
0.513725 0.007843 0.027451
0.647059 0.007843 0.027451
0.772549 0.007843 0.027451
0.890196 0.007843 0.027451
1.000000 0.007843 0.027451
0.000000 0.027451 0.027451
0.007843 0.027451 0.027451
0.027451 0.027451 0.027451
0.164706 0.027451 0.027451
0.513725 0.027451 0.027451
0.647059 0.027451 0.027451
0.772549 0.027451 0.027451
0.890196 0.027451 0.027451
1.000000 0.027451 0.027451
0.000000 0.164706 0.027451
0.007843 0.164706 0.027451
0.027451 0.164706 0.027451
0.164706 0.164706 0.027451
0.513725 0.164706 0.027451
0.647059 0.164706 0.027451
0.772549 0.164706 0.027451
0.890196 0.164706 0.027451
1.000000 0.164706 0.027451
0.000000 0.513725 0.027451
0.007843 0.513725 0.027451
0.027451 0.513725 0.027451
0.164706 0.513725 0.027451
0.513725 0.513725 0.027451
0.647059 0.513725 0.027451
0.772549 0.513725 0.027451
0.890196 0.513725 0.027451
1.000000 0.513725 0.027451
0.000000 0.647059 0.027451
0.007843 0.647059 0.027451
0.027451 0.647059 0.027451
0.164706 0.647059 0.027451
0.513725 0.647059 0.027451
0.647059 0.647059 0.027451
0.772549 0.647059 0.027451
0.890196 0.647059 0.027451
1.000000 0.647059 0.027451
0.000000 0.772549 0.027451
0.007843 0.772549 0.027451
0.027451 0.772549 0.027451
0.164706 0.772549 0.027451
0.513725 0.772549 0.027451
0.647059 0.772549 0.027451
0.772549 0.772549 0.027451
0.890196 0.772549 0.027451
1.000000 0.772549 0.027451
0.000000 0.890196 0.027451
0.007843 0.890196 0.027451
0.027451 0.890196 0.027451
0.164706 0.890196 0.027451
0.513725 0.890196 0.027451
0.647059 0.890196 0.027451
0.772549 0.890196 0.027451
0.890196 0.890196 0.027451
1.000000 0.890196 0.027451
0.000000 1.000000 0.027451
0.007843 1.000000 0.027451
0.027451 1.000000 0.027451
0.164706 1.000000 0.027451
0.513725 1.000000 0.027451
0.647059 1.000000 0.027451
0.772549 1.000000 0.027451
0.890196 1.000000 0.027451
1.000000 1.000000 0.027451
0.000000 0.000000 0.164706
0.007843 0.000000 0.164706
0.027451 0.000000 0.164706
0.164706 0.000000 0.164706
0.513725 0.000000 0.164706
0.647059 0.000000 0.164706
0.772549 0.000000 0.164706
0.890196 0.000000 0.164706
1.000000 0.000000 0.164706
0.000000 0.007843 0.164706
0.007843 0.007843 0.164706
0.027451 0.007843 0.164706
0.164706 0.007843 0.164706
0.513725 0.007843 0.164706
0.647059 0.007843 0.164706
0.772549 0.007843 0.164706
0.890196 0.007843 0.164706
1.000000 0.007843 0.164706
0.000000 0.027451 0.164706
0.007843 0.027451 0.164706
0.027451 0.027451 0.164706
0.164706 0.027451 0.164706
0.513725 0.027451 0.164706
0.647059 0.027451 0.164706
0.772549 0.027451 0.164706
0.890196 0.027451 0.164706
1.000000 0.027451 0.164706
0.000000 0.164706 0.164706
0.007843 0.164706 0.164706
0.027451 0.164706 0.164706
0.164706 0.164706 0.164706
0.513725 0.164706 0.164706
0.647059 0.164706 0.164706
0.772549 0.164706 0.164706
0.890196 0.164706 0.164706
1.000000 0.164706 0.164706
0.000000 0.513725 0.164706
0.007843 0.513725 0.164706
0.027451 0.513725 0.164706
0.164706 0.513725 0.164706
0.513725 0.513725 0.164706
0.647059 0.513725 0.164706
0.772549 0.513725 0.164706
0.890196 0.513725 0.164706
1.000000 0.513725 0.164706
0.000000 0.647059 0.164706
0.007843 0.647059 0.164706
0.027451 0.647059 0.164706
0.164706 0.647059 0.164706
0.513725 0.647059 0.164706
0.647059 0.647059 0.164706
0.772549 0.647059 0.164706
0.890196 0.647059 0.164706
1.000000 0.647059 0.164706
0.000000 0.772549 0.164706
0.007843 0.772549 0.164706
0.027451 0.772549 0.164706
0.164706 0.772549 0.164706
0.513725 0.772549 0.164706
0.647059 0.772549 0.164706
0.772549 0.772549 0.164706
0.890196 0.772549 0.164706
1.000000 0.772549 0.164706
0.000000 0.890196 0.164706
0.007843 0.890196 0.164706
0.027451 0.890196 0.164706
0.164706 0.890196 0.164706
0.513725 0.890196 0.164706
0.647059 0.890196 0.164706
0.772549 0.890196 0.164706
0.890196 0.890196 0.164706
1.000000 0.890196 0.164706
0.000000 1.000000 0.164706
0.007843 1.000000 0.164706
0.027451 1.000000 0.164706
0.164706 1.000000 0.164706
0.513725 1.000000 0.164706
0.647059 1.000000 0.164706
0.772549 1.000000 0.164706
0.890196 1.000000 0.164706
1.000000 1.000000 0.164706
0.000000 0.000000 0.513725
0.007843 0.000000 0.513725
0.027451 0.000000 0.513725
0.164706 0.000000 0.513725
0.513725 0.000000 0.513725
0.647059 0.000000 0.513725
0.772549 0.000000 0.513725
0.890196 0.000000 0.513725
1.000000 0.000000 0.513725
0.000000 0.007843 0.513725
0.007843 0.007843 0.513725
0.027451 0.007843 0.513725
0.164706 0.007843 0.513725
0.513725 0.007843 0.513725
0.647059 0.007843 0.513725
0.772549 0.007843 0.513725
0.890196 0.007843 0.513725
1.000000 0.007843 0.513725
0.000000 0.027451 0.513725
0.007843 0.027451 0.513725
0.027451 0.027451 0.513725
0.164706 0.027451 0.513725
0.513725 0.027451 0.513725
0.647059 0.027451 0.513725
0.772549 0.027451 0.513725
0.890196 0.027451 0.513725
1.000000 0.027451 0.513725
0.000000 0.164706 0.513725
0.007843 0.164706 0.513725
0.027451 0.164706 0.513725
0.164706 0.164706 0.513725
0.513725 0.164706 0.513725
0.647059 0.164706 0.513725
0.772549 0.164706 0.513725
0.890196 0.164706 0.513725
1.000000 0.164706 0.513725
0.000000 0.513725 0.513725
0.007843 0.513725 0.513725
0.027451 0.513725 0.513725
0.164706 0.513725 0.513725
0.513725 0.513725 0.513725
0.647059 0.513725 0.513725
0.772549 0.513725 0.513725
0.890196 0.513725 0.513725
1.000000 0.513725 0.513725
0.000000 0.647059 0.513725
0.007843 0.647059 0.513725
0.027451 0.647059 0.513725
0.164706 0.647059 0.513725
0.513725 0.647059 0.513725
0.647059 0.647059 0.513725
0.772549 0.647059 0.513725
0.890196 0.647059 0.513725
1.000000 0.647059 0.513725
0.000000 0.772549 0.513725
0.007843 0.772549 0.513725
0.027451 0.772549 0.513725
0.164706 0.772549 0.513725
0.513725 0.772549 0.513725
0.647059 0.772549 0.513725
0.772549 0.772549 0.513725
0.890196 0.772549 0.513725
1.000000 0.772549 0.513725
0.000000 0.890196 0.513725
0.007843 0.890196 0.513725
0.027451 0.890196 0.513725
0.164706 0.890196 0.513725
0.513725 0.890196 0.513725
0.647059 0.890196 0.513725
0.772549 0.890196 0.513725
0.890196 0.890196 0.513725
1.000000 0.890196 0.513725
0.000000 1.000000 0.513725
0.007843 1.000000 0.513725
0.027451 1.000000 0.513725
0.164706 1.000000 0.513725
0.513725 1.000000 0.513725
0.647059 1.000000 0.513725
0.772549 1.000000 0.513725
0.890196 1.000000 0.513725
1.000000 1.000000 0.513725
0.000000 0.000000 0.647059
0.007843 0.000000 0.647059
0.027451 0.000000 0.647059
0.164706 0.000000 0.647059
0.513725 0.000000 0.647059
0.647059 0.000000 0.647059
0.772549 0.000000 0.647059
0.890196 0.000000 0.647059
1.000000 0.000000 0.647059
0.000000 0.007843 0.647059
0.007843 0.007843 0.647059
0.027451 0.007843 0.647059
0.164706 0.007843 0.647059
0.513725 0.007843 0.647059
0.647059 0.007843 0.647059
0.772549 0.007843 0.647059
0.890196 0.007843 0.647059
1.000000 0.007843 0.647059
0.000000 0.027451 0.647059
0.007843 0.027451 0.647059
0.027451 0.027451 0.647059
0.164706 0.027451 0.647059
0.513725 0.027451 0.647059
0.647059 0.027451 0.647059
0.772549 0.027451 0.647059
0.890196 0.027451 0.647059
1.000000 0.027451 0.647059
0.000000 0.164706 0.647059
0.007843 0.164706 0.647059
0.027451 0.164706 0.647059
0.164706 0.164706 0.647059
0.513725 0.164706 0.647059
0.647059 0.164706 0.647059
0.772549 0.164706 0.647059
0.890196 0.164706 0.647059
1.000000 0.164706 0.647059
0.000000 0.513725 0.647059
0.007843 0.513725 0.647059
0.027451 0.513725 0.647059
0.164706 0.513725 0.647059
0.513725 0.513725 0.647059
0.647059 0.513725 0.647059
0.772549 0.513725 0.647059
0.890196 0.513725 0.647059
1.000000 0.513725 0.647059
0.000000 0.647059 0.647059
0.007843 0.647059 0.647059
0.027451 0.647059 0.647059
0.164706 0.647059 0.647059
0.513725 0.647059 0.647059
0.647059 0.647059 0.647059
0.772549 0.647059 0.647059
0.890196 0.647059 0.647059
1.000000 0.647059 0.647059
0.000000 0.772549 0.647059
0.007843 0.772549 0.647059
0.027451 0.772549 0.647059
0.164706 0.772549 0.647059
0.513725 0.772549 0.647059
0.647059 0.772549 0.647059
0.772549 0.772549 0.647059
0.890196 0.772549 0.647059
1.000000 0.772549 0.647059
0.000000 0.890196 0.647059
0.007843 0.890196 0.647059
0.027451 0.890196 0.647059
0.164706 0.890196 0.647059
0.513725 0.890196 0.647059
0.647059 0.890196 0.647059
0.772549 0.890196 0.647059
0.890196 0.890196 0.647059
1.000000 0.890196 0.647059
0.000000 1.000000 0.647059
0.007843 1.000000 0.647059
0.027451 1.000000 0.647059
0.164706 1.000000 0.647059
0.513725 1.000000 0.647059
0.647059 1.000000 0.647059
0.772549 1.000000 0.647059
0.890196 1.000000 0.647059
1.000000 1.000000 0.647059
0.000000 0.000000 0.772549
0.007843 0.000000 0.772549
0.027451 0.000000 0.772549
0.164706 0.000000 0.772549
0.513725 0.000000 0.772549
0.647059 0.000000 0.772549
0.772549 0.000000 0.772549
0.890196 0.000000 0.772549
1.000000 0.000000 0.772549
0.000000 0.007843 0.772549
0.007843 0.007843 0.772549
0.027451 0.007843 0.772549
0.164706 0.007843 0.772549
0.513725 0.007843 0.772549
0.647059 0.007843 0.772549
0.772549 0.007843 0.772549
0.890196 0.007843 0.772549
1.000000 0.007843 0.772549
0.000000 0.027451 0.772549
0.007843 0.027451 0.772549
0.027451 0.027451 0.772549
0.164706 0.027451 0.772549
0.513725 0.027451 0.772549
0.647059 0.027451 0.772549
0.772549 0.027451 0.772549
0.890196 0.027451 0.772549
1.000000 0.027451 0.772549
0.000000 0.164706 0.772549
0.007843 0.164706 0.772549
0.027451 0.164706 0.772549
0.164706 0.164706 0.772549
0.513725 0.164706 0.772549
0.647059 0.164706 0.772549
0.772549 0.164706 0.772549
0.890196 0.164706 0.772549
1.000000 0.164706 0.772549
0.000000 0.513725 0.772549
0.007843 0.513725 0.772549
0.027451 0.513725 0.772549
0.164706 0.513725 0.772549
0.513725 0.513725 0.772549
0.647059 0.513725 0.772549
0.772549 0.513725 0.772549
0.890196 0.513725 0.772549
1.000000 0.513725 0.772549
0.000000 0.647059 0.772549
0.007843 0.647059 0.772549
0.027451 0.647059 0.772549
0.164706 0.647059 0.772549
0.513725 0.647059 0.772549
0.647059 0.647059 0.772549
0.772549 0.647059 0.772549
0.890196 0.647059 0.772549
1.000000 0.647059 0.772549
0.000000 0.772549 0.772549
0.007843 0.772549 0.772549
0.027451 0.772549 0.772549
0.164706 0.772549 0.772549
0.513725 0.772549 0.772549
0.647059 0.772549 0.772549
0.772549 0.772549 0.772549
0.890196 0.772549 0.772549
1.000000 0.772549 0.772549
0.000000 0.890196 0.772549
0.007843 0.890196 0.772549
0.027451 0.890196 0.772549
0.164706 0.890196 0.772549
0.513725 0.890196 0.772549
0.647059 0.890196 0.772549
0.772549 0.890196 0.772549
0.890196 0.890196 0.772549
1.000000 0.890196 0.772549
0.000000 1.000000 0.772549
0.007843 1.000000 0.772549
0.027451 1.000000 0.772549
0.164706 1.000000 0.772549
0.513725 1.000000 0.772549
0.647059 1.000000 0.772549
0.772549 1.000000 0.772549
0.890196 1.000000 0.772549
1.000000 1.000000 0.772549
0.000000 0.000000 0.890196
0.007843 0.000000 0.890196
0.027451 0.000000 0.890196
0.164706 0.000000 0.890196
0.513725 0.000000 0.890196
0.647059 0.000000 0.890196
0.772549 0.000000 0.890196
0.890196 0.000000 0.890196
1.000000 0.000000 0.890196
0.000000 0.007843 0.890196
0.007843 0.007843 0.890196
0.027451 0.007843 0.890196
0.164706 0.007843 0.890196
0.513725 0.007843 0.890196
0.647059 0.007843 0.890196
0.772549 0.007843 0.890196
0.890196 0.007843 0.890196
1.000000 0.007843 0.890196
0.000000 0.027451 0.890196
0.007843 0.027451 0.890196
0.027451 0.027451 0.890196
0.164706 0.027451 0.890196
0.513725 0.027451 0.890196
0.647059 0.027451 0.890196
0.772549 0.027451 0.890196
0.890196 0.027451 0.890196
1.000000 0.027451 0.890196
0.000000 0.164706 0.890196
0.007843 0.164706 0.890196
0.027451 0.164706 0.890196
0.164706 0.164706 0.890196
0.513725 0.164706 0.890196
0.647059 0.164706 0.890196
0.772549 0.164706 0.890196
0.890196 0.164706 0.890196
1.000000 0.164706 0.890196
0.000000 0.513725 0.890196
0.007843 0.513725 0.890196
0.027451 0.513725 0.890196
0.164706 0.513725 0.890196
0.513725 0.513725 0.890196
0.647059 0.513725 0.890196
0.772549 0.513725 0.890196
0.890196 0.513725 0.890196
1.000000 0.513725 0.890196
0.000000 0.647059 0.890196
0.007843 0.647059 0.890196
0.027451 0.647059 0.890196
0.164706 0.647059 0.890196
0.513725 0.647059 0.890196
0.647059 0.647059 0.890196
0.772549 0.647059 0.890196
0.890196 0.647059 0.890196
1.000000 0.647059 0.890196
0.000000 0.772549 0.890196
0.007843 0.772549 0.890196
0.027451 0.772549 0.890196
0.164706 0.772549 0.890196
0.513725 0.772549 0.890196
0.647059 0.772549 0.890196
0.772549 0.772549 0.890196
0.890196 0.772549 0.890196
1.000000 0.772549 0.890196
0.000000 0.890196 0.890196
0.007843 0.890196 0.890196
0.027451 0.890196 0.890196
0.164706 0.890196 0.890196
0.513725 0.890196 0.890196
0.647059 0.890196 0.890196
0.772549 0.890196 0.890196
0.890196 0.890196 0.890196
1.000000 0.890196 0.890196
0.000000 1.000000 0.890196
0.007843 1.000000 0.890196
0.027451 1.000000 0.890196
0.164706 1.000000 0.890196
0.513725 1.000000 0.890196
0.647059 1.000000 0.890196
0.772549 1.000000 0.890196
0.890196 1.000000 0.890196
1.000000 1.000000 0.890196
0.000000 0.000000 1.000000
0.007843 0.000000 1.000000
0.027451 0.000000 1.000000
0.164706 0.000000 1.000000
0.513725 0.000000 1.000000
0.647059 0.000000 1.000000
0.772549 0.000000 1.000000
0.890196 0.000000 1.000000
1.000000 0.000000 1.000000
0.000000 0.007843 1.000000
0.007843 0.007843 1.000000
0.027451 0.007843 1.000000
0.164706 0.007843 1.000000
0.513725 0.007843 1.000000
0.647059 0.007843 1.000000
0.772549 0.007843 1.000000
0.890196 0.007843 1.000000
1.000000 0.007843 1.000000
0.000000 0.027451 1.000000
0.007843 0.027451 1.000000
0.027451 0.027451 1.000000
0.164706 0.027451 1.000000
0.513725 0.027451 1.000000
0.647059 0.027451 1.000000
0.772549 0.027451 1.000000
0.890196 0.027451 1.000000
1.000000 0.027451 1.000000
0.000000 0.164706 1.000000
0.007843 0.164706 1.000000
0.027451 0.164706 1.000000
0.164706 0.164706 1.000000
0.513725 0.164706 1.000000
0.647059 0.164706 1.000000
0.772549 0.164706 1.000000
0.890196 0.164706 1.000000
1.000000 0.164706 1.000000
0.000000 0.513725 1.000000
0.007843 0.513725 1.000000
0.027451 0.513725 1.000000
0.164706 0.513725 1.000000
0.513725 0.513725 1.000000
0.647059 0.513725 1.000000
0.772549 0.513725 1.000000
0.890196 0.513725 1.000000
1.000000 0.513725 1.000000
0.000000 0.647059 1.000000
0.007843 0.647059 1.000000
0.027451 0.647059 1.000000
0.164706 0.647059 1.000000
0.513725 0.647059 1.000000
0.647059 0.647059 1.000000
0.772549 0.647059 1.000000
0.890196 0.647059 1.000000
1.000000 0.647059 1.000000
0.000000 0.772549 1.000000
0.007843 0.772549 1.000000
0.027451 0.772549 1.000000
0.164706 0.772549 1.000000
0.513725 0.772549 1.000000
0.647059 0.772549 1.000000
0.772549 0.772549 1.000000
0.890196 0.772549 1.000000
1.000000 0.772549 1.000000
0.000000 0.890196 1.000000
0.007843 0.890196 1.000000
0.027451 0.890196 1.000000
0.164706 0.890196 1.000000
0.513725 0.890196 1.000000
0.647059 0.890196 1.000000
0.772549 0.890196 1.000000
0.890196 0.890196 1.000000
1.000000 0.890196 1.000000
0.000000 1.000000 1.000000
0.007843 1.000000 1.000000
0.027451 1.000000 1.000000
0.164706 1.000000 1.000000
0.513725 1.000000 1.000000
0.647059 1.000000 1.000000
0.772549 1.000000 1.000000
0.890196 1.000000 1.000000
1.000000 1.000000 1.000000
