LUTs/Damaging/LUT_EXPOSURE/dark_shadows2.cube
#Generated by lutCreator.js
#Coded by SirSerch
#https://github.com/SirSerch/LutCreatorJs
TITLE lutCreatorJs_25
LUT_3D_SIZE 25
0.000000 0.000000 0.000000
0.000000 0.000000 0.000000
0.003922 0.000000 0.000000
0.007843 0.000000 0.000000
0.011765 0.000000 0.000000
0.019608 0.000000 0.000000
0.027451 0.000000 0.000000
0.043137 0.000000 0.000000
0.058824 0.000000 0.000000
0.164706 0.000000 0.000000
0.407843 0.000000 0.000000
0.462745 0.000000 0.000000
0.513725 0.000000 0.000000
0.560784 0.000000 0.000000
0.607843 0.000000 0.000000
0.647059 0.000000 0.000000
0.694118 0.000000 0.000000
0.737255 0.000000 0.000000
0.772549 0.000000 0.000000
0.815686 0.000000 0.000000
0.854902 0.000000 0.000000
0.890196 0.000000 0.000000
0.925490 0.000000 0.000000
0.960784 0.000000 0.000000
1.000000 0.000000 0.000000
0.000000 0.000000 0.000000
0.000000 0.000000 0.000000
0.003922 0.000000 0.000000
0.007843 0.000000 0.000000
0.011765 0.000000 0.000000
0.019608 0.000000 0.000000
0.027451 0.000000 0.000000
0.043137 0.000000 0.000000
0.058824 0.000000 0.000000
0.164706 0.000000 0.000000
0.407843 0.000000 0.000000
0.462745 0.000000 0.000000
0.513725 0.000000 0.000000
0.560784 0.000000 0.000000
0.607843 0.000000 0.000000
0.647059 0.000000 0.000000
0.694118 0.000000 0.000000
0.737255 0.000000 0.000000
0.772549 0.000000 0.000000
0.815686 0.000000 0.000000
0.854902 0.000000 0.000000
0.890196 0.000000 0.000000
0.925490 0.000000 0.000000
0.960784 0.000000 0.000000
1.000000 0.000000 0.000000
0.000000 0.003922 0.000000
0.000000 0.003922 0.000000
0.003922 0.003922 0.000000
0.007843 0.003922 0.000000
0.011765 0.003922 0.000000
0.019608 0.003922 0.000000
0.027451 0.003922 0.000000
0.043137 0.003922 0.000000
0.058824 0.003922 0.000000
0.164706 0.003922 0.000000
0.407843 0.003922 0.000000
0.462745 0.003922 0.000000
0.513725 0.003922 0.000000
0.560784 0.003922 0.000000
0.607843 0.003922 0.000000
0.647059 0.003922 0.000000
0.694118 0.003922 0.000000
0.737255 0.003922 0.000000
0.772549 0.003922 0.000000
0.815686 0.003922 0.000000
0.854902 0.003922 0.000000
0.890196 0.003922 0.000000
0.925490 0.003922 0.000000
0.960784 0.003922 0.000000
1.000000 0.003922 0.000000
0.000000 0.007843 0.000000
0.000000 0.007843 0.000000
0.003922 0.007843 0.000000
0.007843 0.007843 0.000000
0.011765 0.007843 0.000000
0.019608 0.007843 0.000000
0.027451 0.007843 0.000000
0.043137 0.007843 0.000000
0.058824 0.007843 0.000000
0.164706 0.007843 0.000000
0.407843 0.007843 0.000000
0.462745 0.007843 0.000000
0.513725 0.007843 0.000000
0.560784 0.007843 0.000000
0.607843 0.007843 0.000000
0.647059 0.007843 0.000000
0.694118 0.007843 0.000000
0.737255 0.007843 0.000000
0.772549 0.007843 0.000000
0.815686 0.007843 0.000000
0.854902 0.007843 0.000000
0.890196 0.007843 0.000000
0.925490 0.007843 0.000000
0.960784 0.007843 0.000000
1.000000 0.007843 0.000000
0.000000 0.011765 0.000000
0.000000 0.011765 0.000000
0.003922 0.011765 0.000000
0.007843 0.011765 0.000000
0.011765 0.011765 0.000000
0.019608 0.011765 0.000000
0.027451 0.011765 0.000000
0.043137 0.011765 0.000000
0.058824 0.011765 0.000000
0.164706 0.011765 0.000000
0.407843 0.011765 0.000000
0.462745 0.011765 0.000000
0.513725 0.011765 0.000000
0.560784 0.011765 0.000000
0.607843 0.011765 0.000000
0.647059 0.011765 0.000000
0.694118 0.011765 0.000000
0.737255 0.011765 0.000000
0.772549 0.011765 0.000000
0.815686 0.011765 0.000000
0.854902 0.011765 0.000000
0.890196 0.011765 0.000000
0.925490 0.011765 0.000000
0.960784 0.011765 0.000000
1.000000 0.011765 0.000000
0.000000 0.019608 0.000000
0.000000 0.019608 0.000000
0.003922 0.019608 0.000000
0.007843 0.019608 0.000000
0.011765 0.019608 0.000000
0.019608 0.019608 0.000000
0.027451 0.019608 0.000000
0.043137 0.019608 0.000000
0.058824 0.019608 0.000000
0.164706 0.019608 0.000000
0.407843 0.019608 0.000000
0.462745 0.019608 0.000000
0.513725 0.019608 0.000000
0.560784 0.019608 0.000000
0.607843 0.019608 0.000000
0.647059 0.019608 0.000000
0.694118 0.019608 0.000000
0.737255 0.019608 0.000000
0.772549 0.019608 0.000000
0.815686 0.019608 0.000000
0.854902 0.019608 0.000000
0.890196 0.019608 0.000000
0.925490 0.019608 0.000000
0.960784 0.019608 0.000000
1.000000 0.019608 0.000000
0.000000 0.027451 0.000000
0.000000 0.027451 0.000000
0.003922 0.027451 0.000000
0.007843 0.027451 0.000000
0.011765 0.027451 0.000000
0.019608 0.027451 0.000000
0.027451 0.027451 0.000000
0.043137 0.027451 0.000000
0.058824 0.027451 0.000000
0.164706 0.027451 0.000000
0.407843 0.027451 0.000000
0.462745 0.027451 0.000000
0.513725 0.027451 0.000000
0.560784 0.027451 0.000000
0.607843 0.027451 0.000000
0.647059 0.027451 0.000000
0.694118 0.027451 0.000000
0.737255 0.027451 0.000000
0.772549 0.027451 0.000000
0.815686 0.027451 0.000000
0.854902 0.027451 0.000000
0.890196 0.027451 0.000000
0.925490 0.027451 0.000000
0.960784 0.027451 0.000000
1.000000 0.027451 0.000000
0.000000 0.043137 0.000000
0.000000 0.043137 0.000000
0.003922 0.043137 0.000000
0.007843 0.043137 0.000000
0.011765 0.043137 0.000000
0.019608 0.043137 0.000000
0.027451 0.043137 0.000000
0.043137 0.043137 0.000000
0.058824 0.043137 0.000000
0.164706 0.043137 0.000000
0.407843 0.043137 0.000000
0.462745 0.043137 0.000000
0.513725 0.043137 0.000000
0.560784 0.043137 0.000000
0.607843 0.043137 0.000000
0.647059 0.043137 0.000000
0.694118 0.043137 0.000000
0.737255 0.043137 0.000000
0.772549 0.043137 0.000000
0.815686 0.043137 0.000000
0.854902 0.043137 0.000000
0.890196 0.043137 0.000000
0.925490 0.043137 0.000000
0.960784 0.043137 0.000000
1.000000 0.043137 0.000000
0.000000 0.058824 0.000000
0.000000 0.058824 0.000000
0.003922 0.058824 0.000000
0.007843 0.058824 0.000000
0.011765 0.058824 0.000000
0.019608 0.058824 0.000000
0.027451 0.058824 0.000000
0.043137 0.058824 0.000000
0.058824 0.058824 0.000000
0.164706 0.058824 0.000000
0.407843 0.058824 0.000000
0.462745 0.058824 0.000000
0.513725 0.058824 0.000000
0.560784 0.058824 0.000000
0.607843 0.058824 0.000000
0.647059 0.058824 0.000000
0.694118 0.058824 0.000000
0.737255 0.058824 0.000000
0.772549 0.058824 0.000000
0.815686 0.058824 0.000000
0.854902 0.058824 0.000000
0.890196 0.058824 0.000000
0.925490 0.058824 0.000000
0.960784 0.058824 0.000000
1.000000 0.058824 0.000000
0.000000 0.164706 0.000000
0.000000 0.164706 0.000000
0.003922 0.164706 0.000000
0.007843 0.164706 0.000000
0.011765 0.164706 0.000000
0.019608 0.164706 0.000000
0.027451 0.164706 0.000000
0.043137 0.164706 0.000000
0.058824 0.164706 0.000000
0.164706 0.164706 0.000000
0.407843 0.164706 0.000000
0.462745 0.164706 0.000000
0.513725 0.164706 0.000000
0.560784 0.164706 0.000000
0.607843 0.164706 0.000000
0.647059 0.164706 0.000000
0.694118 0.164706 0.000000
0.737255 0.164706 0.000000
0.772549 0.164706 0.000000
0.815686 0.164706 0.000000
0.854902 0.164706 0.000000
0.890196 0.164706 0.000000
0.925490 0.164706 0.000000
0.960784 0.164706 0.000000
1.000000 0.164706 0.000000
0.000000 0.407843 0.000000
0.000000 0.407843 0.000000
0.003922 0.407843 0.000000
0.007843 0.407843 0.000000
0.011765 0.407843 0.000000
0.019608 0.407843 0.000000
0.027451 0.407843 0.000000
0.043137 0.407843 0.000000
0.058824 0.407843 0.000000
0.164706 0.407843 0.000000
0.407843 0.407843 0.000000
0.462745 0.407843 0.000000
0.513725 0.407843 0.000000
0.560784 0.407843 0.000000
0.607843 0.407843 0.000000
0.647059 0.407843 0.000000
0.694118 0.407843 0.000000
0.737255 0.407843 0.000000
0.772549 0.407843 0.000000
0.815686 0.407843 0.000000
0.854902 0.407843 0.000000
0.890196 0.407843 0.000000
0.925490 0.407843 0.000000
0.960784 0.407843 0.000000
1.000000 0.407843 0.000000
0.000000 0.462745 0.000000
0.000000 0.462745 0.000000
0.003922 0.462745 0.000000
0.007843 0.462745 0.000000
0.011765 0.462745 0.000000
0.019608 0.462745 0.000000
0.027451 0.462745 0.000000
0.043137 0.462745 0.000000
0.058824 0.462745 0.000000
0.164706 0.462745 0.000000
0.407843 0.462745 0.000000
0.462745 0.462745 0.000000
0.513725 0.462745 0.000000
0.560784 0.462745 0.000000
0.607843 0.462745 0.000000
0.647059 0.462745 0.000000
0.694118 0.462745 0.000000
0.737255 0.462745 0.000000
0.772549 0.462745 0.000000
0.815686 0.462745 0.000000
0.854902 0.462745 0.000000
0.890196 0.462745 0.000000
0.925490 0.462745 0.000000
0.960784 0.462745 0.000000
1.000000 0.462745 0.000000
0.000000 0.513725 0.000000
0.000000 0.513725 0.000000
0.003922 0.513725 0.000000
0.007843 0.513725 0.000000
0.011765 0.513725 0.000000
0.019608 0.513725 0.000000
0.027451 0.513725 0.000000
0.043137 0.513725 0.000000
0.058824 0.513725 0.000000
0.164706 0.513725 0.000000
0.407843 0.513725 0.000000
0.462745 0.513725 0.000000
0.513725 0.513725 0.000000
0.560784 0.513725 0.000000
0.607843 0.513725 0.000000
0.647059 0.513725 0.000000
0.694118 0.513725 0.000000
0.737255 0.513725 0.000000
0.772549 0.513725 0.000000
0.815686 0.513725 0.000000
0.854902 0.513725 0.000000
0.890196 0.513725 0.000000
0.925490 0.513725 0.000000
0.960784 0.513725 0.000000
1.000000 0.513725 0.000000
0.000000 0.560784 0.000000
0.000000 0.560784 0.000000
0.003922 0.560784 0.000000
0.007843 0.560784 0.000000
0.011765 0.560784 0.000000
0.019608 0.560784 0.000000
0.027451 0.560784 0.000000
0.043137 0.560784 0.000000
0.058824 0.560784 0.000000
0.164706 0.560784 0.000000
0.407843 0.560784 0.000000
0.462745 0.560784 0.000000
0.513725 0.560784 0.000000
0.560784 0.560784 0.000000
0.607843 0.560784 0.000000
0.647059 0.560784 0.000000
0.694118 0.560784 0.000000
0.737255 0.560784 0.000000
0.772549 0.560784 0.000000
0.815686 0.560784 0.000000
0.854902 0.560784 0.000000
0.890196 0.560784 0.000000
0.925490 0.560784 0.000000
0.960784 0.560784 0.000000
1.000000 0.560784 0.000000
0.000000 0.607843 0.000000
0.000000 0.607843 0.000000
0.003922 0.607843 0.000000
0.007843 0.607843 0.000000
0.011765 0.607843 0.000000
0.019608 0.607843 0.000000
0.027451 0.607843 0.000000
0.043137 0.607843 0.000000
0.058824 0.607843 0.000000
0.164706 0.607843 0.000000
0.407843 0.607843 0.000000
0.462745 0.607843 0.000000
0.513725 0.607843 0.000000
0.560784 0.607843 0.000000
0.607843 0.607843 0.000000
0.647059 0.607843 0.000000
0.694118 0.607843 0.000000
0.737255 0.607843 0.000000
0.772549 0.607843 0.000000
0.815686 0.607843 0.000000
0.854902 0.607843 0.000000
0.890196 0.607843 0.000000
0.925490 0.607843 0.000000
0.960784 0.607843 0.000000
1.000000 0.607843 0.000000
0.000000 0.647059 0.000000
0.000000 0.647059 0.000000
0.003922 0.647059 0.000000
0.007843 0.647059 0.000000
0.011765 0.647059 0.000000
0.019608 0.647059 0.000000
0.027451 0.647059 0.000000
0.043137 0.647059 0.000000
0.058824 0.647059 0.000000
0.164706 0.647059 0.000000
0.407843 0.647059 0.000000
0.462745 0.647059 0.000000
0.513725 0.647059 0.000000
0.560784 0.647059 0.000000
0.607843 0.647059 0.000000
0.647059 0.647059 0.000000
0.694118 0.647059 0.000000
0.737255 0.647059 0.000000
0.772549 0.647059 0.000000
0.815686 0.647059 0.000000
0.854902 0.647059 0.000000
0.890196 0.647059 0.000000
0.925490 0.647059 0.000000
0.960784 0.647059 0.000000
1.000000 0.647059 0.000000
0.000000 0.694118 0.000000
0.000000 0.694118 0.000000
0.003922 0.694118 0.000000
0.007843 0.694118 0.000000
0.011765 0.694118 0.000000
0.019608 0.694118 0.000000
0.027451 0.694118 0.000000
0.043137 0.694118 0.000000
0.058824 0.694118 0.000000
0.164706 0.694118 0.000000
0.407843 0.694118 0.000000
0.462745 0.694118 0.000000
0.513725 0.694118 0.000000
0.560784 0.694118 0.000000
0.607843 0.694118 0.000000
0.647059 0.694118 0.000000
0.694118 0.694118 0.000000
0.737255 0.694118 0.000000
0.772549 0.694118 0.000000
0.815686 0.694118 0.000000
0.854902 0.694118 0.000000
0.890196 0.694118 0.000000
0.925490 0.694118 0.000000
0.960784 0.694118 0.000000
1.000000 0.694118 0.000000
0.000000 0.737255 0.000000
0.000000 0.737255 0.000000
0.003922 0.737255 0.000000
0.007843 0.737255 0.000000
0.011765 0.737255 0.000000
0.019608 0.737255 0.000000
0.027451 0.737255 0.000000
0.043137 0.737255 0.000000
0.058824 0.737255 0.000000
0.164706 0.737255 0.000000
0.407843 0.737255 0.000000
0.462745 0.737255 0.000000
0.513725 0.737255 0.000000
0.560784 0.737255 0.000000
0.607843 0.737255 0.000000
0.647059 0.737255 0.000000
0.694118 0.737255 0.000000
0.737255 0.737255 0.000000
0.772549 0.737255 0.000000
0.815686 0.737255 0.000000
0.854902 0.737255 0.000000
0.890196 0.737255 0.000000
0.925490 0.737255 0.000000
0.960784 0.737255 0.000000
1.000000 0.737255 0.000000
0.000000 0.772549 0.000000
0.000000 0.772549 0.000000
0.003922 0.772549 0.000000
0.007843 0.772549 0.000000
0.011765 0.772549 0.000000
0.019608 0.772549 0.000000
0.027451 0.772549 0.000000
0.043137 0.772549 0.000000
0.058824 0.772549 0.000000
0.164706 0.772549 0.000000
0.407843 0.772549 0.000000
0.462745 0.772549 0.000000
0.513725 0.772549 0.000000
0.560784 0.772549 0.000000
0.607843 0.772549 0.000000
0.647059 0.772549 0.000000
0.694118 0.772549 0.000000
0.737255 0.772549 0.000000
0.772549 0.772549 0.000000
0.815686 0.772549 0.000000
0.854902 0.772549 0.000000
0.890196 0.772549 0.000000
0.925490 0.772549 0.000000
0.960784 0.772549 0.000000
1.000000 0.772549 0.000000
0.000000 0.815686 0.000000
0.000000 0.815686 0.000000
0.003922 0.815686 0.000000
0.007843 0.815686 0.000000
0.011765 0.815686 0.000000
0.019608 0.815686 0.000000
0.027451 0.815686 0.000000
0.043137 0.815686 0.000000
0.058824 0.815686 0.000000
0.164706 0.815686 0.000000
0.407843 0.815686 0.000000
0.462745 0.815686 0.000000
0.513725 0.815686 0.000000
0.560784 0.815686 0.000000
0.607843 0.815686 0.000000
0.647059 0.815686 0.000000
0.694118 0.815686 0.000000
0.737255 0.815686 0.000000
0.772549 0.815686 0.000000
0.815686 0.815686 0.000000
0.854902 0.815686 0.000000
0.890196 0.815686 0.000000
0.925490 0.815686 0.000000
0.960784 0.815686 0.000000
1.000000 0.815686 0.000000
0.000000 0.854902 0.000000
0.000000 0.854902 0.000000
0.003922 0.854902 0.000000
0.007843 0.854902 0.000000
0.011765 0.854902 0.000000
0.019608 0.854902 0.000000
0.027451 0.854902 0.000000
0.043137 0.854902 0.000000
0.058824 0.854902 0.000000
0.164706 0.854902 0.000000
0.407843 0.854902 0.000000
0.462745 0.854902 0.000000
0.513725 0.854902 0.000000
0.560784 0.854902 0.000000
0.607843 0.854902 0.000000
0.647059 0.854902 0.000000
0.694118 0.854902 0.000000
0.737255 0.854902 0.000000
0.772549 0.854902 0.000000
0.815686 0.854902 0.000000
0.854902 0.854902 0.000000
0.890196 0.854902 0.000000
0.925490 0.854902 0.000000
0.960784 0.854902 0.000000
1.000000 0.854902 0.000000
0.000000 0.890196 0.000000
0.000000 0.890196 0.000000
0.003922 0.890196 0.000000
0.007843 0.890196 0.000000
0.011765 0.890196 0.000000
0.019608 0.890196 0.000000
0.027451 0.890196 0.000000
0.043137 0.890196 0.000000
0.058824 0.890196 0.000000
0.164706 0.890196 0.000000
0.407843 0.890196 0.000000
0.462745 0.890196 0.000000
0.513725 0.890196 0.000000
0.560784 0.890196 0.000000
0.607843 0.890196 0.000000
0.647059 0.890196 0.000000
0.694118 0.890196 0.000000
0.737255 0.890196 0.000000
0.772549 0.890196 0.000000
0.815686 0.890196 0.000000
0.854902 0.890196 0.000000
0.890196 0.890196 0.000000
0.925490 0.890196 0.000000
0.960784 0.890196 0.000000
1.000000 0.890196 0.000000
0.000000 0.925490 0.000000
0.000000 0.925490 0.000000
0.003922 0.925490 0.000000
0.007843 0.925490 0.000000
0.011765 0.925490 0.000000
0.019608 0.925490 0.000000
0.027451 0.925490 0.000000
0.043137 0.925490 0.000000
0.058824 0.925490 0.000000
0.164706 0.925490 0.000000
0.407843 0.925490 0.000000
0.462745 0.925490 0.000000
0.513725 0.925490 0.000000
0.560784 0.925490 0.000000
0.607843 0.925490 0.000000
0.647059 0.925490 0.000000
0.694118 0.925490 0.000000
0.737255 0.925490 0.000000
0.772549 0.925490 0.000000
0.815686 0.925490 0.000000
0.854902 0.925490 0.000000
0.890196 0.925490 0.000000
0.925490 0.925490 0.000000
0.960784 0.925490 0.000000
1.000000 0.925490 0.000000
0.000000 0.960784 0.000000
0.000000 0.960784 0.000000
0.003922 0.960784 0.000000
0.007843 0.960784 0.000000
0.011765 0.960784 0.000000
0.019608 0.960784 0.000000
0.027451 0.960784 0.000000
0.043137 0.960784 0.000000
0.058824 0.960784 0.000000
0.164706 0.960784 0.000000
0.407843 0.960784 0.000000
0.462745 0.960784 0.000000
0.513725 0.960784 0.000000
0.560784 0.960784 0.000000
0.607843 0.960784 0.000000
0.647059 0.960784 0.000000
0.694118 0.960784 0.000000
0.737255 0.960784 0.000000
0.772549 0.960784 0.000000
0.815686 0.960784 0.000000
0.854902 0.960784 0.000000
0.890196 0.960784 0.000000
0.925490 0.960784 0.000000
0.960784 0.960784 0.000000
1.000000 0.960784 0.000000
0.000000 1.000000 0.000000
0.000000 1.000000 0.000000
0.003922 1.000000 0.000000
0.007843 1.000000 0.000000
0.011765 1.000000 0.000000
0.019608 1.000000 0.000000
0.027451 1.000000 0.000000
0.043137 1.000000 0.000000
0.058824 1.000000 0.000000
0.164706 1.000000 0.000000
0.407843 1.000000 0.000000
0.462745 1.000000 0.000000
0.513725 1.000000 0.000000
0.560784 1.000000 0.000000
0.607843 1.000000 0.000000
0.647059 1.000000 0.000000
0.694118 1.000000 0.000000
0.737255 1.000000 0.000000
0.772549 1.000000 0.000000
0.815686 1.000000 0.000000
0.854902 1.000000 0.000000
0.890196 1.000000 0.000000
0.925490 1.000000 0.000000
0.960784 1.000000 0.000000
1.000000 1.000000 0.000000
0.000000 0.000000 0.000000
0.000000 0.000000 0.000000
0.003922 0.000000 0.000000
0.007843 0.000000 0.000000
0.011765 0.000000 0.000000
0.019608 0.000000 0.000000
0.027451 0.000000 0.000000
0.043137 0.000000 0.000000
0.058824 0.000000 0.000000
0.164706 0.000000 0.000000
0.407843 0.000000 0.000000
0.462745 0.000000 0.000000
0.513725 0.000000 0.000000
0.560784 0.000000 0.000000
0.607843 0.000000 0.000000
0.647059 0.000000 0.000000
0.694118 0.000000 0.000000
0.737255 0.000000 0.000000
0.772549 0.000000 0.000000
0.815686 0.000000 0.000000
0.854902 0.000000 0.000000
0.890196 0.000000 0.000000
0.925490 0.000000 0.000000
0.960784 0.000000 0.000000
1.000000 0.000000 0.000000
0.000000 0.000000 0.000000
0.000000 0.000000 0.000000
0.003922 0.000000 0.000000
0.007843 0.000000 0.000000
0.011765 0.000000 0.000000
0.019608 0.000000 0.000000
0.027451 0.000000 0.000000
0.043137 0.000000 0.000000
0.058824 0.000000 0.000000
0.164706 0.000000 0.000000
0.407843 0.000000 0.000000
0.462745 0.000000 0.000000
0.513725 0.000000 0.000000
0.560784 0.000000 0.000000
0.607843 0.000000 0.000000
0.647059 0.000000 0.000000
0.694118 0.000000 0.000000
0.737255 0.000000 0.000000
0.772549 0.000000 0.000000
0.815686 0.000000 0.000000
0.854902 0.000000 0.000000
0.890196 0.000000 0.000000
0.925490 0.000000 0.000000
0.960784 0.000000 0.000000
1.000000 0.000000 0.000000
0.000000 0.003922 0.000000
0.000000 0.003922 0.000000
0.003922 0.003922 0.000000
0.007843 0.003922 0.000000
0.011765 0.003922 0.000000
0.019608 0.003922 0.000000
0.027451 0.003922 0.000000
0.043137 0.003922 0.000000
0.058824 0.003922 0.000000
0.164706 0.003922 0.000000
0.407843 0.003922 0.000000
0.462745 0.003922 0.000000
0.513725 0.003922 0.000000
0.560784 0.003922 0.000000
0.607843 0.003922 0.000000
0.647059 0.003922 0.000000
0.694118 0.003922 0.000000
0.737255 0.003922 0.000000
0.772549 0.003922 0.000000
0.815686 0.003922 0.000000
0.854902 0.003922 0.000000
0.890196 0.003922 0.000000
0.925490 0.003922 0.000000
0.960784 0.003922 0.000000
1.000000 0.003922 0.000000
0.000000 0.007843 0.000000
0.000000 0.007843 0.000000
0.003922 0.007843 0.000000
0.007843 0.007843 0.000000
0.011765 0.007843 0.000000
0.019608 0.007843 0.000000
0.027451 0.007843 0.000000
0.043137 0.007843 0.000000
0.058824 0.007843 0.000000
0.164706 0.007843 0.000000
0.407843 0.007843 0.000000
0.462745 0.007843 0.000000
0.513725 0.007843 0.000000
0.560784 0.007843 0.000000
0.607843 0.007843 0.000000
0.647059 0.007843 0.000000
0.694118 0.007843 0.000000
0.737255 0.007843 0.000000
0.772549 0.007843 0.000000
0.815686 0.007843 0.000000
0.854902 0.007843 0.000000
0.890196 0.007843 0.000000
0.925490 0.007843 0.000000
0.960784 0.007843 0.000000
1.000000 0.007843 0.000000
0.000000 0.011765 0.000000
0.000000 0.011765 0.000000
0.003922 0.011765 0.000000
0.007843 0.011765 0.000000
0.011765 0.011765 0.000000
0.019608 0.011765 0.000000
0.027451 0.011765 0.000000
0.043137 0.011765 0.000000
0.058824 0.011765 0.000000
0.164706 0.011765 0.000000
0.407843 0.011765 0.000000
0.462745 0.011765 0.000000
0.513725 0.011765 0.000000
0.560784 0.011765 0.000000
0.607843 0.011765 0.000000
0.647059 0.011765 0.000000
0.694118 0.011765 0.000000
0.737255 0.011765 0.000000
0.772549 0.011765 0.000000
0.815686 0.011765 0.000000
0.854902 0.011765 0.000000
0.890196 0.011765 0.000000
0.925490 0.011765 0.000000
0.960784 0.011765 0.000000
1.000000 0.011765 0.000000
0.000000 0.019608 0.000000
0.000000 0.019608 0.000000
0.003922 0.019608 0.000000
0.007843 0.019608 0.000000
0.011765 0.019608 0.000000
0.019608 0.019608 0.000000
0.027451 0.019608 0.000000
0.043137 0.019608 0.000000
0.058824 0.019608 0.000000
0.164706 0.019608 0.000000
0.407843 0.019608 0.000000
0.462745 0.019608 0.000000
0.513725 0.019608 0.000000
0.560784 0.019608 0.000000
0.607843 0.019608 0.000000
0.647059 0.019608 0.000000
0.694118 0.019608 0.000000
0.737255 0.019608 0.000000
0.772549 0.019608 0.000000
0.815686 0.019608 0.000000
0.854902 0.019608 0.000000
0.890196 0.019608 0.000000
0.925490 0.019608 0.000000
0.960784 0.019608 0.000000
1.000000 0.019608 0.000000
0.000000 0.027451 0.000000
0.000000 0.027451 0.000000
0.003922 0.027451 0.000000
0.007843 0.027451 0.000000
0.011765 0.027451 0.000000
0.019608 0.027451 0.000000
0.027451 0.027451 0.000000
0.043137 0.027451 0.000000
0.058824 0.027451 0.000000
0.164706 0.027451 0.000000
0.407843 0.027451 0.000000
0.462745 0.027451 0.000000
0.513725 0.027451 0.000000
0.560784 0.027451 0.000000
0.607843 0.027451 0.000000
0.647059 0.027451 0.000000
0.694118 0.027451 0.000000
0.737255 0.027451 0.000000
0.772549 0.027451 0.000000
0.815686 0.027451 0.000000
0.854902 0.027451 0.000000
0.890196 0.027451 0.000000
0.925490 0.027451 0.000000
0.960784 0.027451 0.000000
1.000000 0.027451 0.000000
0.000000 0.043137 0.000000
0.000000 0.043137 0.000000
0.003922 0.043137 0.000000
0.007843 0.043137 0.000000
0.011765 0.043137 0.000000
0.019608 0.043137 0.000000
0.027451 0.043137 0.000000
0.043137 0.043137 0.000000
0.058824 0.043137 0.000000
0.164706 0.043137 0.000000
0.407843 0.043137 0.000000
0.462745 0.043137 0.000000
0.513725 0.043137 0.000000
0.560784 0.043137 0.000000
0.607843 0.043137 0.000000
0.647059 0.043137 0.000000
0.694118 0.043137 0.000000
0.737255 0.043137 0.000000
0.772549 0.043137 0.000000
0.815686 0.043137 0.000000
0.854902 0.043137 0.000000
0.890196 0.043137 0.000000
0.925490 0.043137 0.000000
0.960784 0.043137 0.000000
1.000000 0.043137 0.000000
0.000000 0.058824 0.000000
0.000000 0.058824 0.000000
0.003922 0.058824 0.000000
0.007843 0.058824 0.000000
0.011765 0.058824 0.000000
0.019608 0.058824 0.000000
0.027451 0.058824 0.000000
0.043137 0.058824 0.000000
0.058824 0.058824 0.000000
0.164706 0.058824 0.000000
0.407843 0.058824 0.000000
0.462745 0.058824 0.000000
0.513725 0.058824 0.000000
0.560784 0.058824 0.000000
0.607843 0.058824 0.000000
0.647059 0.058824 0.000000
0.694118 0.058824 0.000000
0.737255 0.058824 0.000000
0.772549 0.058824 0.000000
0.815686 0.058824 0.000000
0.854902 0.058824 0.000000
0.890196 0.058824 0.000000
0.925490 0.058824 0.000000
0.960784 0.058824 0.000000
1.000000 0.058824 0.000000
0.000000 0.164706 0.000000
0.000000 0.164706 0.000000
0.003922 0.164706 0.000000
0.007843 0.164706 0.000000
0.011765 0.164706 0.000000
0.019608 0.164706 0.000000
0.027451 0.164706 0.000000
0.043137 0.164706 0.000000
0.058824 0.164706 0.000000
0.164706 0.164706 0.000000
0.407843 0.164706 0.000000
0.462745 0.164706 0.000000
0.513725 0.164706 0.000000
0.560784 0.164706 0.000000
0.607843 0.164706 0.000000
0.647059 0.164706 0.000000
0.694118 0.164706 0.000000
0.737255 0.164706 0.000000
0.772549 0.164706 0.000000
0.815686 0.164706 0.000000
0.854902 0.164706 0.000000
0.890196 0.164706 0.000000
0.925490 0.164706 0.000000
0.960784 0.164706 0.000000
1.000000 0.164706 0.000000
0.000000 0.407843 0.000000
0.000000 0.407843 0.000000
0.003922 0.407843 0.000000
0.007843 0.407843 0.000000
0.011765 0.407843 0.000000
0.019608 0.407843 0.000000
0.027451 0.407843 0.000000
0.043137 0.407843 0.000000
0.058824 0.407843 0.000000
