LUTs/Damaging/LUT_EXPOSURE/over_exposed.cube
#Generated by lutCreator.js
#Coded by SirSerch
#https://github.com/SirSerch/LutCreatorJs
TITLE lutCreatorJs_25
LUT_3D_SIZE 9
0.000000 0.000000 0.000000
0.239216 0.000000 0.000000
0.443137 0.000000 0.000000
0.647059 0.000000 0.000000
0.850980 0.000000 0.000000
1.000000 0.000000 0.000000
1.000000 0.000000 0.000000
1.000000 0.000000 0.000000
1.000000 0.000000 0.000000
0.000000 0.239216 0.000000
0.239216 0.239216 0.000000
0.443137 0.239216 0.000000
0.647059 0.239216 0.000000
0.850980 0.239216 0.000000
1.000000 0.239216 0.000000
1.000000 0.239216 0.000000
1.000000 0.239216 0.000000
1.000000 0.239216 0.000000
0.000000 0.443137 0.000000
0.239216 0.443137 0.000000
0.443137 0.443137 0.000000
0.647059 0.443137 0.000000
0.850980 0.443137 0.000000
1.000000 0.443137 0.000000
1.000000 0.443137 0.000000
1.000000 0.443137 0.000000
1.000000 0.443137 0.000000
0.000000 0.647059 0.000000
0.239216 0.647059 0.000000
0.443137 0.647059 0.000000
0.647059 0.647059 0.000000
0.850980 0.647059 0.000000
1.000000 0.647059 0.000000
1.000000 0.647059 0.000000
1.000000 0.647059 0.000000
1.000000 0.647059 0.000000
0.000000 0.850980 0.000000
0.239216 0.850980 0.000000
0.443137 0.850980 0.000000
0.647059 0.850980 0.000000
0.850980 0.850980 0.000000
1.000000 0.850980 0.000000
1.000000 0.850980 0.000000
1.000000 0.850980 0.000000
1.000000 0.850980 0.000000
0.000000 1.000000 0.000000
0.239216 1.000000 0.000000
0.443137 1.000000 0.000000
0.647059 1.000000 0.000000
0.850980 1.000000 0.000000
1.000000 1.000000 0.000000
1.000000 1.000000 0.000000
1.000000 1.000000 0.000000
1.000000 1.000000 0.000000
0.000000 1.000000 0.000000
0.239216 1.000000 0.000000
0.443137 1.000000 0.000000
0.647059 1.000000 0.000000
0.850980 1.000000 0.000000
1.000000 1.000000 0.000000
1.000000 1.000000 0.000000
1.000000 1.000000 0.000000
1.000000 1.000000 0.000000
0.000000 1.000000 0.000000
0.239216 1.000000 0.000000
0.443137 1.000000 0.000000
0.647059 1.000000 0.000000
0.850980 1.000000 0.000000
1.000000 1.000000 0.000000
1.000000 1.000000 0.000000
1.000000 1.000000 0.000000
1.000000 1.000000 0.000000
0.000000 1.000000 0.000000
0.239216 1.000000 0.000000
0.443137 1.000000 0.000000
0.647059 1.000000 0.000000
0.850980 1.000000 0.000000
1.000000 1.000000 0.000000
1.000000 1.000000 0.000000
1.000000 1.000000 0.000000
1.000000 1.000000 0.000000
0.000000 0.000000 0.239216
0.239216 0.000000 0.239216
0.443137 0.000000 0.239216
0.647059 0.000000 0.239216
0.850980 0.000000 0.239216
1.000000 0.000000 0.239216
1.000000 0.000000 0.239216
1.000000 0.000000 0.239216
1.000000 0.000000 0.239216
0.000000 0.239216 0.239216
0.239216 0.239216 0.239216
0.443137 0.239216 0.239216
0.647059 0.239216 0.239216
0.850980 0.239216 0.239216
1.000000 0.239216 0.239216
1.000000 0.239216 0.239216
1.000000 0.239216 0.239216
1.000000 0.239216 0.239216
0.000000 0.443137 0.239216
0.239216 0.443137 0.239216
0.443137 0.443137 0.239216
0.647059 0.443137 0.239216
0.850980 0.443137 0.239216
1.000000 0.443137 0.239216
1.000000 0.443137 0.239216
1.000000 0.443137 0.239216
1.000000 0.443137 0.239216
0.000000 0.647059 0.239216
0.239216 0.647059 0.239216
0.443137 0.647059 0.239216
0.647059 0.647059 0.239216
0.850980 0.647059 0.239216
1.000000 0.647059 0.239216
1.000000 0.647059 0.239216
1.000000 0.647059 0.239216
1.000000 0.647059 0.239216
0.000000 0.850980 0.239216
0.239216 0.850980 0.239216
0.443137 0.850980 0.239216
0.647059 0.850980 0.239216
0.850980 0.850980 0.239216
1.000000 0.850980 0.239216
1.000000 0.850980 0.239216
1.000000 0.850980 0.239216
1.000000 0.850980 0.239216
0.000000 1.000000 0.239216
0.239216 1.000000 0.239216
0.443137 1.000000 0.239216
0.647059 1.000000 0.239216
0.850980 1.000000 0.239216
1.000000 1.000000 0.239216
1.000000 1.000000 0.239216
1.000000 1.000000 0.239216
1.000000 1.000000 0.239216
0.000000 1.000000 0.239216
0.239216 1.000000 0.239216
0.443137 1.000000 0.239216
0.647059 1.000000 0.239216
0.850980 1.000000 0.239216
1.000000 1.000000 0.239216
1.000000 1.000000 0.239216
1.000000 1.000000 0.239216
1.000000 1.000000 0.239216
0.000000 1.000000 0.239216
0.239216 1.000000 0.239216
0.443137 1.000000 0.239216
0.647059 1.000000 0.239216
0.850980 1.000000 0.239216
1.000000 1.000000 0.239216
1.000000 1.000000 0.239216
1.000000 1.000000 0.239216
1.000000 1.000000 0.239216
0.000000 1.000000 0.239216
0.239216 1.000000 0.239216
0.443137 1.000000 0.239216
0.647059 1.000000 0.239216
0.850980 1.000000 0.239216
1.000000 1.000000 0.239216
1.000000 1.000000 0.239216
1.000000 1.000000 0.239216
1.000000 1.000000 0.239216
0.000000 0.000000 0.443137
0.239216 0.000000 0.443137
0.443137 0.000000 0.443137
0.647059 0.000000 0.443137
0.850980 0.000000 0.443137
1.000000 0.000000 0.443137
1.000000 0.000000 0.443137
1.000000 0.000000 0.443137
1.000000 0.000000 0.443137
0.000000 0.239216 0.443137
0.239216 0.239216 0.443137
0.443137 0.239216 0.443137
0.647059 0.239216 0.443137
0.850980 0.239216 0.443137
1.000000 0.239216 0.443137
1.000000 0.239216 0.443137
1.000000 0.239216 0.443137
1.000000 0.239216 0.443137
0.000000 0.443137 0.443137
0.239216 0.443137 0.443137
0.443137 0.443137 0.443137
0.647059 0.443137 0.443137
0.850980 0.443137 0.443137
1.000000 0.443137 0.443137
1.000000 0.443137 0.443137
1.000000 0.443137 0.443137
1.000000 0.443137 0.443137
0.000000 0.647059 0.443137
0.239216 0.647059 0.443137
0.443137 0.647059 0.443137
0.647059 0.647059 0.443137
0.850980 0.647059 0.443137
1.000000 0.647059 0.443137
1.000000 0.647059 0.443137
1.000000 0.647059 0.443137
1.000000 0.647059 0.443137
0.000000 0.850980 0.443137
0.239216 0.850980 0.443137
0.443137 0.850980 0.443137
0.647059 0.850980 0.443137
0.850980 0.850980 0.443137
1.000000 0.850980 0.443137
1.000000 0.850980 0.443137
1.000000 0.850980 0.443137
1.000000 0.850980 0.443137
0.000000 1.000000 0.443137
0.239216 1.000000 0.443137
0.443137 1.000000 0.443137
0.647059 1.000000 0.443137
0.850980 1.000000 0.443137
1.000000 1.000000 0.443137
1.000000 1.000000 0.443137
1.000000 1.000000 0.443137
1.000000 1.000000 0.443137
0.000000 1.000000 0.443137
0.239216 1.000000 0.443137
0.443137 1.000000 0.443137
0.647059 1.000000 0.443137
0.850980 1.000000 0.443137
1.000000 1.000000 0.443137
1.000000 1.000000 0.443137
1.000000 1.000000 0.443137
1.000000 1.000000 0.443137
0.000000 1.000000 0.443137
0.239216 1.000000 0.443137
0.443137 1.000000 0.443137
0.647059 1.000000 0.443137
0.850980 1.000000 0.443137
1.000000 1.000000 0.443137
1.000000 1.000000 0.443137
1.000000 1.000000 0.443137
1.000000 1.000000 0.443137
0.000000 1.000000 0.443137
0.239216 1.000000 0.443137
0.443137 1.000000 0.443137
0.647059 1.000000 0.443137
0.850980 1.000000 0.443137
1.000000 1.000000 0.443137
1.000000 1.000000 0.443137
1.000000 1.000000 0.443137
1.000000 1.000000 0.443137
0.000000 0.000000 0.647059
0.239216 0.000000 0.647059
0.443137 0.000000 0.647059
0.647059 0.000000 0.647059
0.850980 0.000000 0.647059
1.000000 0.000000 0.647059
1.000000 0.000000 0.647059
1.000000 0.000000 0.647059
1.000000 0.000000 0.647059
0.000000 0.239216 0.647059
0.239216 0.239216 0.647059
0.443137 0.239216 0.647059
0.647059 0.239216 0.647059
0.850980 0.239216 0.647059
1.000000 0.239216 0.647059
1.000000 0.239216 0.647059
1.000000 0.239216 0.647059
1.000000 0.239216 0.647059
0.000000 0.443137 0.647059
0.239216 0.443137 0.647059
0.443137 0.443137 0.647059
0.647059 0.443137 0.647059
0.850980 0.443137 0.647059
1.000000 0.443137 0.647059
1.000000 0.443137 0.647059
1.000000 0.443137 0.647059
1.000000 0.443137 0.647059
0.000000 0.647059 0.647059
0.239216 0.647059 0.647059
0.443137 0.647059 0.647059
0.647059 0.647059 0.647059
0.850980 0.647059 0.647059
1.000000 0.647059 0.647059
1.000000 0.647059 0.647059
1.000000 0.647059 0.647059
1.000000 0.647059 0.647059
0.000000 0.850980 0.647059
0.239216 0.850980 0.647059
0.443137 0.850980 0.647059
0.647059 0.850980 0.647059
0.850980 0.850980 0.647059
1.000000 0.850980 0.647059
1.000000 0.850980 0.647059
1.000000 0.850980 0.647059
1.000000 0.850980 0.647059
0.000000 1.000000 0.647059
0.239216 1.000000 0.647059
0.443137 1.000000 0.647059
0.647059 1.000000 0.647059
0.850980 1.000000 0.647059
1.000000 1.000000 0.647059
1.000000 1.000000 0.647059
1.000000 1.000000 0.647059
1.000000 1.000000 0.647059
0.000000 1.000000 0.647059
0.239216 1.000000 0.647059
0.443137 1.000000 0.647059
0.647059 1.000000 0.647059
0.850980 1.000000 0.647059
1.000000 1.000000 0.647059
1.000000 1.000000 0.647059
1.000000 1.000000 0.647059
1.000000 1.000000 0.647059
0.000000 1.000000 0.647059
0.239216 1.000000 0.647059
0.443137 1.000000 0.647059
0.647059 1.000000 0.647059
0.850980 1.000000 0.647059
1.000000 1.000000 0.647059
1.000000 1.000000 0.647059
1.000000 1.000000 0.647059
1.000000 1.000000 0.647059
0.000000 1.000000 0.647059
0.239216 1.000000 0.647059
0.443137 1.000000 0.647059
0.647059 1.000000 0.647059
0.850980 1.000000 0.647059
1.000000 1.000000 0.647059
1.000000 1.000000 0.647059
1.000000 1.000000 0.647059
1.000000 1.000000 0.647059
0.000000 0.000000 0.850980
0.239216 0.000000 0.850980
0.443137 0.000000 0.850980
0.647059 0.000000 0.850980
0.850980 0.000000 0.850980
1.000000 0.000000 0.850980
1.000000 0.000000 0.850980
1.000000 0.000000 0.850980
1.000000 0.000000 0.850980
0.000000 0.239216 0.850980
0.239216 0.239216 0.850980
0.443137 0.239216 0.850980
0.647059 0.239216 0.850980
0.850980 0.239216 0.850980
1.000000 0.239216 0.850980
1.000000 0.239216 0.850980
1.000000 0.239216 0.850980
1.000000 0.239216 0.850980
0.000000 0.443137 0.850980
0.239216 0.443137 0.850980
0.443137 0.443137 0.850980
0.647059 0.443137 0.850980
0.850980 0.443137 0.850980
1.000000 0.443137 0.850980
1.000000 0.443137 0.850980
1.000000 0.443137 0.850980
1.000000 0.443137 0.850980
0.000000 0.647059 0.850980
0.239216 0.647059 0.850980
0.443137 0.647059 0.850980
0.647059 0.647059 0.850980
0.850980 0.647059 0.850980
1.000000 0.647059 0.850980
1.000000 0.647059 0.850980
1.000000 0.647059 0.850980
1.000000 0.647059 0.850980
0.000000 0.850980 0.850980
0.239216 0.850980 0.850980
0.443137 0.850980 0.850980
0.647059 0.850980 0.850980
0.850980 0.850980 0.850980
1.000000 0.850980 0.850980
1.000000 0.850980 0.850980
1.000000 0.850980 0.850980
1.000000 0.850980 0.850980
0.000000 1.000000 0.850980
0.239216 1.000000 0.850980
0.443137 1.000000 0.850980
0.647059 1.000000 0.850980
0.850980 1.000000 0.850980
1.000000 1.000000 0.850980
1.000000 1.000000 0.850980
1.000000 1.000000 0.850980
1.000000 1.000000 0.850980
0.000000 1.000000 0.850980
0.239216 1.000000 0.850980
0.443137 1.000000 0.850980
0.647059 1.000000 0.850980
0.850980 1.000000 0.850980
1.000000 1.000000 0.850980
1.000000 1.000000 0.850980
1.000000 1.000000 0.850980
1.000000 1.000000 0.850980
0.000000 1.000000 0.850980
0.239216 1.000000 0.850980
0.443137 1.000000 0.850980
0.647059 1.000000 0.850980
0.850980 1.000000 0.850980
1.000000 1.000000 0.850980
1.000000 1.000000 0.850980
1.000000 1.000000 0.850980
1.000000 1.000000 0.850980
0.000000 1.000000 0.850980
0.239216 1.000000 0.850980
0.443137 1.000000 0.850980
0.647059 1.000000 0.850980
0.850980 1.000000 0.850980
1.000000 1.000000 0.850980
1.000000 1.000000 0.850980
1.000000 1.000000 0.850980
1.000000 1.000000 0.850980
0.000000 0.000000 1.000000
0.239216 0.000000 1.000000
0.443137 0.000000 1.000000
0.647059 0.000000 1.000000
0.850980 0.000000 1.000000
1.000000 0.000000 1.000000
1.000000 0.000000 1.000000
1.000000 0.000000 1.000000
1.000000 0.000000 1.000000
0.000000 0.239216 1.000000
0.239216 0.239216 1.000000
0.443137 0.239216 1.000000
0.647059 0.239216 1.000000
0.850980 0.239216 1.000000
1.000000 0.239216 1.000000
1.000000 0.239216 1.000000
1.000000 0.239216 1.000000
1.000000 0.239216 1.000000
0.000000 0.443137 1.000000
0.239216 0.443137 1.000000
0.443137 0.443137 1.000000
0.647059 0.443137 1.000000
0.850980 0.443137 1.000000
1.000000 0.443137 1.000000
1.000000 0.443137 1.000000
1.000000 0.443137 1.000000
1.000000 0.443137 1.000000
0.000000 0.647059 1.000000
0.239216 0.647059 1.000000
0.443137 0.647059 1.000000
0.647059 0.647059 1.000000
0.850980 0.647059 1.000000
1.000000 0.647059 1.000000
1.000000 0.647059 1.000000
1.000000 0.647059 1.000000
1.000000 0.647059 1.000000
0.000000 0.850980 1.000000
0.239216 0.850980 1.000000
0.443137 0.850980 1.000000
0.647059 0.850980 1.000000
0.850980 0.850980 1.000000
1.000000 0.850980 1.000000
1.000000 0.850980 1.000000
1.000000 0.850980 1.000000
1.000000 0.850980 1.000000
0.000000 1.000000 1.000000
0.239216 1.000000 1.000000
0.443137 1.000000 1.000000
0.647059 1.000000 1.000000
0.850980 1.000000 1.000000
1.000000 1.000000 1.000000
1.000000 1.000000 1.000000
1.000000 1.000000 1.000000
1.000000 1.000000 1.000000
0.000000 1.000000 1.000000
0.239216 1.000000 1.000000
0.443137 1.000000 1.000000
0.647059 1.000000 1.000000
0.850980 1.000000 1.000000
1.000000 1.000000 1.000000
1.000000 1.000000 1.000000
1.000000 1.000000 1.000000
1.000000 1.000000 1.000000
0.000000 1.000000 1.000000
0.239216 1.000000 1.000000
0.443137 1.000000 1.000000
0.647059 1.000000 1.000000
0.850980 1.000000 1.000000
1.000000 1.000000 1.000000
1.000000 1.000000 1.000000
1.000000 1.000000 1.000000
1.000000 1.000000 1.000000
0.000000 1.000000 1.000000
0.239216 1.000000 1.000000
0.443137 1.000000 1.000000
0.647059 1.000000 1.000000
0.850980 1.000000 1.000000
1.000000 1.000000 1.000000
1.000000 1.000000 1.000000
1.000000 1.000000 1.000000
1.000000 1.000000 1.000000
0.000000 0.000000 1.000000
0.239216 0.000000 1.000000
0.443137 0.000000 1.000000
0.647059 0.000000 1.000000
0.850980 0.000000 1.000000
1.000000 0.000000 1.000000
1.000000 0.000000 1.000000
1.000000 0.000000 1.000000
1.000000 0.000000 1.000000
0.000000 0.239216 1.000000
0.239216 0.239216 1.000000
0.443137 0.239216 1.000000
0.647059 0.239216 1.000000
0.850980 0.239216 1.000000
1.000000 0.239216 1.000000
1.000000 0.239216 1.000000
1.000000 0.239216 1.000000
1.000000 0.239216 1.000000
0.000000 0.443137 1.000000
0.239216 0.443137 1.000000
0.443137 0.443137 1.000000
0.647059 0.443137 1.000000
0.850980 0.443137 1.000000
1.000000 0.443137 1.000000
1.000000 0.443137 1.000000
1.000000 0.443137 1.000000
1.000000 0.443137 1.000000
0.000000 0.647059 1.000000
0.239216 0.647059 1.000000
0.443137 0.647059 1.000000
0.647059 0.647059 1.000000
0.850980 0.647059 1.000000
1.000000 0.647059 1.000000
1.000000 0.647059 1.000000
1.000000 0.647059 1.000000
1.000000 0.647059 1.000000
0.000000 0.850980 1.000000
0.239216 0.850980 1.000000
0.443137 0.850980 1.000000
0.647059 0.850980 1.000000
0.850980 0.850980 1.000000
1.000000 0.850980 1.000000
1.000000 0.850980 1.000000
1.000000 0.850980 1.000000
1.000000 0.850980 1.000000
0.000000 1.000000 1.000000
0.239216 1.000000 1.000000
0.443137 1.000000 1.000000
0.647059 1.000000 1.000000
0.850980 1.000000 1.000000
1.000000 1.000000 1.000000
1.000000 1.000000 1.000000
1.000000 1.000000 1.000000
1.000000 1.000000 1.000000
0.000000 1.000000 1.000000
0.239216 1.000000 1.000000
0.443137 1.000000 1.000000
0.647059 1.000000 1.000000
0.850980 1.000000 1.000000
1.000000 1.000000 1.000000
1.000000 1.000000 1.000000
1.000000 1.000000 1.000000
1.000000 1.000000 1.000000
0.000000 1.000000 1.000000
0.239216 1.000000 1.000000
0.443137 1.000000 1.000000
0.647059 1.000000 1.000000
0.850980 1.000000 1.000000
1.000000 1.000000 1.000000
1.000000 1.000000 1.000000
1.000000 1.000000 1.000000
1.000000 1.000000 1.000000
0.000000 1.000000 1.000000
0.239216 1.000000 1.000000
0.443137 1.000000 1.000000
0.647059 1.000000 1.000000
0.850980 1.000000 1.000000
1.000000 1.000000 1.000000
1.000000 1.000000 1.000000
1.000000 1.000000 1.000000
1.000000 1.000000 1.000000
0.000000 0.000000 1.000000
0.239216 0.000000 1.000000
0.443137 0.000000 1.000000
0.647059 0.000000 1.000000
0.850980 0.000000 1.000000
1.000000 0.000000 1.000000
1.000000 0.000000 1.000000
1.000000 0.000000 1.000000
1.000000 0.000000 1.000000
0.000000 0.239216 1.000000
0.239216 0.239216 1.000000
0.443137 0.239216 1.000000
0.647059 0.239216 1.000000
0.850980 0.239216 1.000000
1.000000 0.239216 1.000000
1.000000 0.239216 1.000000
1.000000 0.239216 1.000000
1.000000 0.239216 1.000000
0.000000 0.443137 1.000000
0.239216 0.443137 1.000000
0.443137 0.443137 1.000000
0.647059 0.443137 1.000000
0.850980 0.443137 1.000000
1.000000 0.443137 1.000000
1.000000 0.443137 1.000000
1.000000 0.443137 1.000000
1.000000 0.443137 1.000000
0.000000 0.647059 1.000000
0.239216 0.647059 1.000000
0.443137 0.647059 1.000000
0.647059 0.647059 1.000000
0.850980 0.647059 1.000000
1.000000 0.647059 1.000000
1.000000 0.647059 1.000000
1.000000 0.647059 1.000000
1.000000 0.647059 1.000000
0.000000 0.850980 1.000000
0.239216 0.850980 1.000000
0.443137 0.850980 1.000000
0.647059 0.850980 1.000000
0.850980 0.850980 1.000000
1.000000 0.850980 1.000000
1.000000 0.850980 1.000000
1.000000 0.850980 1.000000
1.000000 0.850980 1.000000
0.000000 1.000000 1.000000
0.239216 1.000000 1.000000
0.443137 1.000000 1.000000
0.647059 1.000000 1.000000
0.850980 1.000000 1.000000
1.000000 1.000000 1.000000
1.000000 1.000000 1.000000
1.000000 1.000000 1.000000
1.000000 1.000000 1.000000
0.000000 1.000000 1.000000
0.239216 1.000000 1.000000
0.443137 1.000000 1.000000
0.647059 1.000000 1.000000
0.850980 1.000000 1.000000
1.000000 1.000000 1.000000
1.000000 1.000000 1.000000
1.000000 1.000000 1.000000
1.000000 1.000000 1.000000
0.000000 1.000000 1.000000
0.239216 1.000000 1.000000
0.443137 1.000000 1.000000
0.647059 1.000000 1.000000
0.850980 1.000000 1.000000
1.000000 1.000000 1.000000
1.000000 1.000000 1.000000
1.000000 1.000000 1.000000
1.000000 1.000000 1.000000
0.000000 1.000000 1.000000
0.239216 1.000000 1.000000
0.443137 1.000000 1.000000
0.647059 1.000000 1.000000
0.850980 1.000000 1.000000
1.000000 1.000000 1.000000
1.000000 1.000000 1.000000
1.000000 1.000000 1.000000
1.000000 1.000000 1.000000
0.000000 0.000000 1.000000
0.239216 0.000000 1.000000
0.443137 0.000000 1.000000
0.647059 0.000000 1.000000
0.850980 0.000000 1.000000
1.000000 0.000000 1.000000
1.000000 0.000000 1.000000
1.000000 0.000000 1.000000
1.000000 0.000000 1.000000
0.000000 0.239216 1.000000
0.239216 0.239216 1.000000
0.443137 0.239216 1.000000
0.647059 0.239216 1.000000
0.850980 0.239216 1.000000
1.000000 0.239216 1.000000
1.000000 0.239216 1.000000
1.000000 0.239216 1.000000
1.000000 0.239216 1.000000
0.000000 0.443137 1.000000
0.239216 0.443137 1.000000
0.443137 0.443137 1.000000
0.647059 0.443137 1.000000
0.850980 0.443137 1.000000
1.000000 0.443137 1.000000
1.000000 0.443137 1.000000
1.000000 0.443137 1.000000
1.000000 0.443137 1.000000
0.000000 0.647059 1.000000
0.239216 0.647059 1.000000
0.443137 0.647059 1.000000
0.647059 0.647059 1.000000
0.850980 0.647059 1.000000
1.000000 0.647059 1.000000
1.000000 0.647059 1.000000
1.000000 0.647059 1.000000
1.000000 0.647059 1.000000
0.000000 0.850980 1.000000
0.239216 0.850980 1.000000
0.443137 0.850980 1.000000
0.647059 0.850980 1.000000
0.850980 0.850980 1.000000
1.000000 0.850980 1.000000
1.000000 0.850980 1.000000
1.000000 0.850980 1.000000
1.000000 0.850980 1.000000
0.000000 1.000000 1.000000
0.239216 1.000000 1.000000
0.443137 1.000000 1.000000
0.647059 1.000000 1.000000
0.850980 1.000000 1.000000
1.000000 1.000000 1.000000
1.000000 1.000000 1.000000
1.000000 1.000000 1.000000
1.000000 1.000000 1.000000
0.000000 1.000000 1.000000
0.239216 1.000000 1.000000
0.443137 1.000000 1.000000
0.647059 1.000000 1.000000
0.850980 1.000000 1.000000
1.000000 1.000000 1.000000
1.000000 1.000000 1.000000
1.000000 1.000000 1.000000
1.000000 1.000000 1.000000
0.000000 1.000000 1.000000
0.239216 1.000000 1.000000
0.443137 1.000000 1.000000
0.647059 1.000000 1.000000
0.850980 1.000000 1.000000
1.000000 1.000000 1.000000
1.000000 1.000000 1.000000
1.000000 1.000000 1.000000
1.000000 1.000000 1.000000
0.000000 1.000000 1.000000
0.239216 1.000000 1.000000
0.443137 1.000000 1.000000
0.647059 1.000000 1.000000
0.850980 1.000000 1.000000
1.000000 1.000000 1.000000
1.000000 1.000000 1.000000
1.000000 1.000000 1.000000
1.000000 1.000000 1.000000
