LUTs/Damaging/LUT_EXPOSURE/over_exposed.cube
#Generated by lutCreator.js
#Coded by SirSerch
#https://github.com/SirSerch/LutCreatorJs
TITLE lutCreatorJs_25
LUT_3D_SIZE 25
0.000000 0.000000 0.000000
0.105882 0.000000 0.000000
0.168627 0.000000 0.000000
0.239216 0.000000 0.000000
0.309804 0.000000 0.000000
0.372549 0.000000 0.000000
0.443137 0.000000 0.000000
0.505882 0.000000 0.000000
0.576471 0.000000 0.000000
0.647059 0.000000 0.000000
0.709804 0.000000 0.000000
0.780392 0.000000 0.000000
0.850980 0.000000 0.000000
0.913725 0.000000 0.000000
0.984314 0.000000 0.000000
1.000000 0.000000 0.000000
1.000000 0.000000 0.000000
1.000000 0.000000 0.000000
1.000000 0.000000 0.000000
1.000000 0.000000 0.000000
1.000000 0.000000 0.000000
1.000000 0.000000 0.000000
1.000000 0.000000 0.000000
1.000000 0.000000 0.000000
1.000000 0.000000 0.000000
0.000000 0.105882 0.000000
0.105882 0.105882 0.000000
0.168627 0.105882 0.000000
0.239216 0.105882 0.000000
0.309804 0.105882 0.000000
0.372549 0.105882 0.000000
0.443137 0.105882 0.000000
0.505882 0.105882 0.000000
0.576471 0.105882 0.000000
0.647059 0.105882 0.000000
0.709804 0.105882 0.000000
0.780392 0.105882 0.000000
0.850980 0.105882 0.000000
0.913725 0.105882 0.000000
0.984314 0.105882 0.000000
1.000000 0.105882 0.000000
1.000000 0.105882 0.000000
1.000000 0.105882 0.000000
1.000000 0.105882 0.000000
1.000000 0.105882 0.000000
1.000000 0.105882 0.000000
1.000000 0.105882 0.000000
1.000000 0.105882 0.000000
1.000000 0.105882 0.000000
1.000000 0.105882 0.000000
0.000000 0.168627 0.000000
0.105882 0.168627 0.000000
0.168627 0.168627 0.000000
0.239216 0.168627 0.000000
0.309804 0.168627 0.000000
0.372549 0.168627 0.000000
0.443137 0.168627 0.000000
0.505882 0.168627 0.000000
0.576471 0.168627 0.000000
0.647059 0.168627 0.000000
0.709804 0.168627 0.000000
0.780392 0.168627 0.000000
0.850980 0.168627 0.000000
0.913725 0.168627 0.000000
0.984314 0.168627 0.000000
1.000000 0.168627 0.000000
1.000000 0.168627 0.000000
1.000000 0.168627 0.000000
1.000000 0.168627 0.000000
1.000000 0.168627 0.000000
1.000000 0.168627 0.000000
1.000000 0.168627 0.000000
1.000000 0.168627 0.000000
1.000000 0.168627 0.000000
1.000000 0.168627 0.000000
0.000000 0.239216 0.000000
0.105882 0.239216 0.000000
0.168627 0.239216 0.000000
0.239216 0.239216 0.000000
0.309804 0.239216 0.000000
0.372549 0.239216 0.000000
0.443137 0.239216 0.000000
0.505882 0.239216 0.000000
0.576471 0.239216 0.000000
0.647059 0.239216 0.000000
0.709804 0.239216 0.000000
0.780392 0.239216 0.000000
0.850980 0.239216 0.000000
0.913725 0.239216 0.000000
0.984314 0.239216 0.000000
1.000000 0.239216 0.000000
1.000000 0.239216 0.000000
1.000000 0.239216 0.000000
1.000000 0.239216 0.000000
1.000000 0.239216 0.000000
1.000000 0.239216 0.000000
1.000000 0.239216 0.000000
1.000000 0.239216 0.000000
1.000000 0.239216 0.000000
1.000000 0.239216 0.000000
0.000000 0.309804 0.000000
0.105882 0.309804 0.000000
0.168627 0.309804 0.000000
0.239216 0.309804 0.000000
0.309804 0.309804 0.000000
0.372549 0.309804 0.000000
0.443137 0.309804 0.000000
0.505882 0.309804 0.000000
0.576471 0.309804 0.000000
0.647059 0.309804 0.000000
0.709804 0.309804 0.000000
0.780392 0.309804 0.000000
0.850980 0.309804 0.000000
0.913725 0.309804 0.000000
0.984314 0.309804 0.000000
1.000000 0.309804 0.000000
1.000000 0.309804 0.000000
1.000000 0.309804 0.000000
1.000000 0.309804 0.000000
1.000000 0.309804 0.000000
1.000000 0.309804 0.000000
1.000000 0.309804 0.000000
1.000000 0.309804 0.000000
1.000000 0.309804 0.000000
1.000000 0.309804 0.000000
0.000000 0.372549 0.000000
0.105882 0.372549 0.000000
0.168627 0.372549 0.000000
0.239216 0.372549 0.000000
0.309804 0.372549 0.000000
0.372549 0.372549 0.000000
0.443137 0.372549 0.000000
0.505882 0.372549 0.000000
0.576471 0.372549 0.000000
0.647059 0.372549 0.000000
0.709804 0.372549 0.000000
0.780392 0.372549 0.000000
0.850980 0.372549 0.000000
0.913725 0.372549 0.000000
0.984314 0.372549 0.000000
1.000000 0.372549 0.000000
1.000000 0.372549 0.000000
1.000000 0.372549 0.000000
1.000000 0.372549 0.000000
1.000000 0.372549 0.000000
1.000000 0.372549 0.000000
1.000000 0.372549 0.000000
1.000000 0.372549 0.000000
1.000000 0.372549 0.000000
1.000000 0.372549 0.000000
0.000000 0.443137 0.000000
0.105882 0.443137 0.000000
0.168627 0.443137 0.000000
0.239216 0.443137 0.000000
0.309804 0.443137 0.000000
0.372549 0.443137 0.000000
0.443137 0.443137 0.000000
0.505882 0.443137 0.000000
0.576471 0.443137 0.000000
0.647059 0.443137 0.000000
0.709804 0.443137 0.000000
0.780392 0.443137 0.000000
0.850980 0.443137 0.000000
0.913725 0.443137 0.000000
0.984314 0.443137 0.000000
1.000000 0.443137 0.000000
1.000000 0.443137 0.000000
1.000000 0.443137 0.000000
1.000000 0.443137 0.000000
1.000000 0.443137 0.000000
1.000000 0.443137 0.000000
1.000000 0.443137 0.000000
1.000000 0.443137 0.000000
1.000000 0.443137 0.000000
1.000000 0.443137 0.000000
0.000000 0.505882 0.000000
0.105882 0.505882 0.000000
0.168627 0.505882 0.000000
0.239216 0.505882 0.000000
0.309804 0.505882 0.000000
0.372549 0.505882 0.000000
0.443137 0.505882 0.000000
0.505882 0.505882 0.000000
0.576471 0.505882 0.000000
0.647059 0.505882 0.000000
0.709804 0.505882 0.000000
0.780392 0.505882 0.000000
0.850980 0.505882 0.000000
0.913725 0.505882 0.000000
0.984314 0.505882 0.000000
1.000000 0.505882 0.000000
1.000000 0.505882 0.000000
1.000000 0.505882 0.000000
1.000000 0.505882 0.000000
1.000000 0.505882 0.000000
1.000000 0.505882 0.000000
1.000000 0.505882 0.000000
1.000000 0.505882 0.000000
1.000000 0.505882 0.000000
1.000000 0.505882 0.000000
0.000000 0.576471 0.000000
0.105882 0.576471 0.000000
0.168627 0.576471 0.000000
0.239216 0.576471 0.000000
0.309804 0.576471 0.000000
0.372549 0.576471 0.000000
0.443137 0.576471 0.000000
0.505882 0.576471 0.000000
0.576471 0.576471 0.000000
0.647059 0.576471 0.000000
0.709804 0.576471 0.000000
0.780392 0.576471 0.000000
0.850980 0.576471 0.000000
0.913725 0.576471 0.000000
0.984314 0.576471 0.000000
1.000000 0.576471 0.000000
1.000000 0.576471 0.000000
1.000000 0.576471 0.000000
1.000000 0.576471 0.000000
1.000000 0.576471 0.000000
1.000000 0.576471 0.000000
1.000000 0.576471 0.000000
1.000000 0.576471 0.000000
1.000000 0.576471 0.000000
1.000000 0.576471 0.000000
0.000000 0.647059 0.000000
0.105882 0.647059 0.000000
0.168627 0.647059 0.000000
0.239216 0.647059 0.000000
0.309804 0.647059 0.000000
0.372549 0.647059 0.000000
0.443137 0.647059 0.000000
0.505882 0.647059 0.000000
0.576471 0.647059 0.000000
0.647059 0.647059 0.000000
0.709804 0.647059 0.000000
0.780392 0.647059 0.000000
0.850980 0.647059 0.000000
0.913725 0.647059 0.000000
0.984314 0.647059 0.000000
1.000000 0.647059 0.000000
1.000000 0.647059 0.000000
1.000000 0.647059 0.000000
1.000000 0.647059 0.000000
1.000000 0.647059 0.000000
1.000000 0.647059 0.000000
1.000000 0.647059 0.000000
1.000000 0.647059 0.000000
1.000000 0.647059 0.000000
1.000000 0.647059 0.000000
0.000000 0.709804 0.000000
0.105882 0.709804 0.000000
0.168627 0.709804 0.000000
0.239216 0.709804 0.000000
0.309804 0.709804 0.000000
0.372549 0.709804 0.000000
0.443137 0.709804 0.000000
0.505882 0.709804 0.000000
0.576471 0.709804 0.000000
0.647059 0.709804 0.000000
0.709804 0.709804 0.000000
0.780392 0.709804 0.000000
0.850980 0.709804 0.000000
0.913725 0.709804 0.000000
0.984314 0.709804 0.000000
1.000000 0.709804 0.000000
1.000000 0.709804 0.000000
1.000000 0.709804 0.000000
1.000000 0.709804 0.000000
1.000000 0.709804 0.000000
1.000000 0.709804 0.000000
1.000000 0.709804 0.000000
1.000000 0.709804 0.000000
1.000000 0.709804 0.000000
1.000000 0.709804 0.000000
0.000000 0.780392 0.000000
0.105882 0.780392 0.000000
0.168627 0.780392 0.000000
0.239216 0.780392 0.000000
0.309804 0.780392 0.000000
0.372549 0.780392 0.000000
0.443137 0.780392 0.000000
0.505882 0.780392 0.000000
0.576471 0.780392 0.000000
0.647059 0.780392 0.000000
0.709804 0.780392 0.000000
0.780392 0.780392 0.000000
0.850980 0.780392 0.000000
0.913725 0.780392 0.000000
0.984314 0.780392 0.000000
1.000000 0.780392 0.000000
1.000000 0.780392 0.000000
1.000000 0.780392 0.000000
1.000000 0.780392 0.000000
1.000000 0.780392 0.000000
1.000000 0.780392 0.000000
1.000000 0.780392 0.000000
1.000000 0.780392 0.000000
1.000000 0.780392 0.000000
1.000000 0.780392 0.000000
0.000000 0.850980 0.000000
0.105882 0.850980 0.000000
0.168627 0.850980 0.000000
0.239216 0.850980 0.000000
0.309804 0.850980 0.000000
0.372549 0.850980 0.000000
0.443137 0.850980 0.000000
0.505882 0.850980 0.000000
0.576471 0.850980 0.000000
0.647059 0.850980 0.000000
0.709804 0.850980 0.000000
0.780392 0.850980 0.000000
0.850980 0.850980 0.000000
0.913725 0.850980 0.000000
0.984314 0.850980 0.000000
1.000000 0.850980 0.000000
1.000000 0.850980 0.000000
1.000000 0.850980 0.000000
1.000000 0.850980 0.000000
1.000000 0.850980 0.000000
1.000000 0.850980 0.000000
1.000000 0.850980 0.000000
1.000000 0.850980 0.000000
1.000000 0.850980 0.000000
1.000000 0.850980 0.000000
0.000000 0.913725 0.000000
0.105882 0.913725 0.000000
0.168627 0.913725 0.000000
0.239216 0.913725 0.000000
0.309804 0.913725 0.000000
0.372549 0.913725 0.000000
0.443137 0.913725 0.000000
0.505882 0.913725 0.000000
0.576471 0.913725 0.000000
0.647059 0.913725 0.000000
0.709804 0.913725 0.000000
0.780392 0.913725 0.000000
0.850980 0.913725 0.000000
0.913725 0.913725 0.000000
0.984314 0.913725 0.000000
1.000000 0.913725 0.000000
1.000000 0.913725 0.000000
1.000000 0.913725 0.000000
1.000000 0.913725 0.000000
1.000000 0.913725 0.000000
1.000000 0.913725 0.000000
1.000000 0.913725 0.000000
1.000000 0.913725 0.000000
1.000000 0.913725 0.000000
1.000000 0.913725 0.000000
0.000000 0.984314 0.000000
0.105882 0.984314 0.000000
0.168627 0.984314 0.000000
0.239216 0.984314 0.000000
0.309804 0.984314 0.000000
0.372549 0.984314 0.000000
0.443137 0.984314 0.000000
0.505882 0.984314 0.000000
0.576471 0.984314 0.000000
0.647059 0.984314 0.000000
0.709804 0.984314 0.000000
0.780392 0.984314 0.000000
0.850980 0.984314 0.000000
0.913725 0.984314 0.000000
0.984314 0.984314 0.000000
1.000000 0.984314 0.000000
1.000000 0.984314 0.000000
1.000000 0.984314 0.000000
1.000000 0.984314 0.000000
1.000000 0.984314 0.000000
1.000000 0.984314 0.000000
1.000000 0.984314 0.000000
1.000000 0.984314 0.000000
1.000000 0.984314 0.000000
1.000000 0.984314 0.000000
0.000000 1.000000 0.000000
0.105882 1.000000 0.000000
0.168627 1.000000 0.000000
0.239216 1.000000 0.000000
0.309804 1.000000 0.000000
0.372549 1.000000 0.000000
0.443137 1.000000 0.000000
0.505882 1.000000 0.000000
0.576471 1.000000 0.000000
0.647059 1.000000 0.000000
0.709804 1.000000 0.000000
0.780392 1.000000 0.000000
0.850980 1.000000 0.000000
0.913725 1.000000 0.000000
0.984314 1.000000 0.000000
1.000000 1.000000 0.000000
1.000000 1.000000 0.000000
1.000000 1.000000 0.000000
1.000000 1.000000 0.000000
1.000000 1.000000 0.000000
1.000000 1.000000 0.000000
1.000000 1.000000 0.000000
1.000000 1.000000 0.000000
1.000000 1.000000 0.000000
1.000000 1.000000 0.000000
0.000000 1.000000 0.000000
0.105882 1.000000 0.000000
0.168627 1.000000 0.000000
0.239216 1.000000 0.000000
0.309804 1.000000 0.000000
0.372549 1.000000 0.000000
0.443137 1.000000 0.000000
0.505882 1.000000 0.000000
0.576471 1.000000 0.000000
0.647059 1.000000 0.000000
0.709804 1.000000 0.000000
0.780392 1.000000 0.000000
0.850980 1.000000 0.000000
0.913725 1.000000 0.000000
0.984314 1.000000 0.000000
1.000000 1.000000 0.000000
1.000000 1.000000 0.000000
1.000000 1.000000 0.000000
1.000000 1.000000 0.000000
1.000000 1.000000 0.000000
1.000000 1.000000 0.000000
1.000000 1.000000 0.000000
1.000000 1.000000 0.000000
1.000000 1.000000 0.000000
1.000000 1.000000 0.000000
0.000000 1.000000 0.000000
0.105882 1.000000 0.000000
0.168627 1.000000 0.000000
0.239216 1.000000 0.000000
0.309804 1.000000 0.000000
0.372549 1.000000 0.000000
0.443137 1.000000 0.000000
0.505882 1.000000 0.000000
0.576471 1.000000 0.000000
0.647059 1.000000 0.000000
0.709804 1.000000 0.000000
0.780392 1.000000 0.000000
0.850980 1.000000 0.000000
0.913725 1.000000 0.000000
0.984314 1.000000 0.000000
1.000000 1.000000 0.000000
1.000000 1.000000 0.000000
1.000000 1.000000 0.000000
1.000000 1.000000 0.000000
1.000000 1.000000 0.000000
1.000000 1.000000 0.000000
1.000000 1.000000 0.000000
1.000000 1.000000 0.000000
1.000000 1.000000 0.000000
1.000000 1.000000 0.000000
0.000000 1.000000 0.000000
0.105882 1.000000 0.000000
0.168627 1.000000 0.000000
0.239216 1.000000 0.000000
0.309804 1.000000 0.000000
0.372549 1.000000 0.000000
0.443137 1.000000 0.000000
0.505882 1.000000 0.000000
0.576471 1.000000 0.000000
0.647059 1.000000 0.000000
0.709804 1.000000 0.000000
0.780392 1.000000 0.000000
0.850980 1.000000 0.000000
0.913725 1.000000 0.000000
0.984314 1.000000 0.000000
1.000000 1.000000 0.000000
1.000000 1.000000 0.000000
1.000000 1.000000 0.000000
1.000000 1.000000 0.000000
1.000000 1.000000 0.000000
1.000000 1.000000 0.000000
1.000000 1.000000 0.000000
1.000000 1.000000 0.000000
1.000000 1.000000 0.000000
1.000000 1.000000 0.000000
0.000000 1.000000 0.000000
0.105882 1.000000 0.000000
0.168627 1.000000 0.000000
0.239216 1.000000 0.000000
0.309804 1.000000 0.000000
0.372549 1.000000 0.000000
0.443137 1.000000 0.000000
0.505882 1.000000 0.000000
0.576471 1.000000 0.000000
0.647059 1.000000 0.000000
0.709804 1.000000 0.000000
0.780392 1.000000 0.000000
0.850980 1.000000 0.000000
0.913725 1.000000 0.000000
0.984314 1.000000 0.000000
1.000000 1.000000 0.000000
1.000000 1.000000 0.000000
1.000000 1.000000 0.000000
1.000000 1.000000 0.000000
1.000000 1.000000 0.000000
1.000000 1.000000 0.000000
1.000000 1.000000 0.000000
1.000000 1.000000 0.000000
1.000000 1.000000 0.000000
1.000000 1.000000 0.000000
0.000000 1.000000 0.000000
0.105882 1.000000 0.000000
0.168627 1.000000 0.000000
0.239216 1.000000 0.000000
0.309804 1.000000 0.000000
0.372549 1.000000 0.000000
0.443137 1.000000 0.000000
0.505882 1.000000 0.000000
0.576471 1.000000 0.000000
0.647059 1.000000 0.000000
0.709804 1.000000 0.000000
0.780392 1.000000 0.000000
0.850980 1.000000 0.000000
0.913725 1.000000 0.000000
0.984314 1.000000 0.000000
1.000000 1.000000 0.000000
1.000000 1.000000 0.000000
1.000000 1.000000 0.000000
1.000000 1.000000 0.000000
1.000000 1.000000 0.000000
1.000000 1.000000 0.000000
1.000000 1.000000 0.000000
1.000000 1.000000 0.000000
1.000000 1.000000 0.000000
1.000000 1.000000 0.000000
0.000000 1.000000 0.000000
0.105882 1.000000 0.000000
0.168627 1.000000 0.000000
0.239216 1.000000 0.000000
0.309804 1.000000 0.000000
0.372549 1.000000 0.000000
0.443137 1.000000 0.000000
0.505882 1.000000 0.000000
0.576471 1.000000 0.000000
0.647059 1.000000 0.000000
0.709804 1.000000 0.000000
0.780392 1.000000 0.000000
0.850980 1.000000 0.000000
0.913725 1.000000 0.000000
0.984314 1.000000 0.000000
1.000000 1.000000 0.000000
1.000000 1.000000 0.000000
1.000000 1.000000 0.000000
1.000000 1.000000 0.000000
1.000000 1.000000 0.000000
1.000000 1.000000 0.000000
1.000000 1.000000 0.000000
1.000000 1.000000 0.000000
1.000000 1.000000 0.000000
1.000000 1.000000 0.000000
0.000000 1.000000 0.000000
0.105882 1.000000 0.000000
0.168627 1.000000 0.000000
0.239216 1.000000 0.000000
0.309804 1.000000 0.000000
0.372549 1.000000 0.000000
0.443137 1.000000 0.000000
0.505882 1.000000 0.000000
0.576471 1.000000 0.000000
0.647059 1.000000 0.000000
0.709804 1.000000 0.000000
0.780392 1.000000 0.000000
0.850980 1.000000 0.000000
0.913725 1.000000 0.000000
0.984314 1.000000 0.000000
1.000000 1.000000 0.000000
1.000000 1.000000 0.000000
1.000000 1.000000 0.000000
1.000000 1.000000 0.000000
1.000000 1.000000 0.000000
1.000000 1.000000 0.000000
1.000000 1.000000 0.000000
1.000000 1.000000 0.000000
1.000000 1.000000 0.000000
1.000000 1.000000 0.000000
0.000000 1.000000 0.000000
0.105882 1.000000 0.000000
0.168627 1.000000 0.000000
0.239216 1.000000 0.000000
0.309804 1.000000 0.000000
0.372549 1.000000 0.000000
0.443137 1.000000 0.000000
0.505882 1.000000 0.000000
0.576471 1.000000 0.000000
0.647059 1.000000 0.000000
0.709804 1.000000 0.000000
0.780392 1.000000 0.000000
0.850980 1.000000 0.000000
0.913725 1.000000 0.000000
0.984314 1.000000 0.000000
1.000000 1.000000 0.000000
1.000000 1.000000 0.000000
1.000000 1.000000 0.000000
1.000000 1.000000 0.000000
1.000000 1.000000 0.000000
1.000000 1.000000 0.000000
1.000000 1.000000 0.000000
1.000000 1.000000 0.000000
1.000000 1.000000 0.000000
1.000000 1.000000 0.000000
0.000000 1.000000 0.000000
0.105882 1.000000 0.000000
0.168627 1.000000 0.000000
0.239216 1.000000 0.000000
0.309804 1.000000 0.000000
0.372549 1.000000 0.000000
0.443137 1.000000 0.000000
0.505882 1.000000 0.000000
0.576471 1.000000 0.000000
0.647059 1.000000 0.000000
0.709804 1.000000 0.000000
0.780392 1.000000 0.000000
0.850980 1.000000 0.000000
0.913725 1.000000 0.000000
0.984314 1.000000 0.000000
1.000000 1.000000 0.000000
1.000000 1.000000 0.000000
1.000000 1.000000 0.000000
1.000000 1.000000 0.000000
1.000000 1.000000 0.000000
1.000000 1.000000 0.000000
1.000000 1.000000 0.000000
1.000000 1.000000 0.000000
1.000000 1.000000 0.000000
1.000000 1.000000 0.000000
0.000000 0.000000 0.105882
0.105882 0.000000 0.105882
0.168627 0.000000 0.105882
0.239216 0.000000 0.105882
0.309804 0.000000 0.105882
0.372549 0.000000 0.105882
0.443137 0.000000 0.105882
0.505882 0.000000 0.105882
0.576471 0.000000 0.105882
0.647059 0.000000 0.105882
0.709804 0.000000 0.105882
0.780392 0.000000 0.105882
0.850980 0.000000 0.105882
0.913725 0.000000 0.105882
0.984314 0.000000 0.105882
1.000000 0.000000 0.105882
1.000000 0.000000 0.105882
1.000000 0.000000 0.105882
1.000000 0.000000 0.105882
1.000000 0.000000 0.105882
1.000000 0.000000 0.105882
1.000000 0.000000 0.105882
1.000000 0.000000 0.105882
1.000000 0.000000 0.105882
1.000000 0.000000 0.105882
0.000000 0.105882 0.105882
0.105882 0.105882 0.105882
0.168627 0.105882 0.105882
0.239216 0.105882 0.105882
0.309804 0.105882 0.105882
0.372549 0.105882 0.105882
0.443137 0.105882 0.105882
0.505882 0.105882 0.105882
0.576471 0.105882 0.105882
0.647059 0.105882 0.105882
0.709804 0.105882 0.105882
0.780392 0.105882 0.105882
0.850980 0.105882 0.105882
0.913725 0.105882 0.105882
0.984314 0.105882 0.105882
1.000000 0.105882 0.105882
1.000000 0.105882 0.105882
1.000000 0.105882 0.105882
1.000000 0.105882 0.105882
1.000000 0.105882 0.105882
1.000000 0.105882 0.105882
1.000000 0.105882 0.105882
1.000000 0.105882 0.105882
1.000000 0.105882 0.105882
1.000000 0.105882 0.105882
0.000000 0.168627 0.105882
0.105882 0.168627 0.105882
0.168627 0.168627 0.105882
0.239216 0.168627 0.105882
0.309804 0.168627 0.105882
0.372549 0.168627 0.105882
0.443137 0.168627 0.105882
0.505882 0.168627 0.105882
0.576471 0.168627 0.105882
0.647059 0.168627 0.105882
0.709804 0.168627 0.105882
0.780392 0.168627 0.105882
0.850980 0.168627 0.105882
0.913725 0.168627 0.105882
0.984314 0.168627 0.105882
1.000000 0.168627 0.105882
1.000000 0.168627 0.105882
1.000000 0.168627 0.105882
1.000000 0.168627 0.105882
1.000000 0.168627 0.105882
1.000000 0.168627 0.105882
1.000000 0.168627 0.105882
1.000000 0.168627 0.105882
1.000000 0.168627 0.105882
1.000000 0.168627 0.105882
0.000000 0.239216 0.105882
0.105882 0.239216 0.105882
0.168627 0.239216 0.105882
0.239216 0.239216 0.105882
0.309804 0.239216 0.105882
0.372549 0.239216 0.105882
0.443137 0.239216 0.105882
0.505882 0.239216 0.105882
0.576471 0.239216 0.105882
0.647059 0.239216 0.105882
0.709804 0.239216 0.105882
0.780392 0.239216 0.105882
0.850980 0.239216 0.105882
0.913725 0.239216 0.105882
0.984314 0.239216 0.105882
1.000000 0.239216 0.105882
1.000000 0.239216 0.105882
1.000000 0.239216 0.105882
1.000000 0.239216 0.105882
1.000000 0.239216 0.105882
1.000000 0.239216 0.105882
1.000000 0.239216 0.105882
1.000000 0.239216 0.105882
1.000000 0.239216 0.105882
1.000000 0.239216 0.105882
0.000000 0.309804 0.105882
0.105882 0.309804 0.105882
0.168627 0.309804 0.105882
0.239216 0.309804 0.105882
0.309804 0.309804 0.105882
0.372549 0.309804 0.105882
0.443137 0.309804 0.105882
0.505882 0.309804 0.105882
0.576471 0.309804 0.105882
0.647059 0.309804 0.105882
0.709804 0.309804 0.105882
0.780392 0.309804 0.105882
0.850980 0.309804 0.105882
0.913725 0.309804 0.105882
0.984314 0.309804 0.105882
1.000000 0.309804 0.105882
1.000000 0.309804 0.105882
1.000000 0.309804 0.105882
1.000000 0.309804 0.105882
1.000000 0.309804 0.105882
1.000000 0.309804 0.105882
1.000000 0.309804 0.105882
1.000000 0.309804 0.105882
1.000000 0.309804 0.105882
1.000000 0.309804 0.105882
0.000000 0.372549 0.105882
0.105882 0.372549 0.105882
0.168627 0.372549 0.105882
0.239216 0.372549 0.105882
0.309804 0.372549 0.105882
0.372549 0.372549 0.105882
0.443137 0.372549 0.105882
0.505882 0.372549 0.105882
0.576471 0.372549 0.105882
0.647059 0.372549 0.105882
0.709804 0.372549 0.105882
0.780392 0.372549 0.105882
0.850980 0.372549 0.105882
0.913725 0.372549 0.105882
0.984314 0.372549 0.105882
1.000000 0.372549 0.105882
1.000000 0.372549 0.105882
1.000000 0.372549 0.105882
1.000000 0.372549 0.105882
1.000000 0.372549 0.105882
1.000000 0.372549 0.105882
1.000000 0.372549 0.105882
1.000000 0.372549 0.105882
1.000000 0.372549 0.105882
1.000000 0.372549 0.105882
0.000000 0.443137 0.105882
0.105882 0.443137 0.105882
0.168627 0.443137 0.105882
0.239216 0.443137 0.105882
0.309804 0.443137 0.105882
0.372549 0.443137 0.105882
0.443137 0.443137 0.105882
0.505882 0.443137 0.105882
0.576471 0.443137 0.105882
0.647059 0.443137 0.105882
0.709804 0.443137 0.105882
0.780392 0.443137 0.105882
0.850980 0.443137 0.105882
0.913725 0.443137 0.105882
0.984314 0.443137 0.105882
1.000000 0.443137 0.105882
1.000000 0.443137 0.105882
1.000000 0.443137 0.105882
1.000000 0.443137 0.105882
1.000000 0.443137 0.105882
1.000000 0.443137 0.105882
1.000000 0.443137 0.105882
1.000000 0.443137 0.105882
1.000000 0.443137 0.105882
1.000000 0.443137 0.105882
0.000000 0.505882 0.105882
0.105882 0.505882 0.105882
0.168627 0.505882 0.105882
0.239216 0.505882 0.105882
0.309804 0.505882 0.105882
0.372549 0.505882 0.105882
0.443137 0.505882 0.105882
0.505882 0.505882 0.105882
0.576471 0.505882 0.105882
0.647059 0.505882 0.105882
0.709804 0.505882 0.105882
0.780392 0.505882 0.105882
0.850980 0.505882 0.105882
0.913725 0.505882 0.105882
0.984314 0.505882 0.105882
1.000000 0.505882 0.105882
1.000000 0.505882 0.105882
1.000000 0.505882 0.105882
1.000000 0.505882 0.105882
1.000000 0.505882 0.105882
1.000000 0.505882 0.105882
1.000000 0.505882 0.105882
1.000000 0.505882 0.105882
1.000000 0.505882 0.105882
1.000000 0.505882 0.105882
0.000000 0.576471 0.105882
0.105882 0.576471 0.105882
0.168627 0.576471 0.105882
0.239216 0.576471 0.105882
0.309804 0.576471 0.105882
0.372549 0.576471 0.105882
0.443137 0.576471 0.105882
0.505882 0.576471 0.105882
0.576471 0.576471 0.105882
0.647059 0.576471 0.105882
0.709804 0.576471 0.105882
0.780392 0.576471 0.105882
0.850980 0.576471 0.105882
0.913725 0.576471 0.105882
0.984314 0.576471 0.105882
1.000000 0.576471 0.105882
1.000000 0.576471 0.105882
1.000000 0.576471 0.105882
1.000000 0.576471 0.105882
1.000000 0.576471 0.105882
1.000000 0.576471 0.105882
1.000000 0.576471 0.105882
1.000000 0.576471 0.105882
1.000000 0.576471 0.105882
1.000000 0.576471 0.105882
0.000000 0.647059 0.105882
0.105882 0.647059 0.105882
0.168627 0.647059 0.105882
0.239216 0.647059 0.105882
0.309804 0.647059 0.105882
0.372549 0.647059 0.105882
0.443137 0.647059 0.105882
0.505882 0.647059 0.105882
0.576471 0.647059 0.105882
0.647059 0.647059 0.105882
0.709804 0.647059 0.105882
0.780392 0.647059 0.105882
0.850980 0.647059 0.105882
0.913725 0.647059 0.105882
0.984314 0.647059 0.105882
1.000000 0.647059 0.105882
1.000000 0.647059 0.105882
1.000000 0.647059 0.105882
1.000000 0.647059 0.105882
1.000000 0.647059 0.105882
1.000000 0.647059 0.105882
1.000000 0.647059 0.105882
1.000000 0.647059 0.105882
1.000000 0.647059 0.105882
1.000000 0.647059 0.105882
0.000000 0.709804 0.105882
0.105882 0.709804 0.105882
0.168627 0.709804 0.105882
0.239216 0.709804 0.105882
0.309804 0.709804 0.105882
0.372549 0.709804 0.105882
0.443137 0.709804 0.105882
0.505882 0.709804 0.105882
0.576471 0.709804 0.105882
