LUTs/Damaging/LUT_EXPOSURE/saturated_highlghts2.cube
#Generated by lutCreator.js
#Coded by SirSerch
#https://github.com/SirSerch/LutCreatorJs
TITLE lutCreatorJs_25
LUT_3D_SIZE 25
0.000000 0.000000 0.000000
0.039216 0.000000 0.000000
0.078431 0.000000 0.000000
0.117647 0.000000 0.000000
0.160784 0.000000 0.000000
0.196078 0.000000 0.000000
0.239216 0.000000 0.000000
0.278431 0.000000 0.000000
0.321569 0.000000 0.000000
0.368627 0.000000 0.000000
0.407843 0.000000 0.000000
0.454902 0.000000 0.000000
0.501961 0.000000 0.000000
0.549020 0.000000 0.000000
0.596078 0.000000 0.000000
0.643137 0.000000 0.000000
0.847059 0.000000 0.000000
0.901961 0.000000 0.000000
0.921569 0.000000 0.000000
0.941176 0.000000 0.000000
0.956863 0.000000 0.000000
0.968627 0.000000 0.000000
0.980392 0.000000 0.000000
0.992157 0.000000 0.000000
1.000000 0.000000 0.000000
0.000000 0.039216 0.000000
0.039216 0.039216 0.000000
0.078431 0.039216 0.000000
0.117647 0.039216 0.000000
0.160784 0.039216 0.000000
0.196078 0.039216 0.000000
0.239216 0.039216 0.000000
0.278431 0.039216 0.000000
0.321569 0.039216 0.000000
0.368627 0.039216 0.000000
0.407843 0.039216 0.000000
0.454902 0.039216 0.000000
0.501961 0.039216 0.000000
0.549020 0.039216 0.000000
0.596078 0.039216 0.000000
0.643137 0.039216 0.000000
0.847059 0.039216 0.000000
0.901961 0.039216 0.000000
0.921569 0.039216 0.000000
0.941176 0.039216 0.000000
0.956863 0.039216 0.000000
0.968627 0.039216 0.000000
0.980392 0.039216 0.000000
0.992157 0.039216 0.000000
1.000000 0.039216 0.000000
0.000000 0.078431 0.000000
0.039216 0.078431 0.000000
0.078431 0.078431 0.000000
0.117647 0.078431 0.000000
0.160784 0.078431 0.000000
0.196078 0.078431 0.000000
0.239216 0.078431 0.000000
0.278431 0.078431 0.000000
0.321569 0.078431 0.000000
0.368627 0.078431 0.000000
0.407843 0.078431 0.000000
0.454902 0.078431 0.000000
0.501961 0.078431 0.000000
0.549020 0.078431 0.000000
0.596078 0.078431 0.000000
0.643137 0.078431 0.000000
0.847059 0.078431 0.000000
0.901961 0.078431 0.000000
0.921569 0.078431 0.000000
0.941176 0.078431 0.000000
0.956863 0.078431 0.000000
0.968627 0.078431 0.000000
0.980392 0.078431 0.000000
0.992157 0.078431 0.000000
1.000000 0.078431 0.000000
0.000000 0.117647 0.000000
0.039216 0.117647 0.000000
0.078431 0.117647 0.000000
0.117647 0.117647 0.000000
0.160784 0.117647 0.000000
0.196078 0.117647 0.000000
0.239216 0.117647 0.000000
0.278431 0.117647 0.000000
0.321569 0.117647 0.000000
0.368627 0.117647 0.000000
0.407843 0.117647 0.000000
0.454902 0.117647 0.000000
0.501961 0.117647 0.000000
0.549020 0.117647 0.000000
0.596078 0.117647 0.000000
0.643137 0.117647 0.000000
0.847059 0.117647 0.000000
0.901961 0.117647 0.000000
0.921569 0.117647 0.000000
0.941176 0.117647 0.000000
0.956863 0.117647 0.000000
0.968627 0.117647 0.000000
0.980392 0.117647 0.000000
0.992157 0.117647 0.000000
1.000000 0.117647 0.000000
0.000000 0.160784 0.000000
0.039216 0.160784 0.000000
0.078431 0.160784 0.000000
0.117647 0.160784 0.000000
0.160784 0.160784 0.000000
0.196078 0.160784 0.000000
0.239216 0.160784 0.000000
0.278431 0.160784 0.000000
0.321569 0.160784 0.000000
0.368627 0.160784 0.000000
0.407843 0.160784 0.000000
0.454902 0.160784 0.000000
0.501961 0.160784 0.000000
0.549020 0.160784 0.000000
0.596078 0.160784 0.000000
0.643137 0.160784 0.000000
0.847059 0.160784 0.000000
0.901961 0.160784 0.000000
0.921569 0.160784 0.000000
0.941176 0.160784 0.000000
0.956863 0.160784 0.000000
0.968627 0.160784 0.000000
0.980392 0.160784 0.000000
0.992157 0.160784 0.000000
1.000000 0.160784 0.000000
0.000000 0.196078 0.000000
0.039216 0.196078 0.000000
0.078431 0.196078 0.000000
0.117647 0.196078 0.000000
0.160784 0.196078 0.000000
0.196078 0.196078 0.000000
0.239216 0.196078 0.000000
0.278431 0.196078 0.000000
0.321569 0.196078 0.000000
0.368627 0.196078 0.000000
0.407843 0.196078 0.000000
0.454902 0.196078 0.000000
0.501961 0.196078 0.000000
0.549020 0.196078 0.000000
0.596078 0.196078 0.000000
0.643137 0.196078 0.000000
0.847059 0.196078 0.000000
0.901961 0.196078 0.000000
0.921569 0.196078 0.000000
0.941176 0.196078 0.000000
0.956863 0.196078 0.000000
0.968627 0.196078 0.000000
0.980392 0.196078 0.000000
0.992157 0.196078 0.000000
1.000000 0.196078 0.000000
0.000000 0.239216 0.000000
0.039216 0.239216 0.000000
0.078431 0.239216 0.000000
0.117647 0.239216 0.000000
0.160784 0.239216 0.000000
0.196078 0.239216 0.000000
0.239216 0.239216 0.000000
0.278431 0.239216 0.000000
0.321569 0.239216 0.000000
0.368627 0.239216 0.000000
0.407843 0.239216 0.000000
0.454902 0.239216 0.000000
0.501961 0.239216 0.000000
0.549020 0.239216 0.000000
0.596078 0.239216 0.000000
0.643137 0.239216 0.000000
0.847059 0.239216 0.000000
0.901961 0.239216 0.000000
0.921569 0.239216 0.000000
0.941176 0.239216 0.000000
0.956863 0.239216 0.000000
0.968627 0.239216 0.000000
0.980392 0.239216 0.000000
0.992157 0.239216 0.000000
1.000000 0.239216 0.000000
0.000000 0.278431 0.000000
0.039216 0.278431 0.000000
0.078431 0.278431 0.000000
0.117647 0.278431 0.000000
0.160784 0.278431 0.000000
0.196078 0.278431 0.000000
0.239216 0.278431 0.000000
0.278431 0.278431 0.000000
0.321569 0.278431 0.000000
0.368627 0.278431 0.000000
0.407843 0.278431 0.000000
0.454902 0.278431 0.000000
0.501961 0.278431 0.000000
0.549020 0.278431 0.000000
0.596078 0.278431 0.000000
0.643137 0.278431 0.000000
0.847059 0.278431 0.000000
0.901961 0.278431 0.000000
0.921569 0.278431 0.000000
0.941176 0.278431 0.000000
0.956863 0.278431 0.000000
0.968627 0.278431 0.000000
0.980392 0.278431 0.000000
0.992157 0.278431 0.000000
1.000000 0.278431 0.000000
0.000000 0.321569 0.000000
0.039216 0.321569 0.000000
0.078431 0.321569 0.000000
0.117647 0.321569 0.000000
0.160784 0.321569 0.000000
0.196078 0.321569 0.000000
0.239216 0.321569 0.000000
0.278431 0.321569 0.000000
0.321569 0.321569 0.000000
0.368627 0.321569 0.000000
0.407843 0.321569 0.000000
0.454902 0.321569 0.000000
0.501961 0.321569 0.000000
0.549020 0.321569 0.000000
0.596078 0.321569 0.000000
0.643137 0.321569 0.000000
0.847059 0.321569 0.000000
0.901961 0.321569 0.000000
0.921569 0.321569 0.000000
0.941176 0.321569 0.000000
0.956863 0.321569 0.000000
0.968627 0.321569 0.000000
0.980392 0.321569 0.000000
0.992157 0.321569 0.000000
1.000000 0.321569 0.000000
0.000000 0.368627 0.000000
0.039216 0.368627 0.000000
0.078431 0.368627 0.000000
0.117647 0.368627 0.000000
0.160784 0.368627 0.000000
0.196078 0.368627 0.000000
0.239216 0.368627 0.000000
0.278431 0.368627 0.000000
0.321569 0.368627 0.000000
0.368627 0.368627 0.000000
0.407843 0.368627 0.000000
0.454902 0.368627 0.000000
0.501961 0.368627 0.000000
0.549020 0.368627 0.000000
0.596078 0.368627 0.000000
0.643137 0.368627 0.000000
0.847059 0.368627 0.000000
0.901961 0.368627 0.000000
0.921569 0.368627 0.000000
0.941176 0.368627 0.000000
0.956863 0.368627 0.000000
0.968627 0.368627 0.000000
0.980392 0.368627 0.000000
0.992157 0.368627 0.000000
1.000000 0.368627 0.000000
0.000000 0.407843 0.000000
0.039216 0.407843 0.000000
0.078431 0.407843 0.000000
0.117647 0.407843 0.000000
0.160784 0.407843 0.000000
0.196078 0.407843 0.000000
0.239216 0.407843 0.000000
0.278431 0.407843 0.000000
0.321569 0.407843 0.000000
0.368627 0.407843 0.000000
0.407843 0.407843 0.000000
0.454902 0.407843 0.000000
0.501961 0.407843 0.000000
0.549020 0.407843 0.000000
0.596078 0.407843 0.000000
0.643137 0.407843 0.000000
0.847059 0.407843 0.000000
0.901961 0.407843 0.000000
0.921569 0.407843 0.000000
0.941176 0.407843 0.000000
0.956863 0.407843 0.000000
0.968627 0.407843 0.000000
0.980392 0.407843 0.000000
0.992157 0.407843 0.000000
1.000000 0.407843 0.000000
0.000000 0.454902 0.000000
0.039216 0.454902 0.000000
0.078431 0.454902 0.000000
0.117647 0.454902 0.000000
0.160784 0.454902 0.000000
0.196078 0.454902 0.000000
0.239216 0.454902 0.000000
0.278431 0.454902 0.000000
0.321569 0.454902 0.000000
0.368627 0.454902 0.000000
0.407843 0.454902 0.000000
0.454902 0.454902 0.000000
0.501961 0.454902 0.000000
0.549020 0.454902 0.000000
0.596078 0.454902 0.000000
0.643137 0.454902 0.000000
0.847059 0.454902 0.000000
0.901961 0.454902 0.000000
0.921569 0.454902 0.000000
0.941176 0.454902 0.000000
0.956863 0.454902 0.000000
0.968627 0.454902 0.000000
0.980392 0.454902 0.000000
0.992157 0.454902 0.000000
1.000000 0.454902 0.000000
0.000000 0.501961 0.000000
0.039216 0.501961 0.000000
0.078431 0.501961 0.000000
0.117647 0.501961 0.000000
0.160784 0.501961 0.000000
0.196078 0.501961 0.000000
0.239216 0.501961 0.000000
0.278431 0.501961 0.000000
0.321569 0.501961 0.000000
0.368627 0.501961 0.000000
0.407843 0.501961 0.000000
0.454902 0.501961 0.000000
0.501961 0.501961 0.000000
0.549020 0.501961 0.000000
0.596078 0.501961 0.000000
0.643137 0.501961 0.000000
0.847059 0.501961 0.000000
0.901961 0.501961 0.000000
0.921569 0.501961 0.000000
0.941176 0.501961 0.000000
0.956863 0.501961 0.000000
0.968627 0.501961 0.000000
0.980392 0.501961 0.000000
0.992157 0.501961 0.000000
1.000000 0.501961 0.000000
0.000000 0.549020 0.000000
0.039216 0.549020 0.000000
0.078431 0.549020 0.000000
0.117647 0.549020 0.000000
0.160784 0.549020 0.000000
0.196078 0.549020 0.000000
0.239216 0.549020 0.000000
0.278431 0.549020 0.000000
0.321569 0.549020 0.000000
0.368627 0.549020 0.000000
0.407843 0.549020 0.000000
0.454902 0.549020 0.000000
0.501961 0.549020 0.000000
0.549020 0.549020 0.000000
0.596078 0.549020 0.000000
0.643137 0.549020 0.000000
0.847059 0.549020 0.000000
0.901961 0.549020 0.000000
0.921569 0.549020 0.000000
0.941176 0.549020 0.000000
0.956863 0.549020 0.000000
0.968627 0.549020 0.000000
0.980392 0.549020 0.000000
0.992157 0.549020 0.000000
1.000000 0.549020 0.000000
0.000000 0.596078 0.000000
0.039216 0.596078 0.000000
0.078431 0.596078 0.000000
0.117647 0.596078 0.000000
0.160784 0.596078 0.000000
0.196078 0.596078 0.000000
0.239216 0.596078 0.000000
0.278431 0.596078 0.000000
0.321569 0.596078 0.000000
0.368627 0.596078 0.000000
0.407843 0.596078 0.000000
0.454902 0.596078 0.000000
0.501961 0.596078 0.000000
0.549020 0.596078 0.000000
0.596078 0.596078 0.000000
0.643137 0.596078 0.000000
0.847059 0.596078 0.000000
0.901961 0.596078 0.000000
0.921569 0.596078 0.000000
0.941176 0.596078 0.000000
0.956863 0.596078 0.000000
0.968627 0.596078 0.000000
0.980392 0.596078 0.000000
0.992157 0.596078 0.000000
1.000000 0.596078 0.000000
0.000000 0.643137 0.000000
0.039216 0.643137 0.000000
0.078431 0.643137 0.000000
0.117647 0.643137 0.000000
0.160784 0.643137 0.000000
0.196078 0.643137 0.000000
0.239216 0.643137 0.000000
0.278431 0.643137 0.000000
0.321569 0.643137 0.000000
0.368627 0.643137 0.000000
0.407843 0.643137 0.000000
0.454902 0.643137 0.000000
0.501961 0.643137 0.000000
0.549020 0.643137 0.000000
0.596078 0.643137 0.000000
0.643137 0.643137 0.000000
0.847059 0.643137 0.000000
0.901961 0.643137 0.000000
0.921569 0.643137 0.000000
0.941176 0.643137 0.000000
0.956863 0.643137 0.000000
0.968627 0.643137 0.000000
0.980392 0.643137 0.000000
0.992157 0.643137 0.000000
1.000000 0.643137 0.000000
0.000000 0.847059 0.000000
0.039216 0.847059 0.000000
0.078431 0.847059 0.000000
0.117647 0.847059 0.000000
0.160784 0.847059 0.000000
0.196078 0.847059 0.000000
0.239216 0.847059 0.000000
0.278431 0.847059 0.000000
0.321569 0.847059 0.000000
0.368627 0.847059 0.000000
0.407843 0.847059 0.000000
0.454902 0.847059 0.000000
0.501961 0.847059 0.000000
0.549020 0.847059 0.000000
0.596078 0.847059 0.000000
0.643137 0.847059 0.000000
0.847059 0.847059 0.000000
0.901961 0.847059 0.000000
0.921569 0.847059 0.000000
0.941176 0.847059 0.000000
0.956863 0.847059 0.000000
0.968627 0.847059 0.000000
0.980392 0.847059 0.000000
0.992157 0.847059 0.000000
1.000000 0.847059 0.000000
0.000000 0.901961 0.000000
0.039216 0.901961 0.000000
0.078431 0.901961 0.000000
0.117647 0.901961 0.000000
0.160784 0.901961 0.000000
0.196078 0.901961 0.000000
0.239216 0.901961 0.000000
0.278431 0.901961 0.000000
0.321569 0.901961 0.000000
0.368627 0.901961 0.000000
0.407843 0.901961 0.000000
0.454902 0.901961 0.000000
0.501961 0.901961 0.000000
0.549020 0.901961 0.000000
0.596078 0.901961 0.000000
0.643137 0.901961 0.000000
0.847059 0.901961 0.000000
0.901961 0.901961 0.000000
0.921569 0.901961 0.000000
0.941176 0.901961 0.000000
0.956863 0.901961 0.000000
0.968627 0.901961 0.000000
0.980392 0.901961 0.000000
0.992157 0.901961 0.000000
1.000000 0.901961 0.000000
0.000000 0.921569 0.000000
0.039216 0.921569 0.000000
0.078431 0.921569 0.000000
0.117647 0.921569 0.000000
0.160784 0.921569 0.000000
0.196078 0.921569 0.000000
0.239216 0.921569 0.000000
0.278431 0.921569 0.000000
0.321569 0.921569 0.000000
0.368627 0.921569 0.000000
0.407843 0.921569 0.000000
0.454902 0.921569 0.000000
0.501961 0.921569 0.000000
0.549020 0.921569 0.000000
0.596078 0.921569 0.000000
0.643137 0.921569 0.000000
0.847059 0.921569 0.000000
0.901961 0.921569 0.000000
0.921569 0.921569 0.000000
0.941176 0.921569 0.000000
0.956863 0.921569 0.000000
0.968627 0.921569 0.000000
0.980392 0.921569 0.000000
0.992157 0.921569 0.000000
1.000000 0.921569 0.000000
0.000000 0.941176 0.000000
0.039216 0.941176 0.000000
0.078431 0.941176 0.000000
0.117647 0.941176 0.000000
0.160784 0.941176 0.000000
0.196078 0.941176 0.000000
0.239216 0.941176 0.000000
0.278431 0.941176 0.000000
0.321569 0.941176 0.000000
0.368627 0.941176 0.000000
0.407843 0.941176 0.000000
0.454902 0.941176 0.000000
0.501961 0.941176 0.000000
0.549020 0.941176 0.000000
0.596078 0.941176 0.000000
0.643137 0.941176 0.000000
0.847059 0.941176 0.000000
0.901961 0.941176 0.000000
0.921569 0.941176 0.000000
0.941176 0.941176 0.000000
0.956863 0.941176 0.000000
0.968627 0.941176 0.000000
0.980392 0.941176 0.000000
0.992157 0.941176 0.000000
1.000000 0.941176 0.000000
0.000000 0.956863 0.000000
0.039216 0.956863 0.000000
0.078431 0.956863 0.000000
0.117647 0.956863 0.000000
0.160784 0.956863 0.000000
0.196078 0.956863 0.000000
0.239216 0.956863 0.000000
0.278431 0.956863 0.000000
0.321569 0.956863 0.000000
0.368627 0.956863 0.000000
0.407843 0.956863 0.000000
0.454902 0.956863 0.000000
0.501961 0.956863 0.000000
0.549020 0.956863 0.000000
0.596078 0.956863 0.000000
0.643137 0.956863 0.000000
0.847059 0.956863 0.000000
0.901961 0.956863 0.000000
0.921569 0.956863 0.000000
0.941176 0.956863 0.000000
0.956863 0.956863 0.000000
0.968627 0.956863 0.000000
0.980392 0.956863 0.000000
0.992157 0.956863 0.000000
1.000000 0.956863 0.000000
0.000000 0.968627 0.000000
0.039216 0.968627 0.000000
0.078431 0.968627 0.000000
0.117647 0.968627 0.000000
0.160784 0.968627 0.000000
0.196078 0.968627 0.000000
0.239216 0.968627 0.000000
0.278431 0.968627 0.000000
0.321569 0.968627 0.000000
0.368627 0.968627 0.000000
0.407843 0.968627 0.000000
0.454902 0.968627 0.000000
0.501961 0.968627 0.000000
0.549020 0.968627 0.000000
0.596078 0.968627 0.000000
0.643137 0.968627 0.000000
0.847059 0.968627 0.000000
0.901961 0.968627 0.000000
0.921569 0.968627 0.000000
0.941176 0.968627 0.000000
0.956863 0.968627 0.000000
0.968627 0.968627 0.000000
0.980392 0.968627 0.000000
0.992157 0.968627 0.000000
1.000000 0.968627 0.000000
0.000000 0.980392 0.000000
0.039216 0.980392 0.000000
0.078431 0.980392 0.000000
0.117647 0.980392 0.000000
0.160784 0.980392 0.000000
0.196078 0.980392 0.000000
0.239216 0.980392 0.000000
0.278431 0.980392 0.000000
0.321569 0.980392 0.000000
0.368627 0.980392 0.000000
0.407843 0.980392 0.000000
0.454902 0.980392 0.000000
0.501961 0.980392 0.000000
0.549020 0.980392 0.000000
0.596078 0.980392 0.000000
0.643137 0.980392 0.000000
0.847059 0.980392 0.000000
0.901961 0.980392 0.000000
0.921569 0.980392 0.000000
0.941176 0.980392 0.000000
0.956863 0.980392 0.000000
0.968627 0.980392 0.000000
0.980392 0.980392 0.000000
0.992157 0.980392 0.000000
1.000000 0.980392 0.000000
0.000000 0.992157 0.000000
0.039216 0.992157 0.000000
0.078431 0.992157 0.000000
0.117647 0.992157 0.000000
0.160784 0.992157 0.000000
0.196078 0.992157 0.000000
0.239216 0.992157 0.000000
0.278431 0.992157 0.000000
0.321569 0.992157 0.000000
0.368627 0.992157 0.000000
0.407843 0.992157 0.000000
0.454902 0.992157 0.000000
0.501961 0.992157 0.000000
0.549020 0.992157 0.000000
0.596078 0.992157 0.000000
0.643137 0.992157 0.000000
0.847059 0.992157 0.000000
0.901961 0.992157 0.000000
0.921569 0.992157 0.000000
0.941176 0.992157 0.000000
0.956863 0.992157 0.000000
0.968627 0.992157 0.000000
0.980392 0.992157 0.000000
0.992157 0.992157 0.000000
1.000000 0.992157 0.000000
0.000000 1.000000 0.000000
0.039216 1.000000 0.000000
0.078431 1.000000 0.000000
0.117647 1.000000 0.000000
0.160784 1.000000 0.000000
0.196078 1.000000 0.000000
0.239216 1.000000 0.000000
0.278431 1.000000 0.000000
0.321569 1.000000 0.000000
0.368627 1.000000 0.000000
0.407843 1.000000 0.000000
0.454902 1.000000 0.000000
0.501961 1.000000 0.000000
0.549020 1.000000 0.000000
0.596078 1.000000 0.000000
0.643137 1.000000 0.000000
0.847059 1.000000 0.000000
0.901961 1.000000 0.000000
0.921569 1.000000 0.000000
0.941176 1.000000 0.000000
0.956863 1.000000 0.000000
0.968627 1.000000 0.000000
0.980392 1.000000 0.000000
0.992157 1.000000 0.000000
1.000000 1.000000 0.000000
0.000000 0.000000 0.039216
0.039216 0.000000 0.039216
0.078431 0.000000 0.039216
0.117647 0.000000 0.039216
0.160784 0.000000 0.039216
0.196078 0.000000 0.039216
0.239216 0.000000 0.039216
0.278431 0.000000 0.039216
0.321569 0.000000 0.039216
0.368627 0.000000 0.039216
0.407843 0.000000 0.039216
0.454902 0.000000 0.039216
0.501961 0.000000 0.039216
0.549020 0.000000 0.039216
0.596078 0.000000 0.039216
0.643137 0.000000 0.039216
0.847059 0.000000 0.039216
0.901961 0.000000 0.039216
0.921569 0.000000 0.039216
0.941176 0.000000 0.039216
0.956863 0.000000 0.039216
0.968627 0.000000 0.039216
0.980392 0.000000 0.039216
0.992157 0.000000 0.039216
1.000000 0.000000 0.039216
0.000000 0.039216 0.039216
0.039216 0.039216 0.039216
0.078431 0.039216 0.039216
0.117647 0.039216 0.039216
0.160784 0.039216 0.039216
0.196078 0.039216 0.039216
0.239216 0.039216 0.039216
0.278431 0.039216 0.039216
0.321569 0.039216 0.039216
0.368627 0.039216 0.039216
0.407843 0.039216 0.039216
0.454902 0.039216 0.039216
0.501961 0.039216 0.039216
0.549020 0.039216 0.039216
0.596078 0.039216 0.039216
0.643137 0.039216 0.039216
0.847059 0.039216 0.039216
0.901961 0.039216 0.039216
0.921569 0.039216 0.039216
0.941176 0.039216 0.039216
0.956863 0.039216 0.039216
0.968627 0.039216 0.039216
0.980392 0.039216 0.039216
0.992157 0.039216 0.039216
1.000000 0.039216 0.039216
0.000000 0.078431 0.039216
0.039216 0.078431 0.039216
0.078431 0.078431 0.039216
0.117647 0.078431 0.039216
0.160784 0.078431 0.039216
0.196078 0.078431 0.039216
0.239216 0.078431 0.039216
0.278431 0.078431 0.039216
0.321569 0.078431 0.039216
0.368627 0.078431 0.039216
0.407843 0.078431 0.039216
0.454902 0.078431 0.039216
0.501961 0.078431 0.039216
0.549020 0.078431 0.039216
0.596078 0.078431 0.039216
0.643137 0.078431 0.039216
0.847059 0.078431 0.039216
0.901961 0.078431 0.039216
0.921569 0.078431 0.039216
0.941176 0.078431 0.039216
0.956863 0.078431 0.039216
0.968627 0.078431 0.039216
0.980392 0.078431 0.039216
0.992157 0.078431 0.039216
1.000000 0.078431 0.039216
0.000000 0.117647 0.039216
0.039216 0.117647 0.039216
0.078431 0.117647 0.039216
0.117647 0.117647 0.039216
0.160784 0.117647 0.039216
0.196078 0.117647 0.039216
0.239216 0.117647 0.039216
0.278431 0.117647 0.039216
0.321569 0.117647 0.039216
0.368627 0.117647 0.039216
0.407843 0.117647 0.039216
0.454902 0.117647 0.039216
0.501961 0.117647 0.039216
0.549020 0.117647 0.039216
0.596078 0.117647 0.039216
0.643137 0.117647 0.039216
0.847059 0.117647 0.039216
0.901961 0.117647 0.039216
0.921569 0.117647 0.039216
0.941176 0.117647 0.039216
0.956863 0.117647 0.039216
0.968627 0.117647 0.039216
0.980392 0.117647 0.039216
0.992157 0.117647 0.039216
1.000000 0.117647 0.039216
0.000000 0.160784 0.039216
0.039216 0.160784 0.039216
0.078431 0.160784 0.039216
0.117647 0.160784 0.039216
0.160784 0.160784 0.039216
0.196078 0.160784 0.039216
0.239216 0.160784 0.039216
0.278431 0.160784 0.039216
0.321569 0.160784 0.039216
0.368627 0.160784 0.039216
0.407843 0.160784 0.039216
0.454902 0.160784 0.039216
0.501961 0.160784 0.039216
0.549020 0.160784 0.039216
0.596078 0.160784 0.039216
0.643137 0.160784 0.039216
0.847059 0.160784 0.039216
0.901961 0.160784 0.039216
0.921569 0.160784 0.039216
0.941176 0.160784 0.039216
0.956863 0.160784 0.039216
0.968627 0.160784 0.039216
0.980392 0.160784 0.039216
0.992157 0.160784 0.039216
1.000000 0.160784 0.039216
0.000000 0.196078 0.039216
0.039216 0.196078 0.039216
0.078431 0.196078 0.039216
0.117647 0.196078 0.039216
0.160784 0.196078 0.039216
0.196078 0.196078 0.039216
0.239216 0.196078 0.039216
0.278431 0.196078 0.039216
0.321569 0.196078 0.039216
0.368627 0.196078 0.039216
0.407843 0.196078 0.039216
0.454902 0.196078 0.039216
0.501961 0.196078 0.039216
0.549020 0.196078 0.039216
0.596078 0.196078 0.039216
0.643137 0.196078 0.039216
0.847059 0.196078 0.039216
0.901961 0.196078 0.039216
0.921569 0.196078 0.039216
0.941176 0.196078 0.039216
0.956863 0.196078 0.039216
0.968627 0.196078 0.039216
0.980392 0.196078 0.039216
0.992157 0.196078 0.039216
1.000000 0.196078 0.039216
0.000000 0.239216 0.039216
0.039216 0.239216 0.039216
0.078431 0.239216 0.039216
0.117647 0.239216 0.039216
0.160784 0.239216 0.039216
0.196078 0.239216 0.039216
0.239216 0.239216 0.039216
0.278431 0.239216 0.039216
0.321569 0.239216 0.039216
0.368627 0.239216 0.039216
0.407843 0.239216 0.039216
0.454902 0.239216 0.039216
0.501961 0.239216 0.039216
0.549020 0.239216 0.039216
0.596078 0.239216 0.039216
0.643137 0.239216 0.039216
0.847059 0.239216 0.039216
0.901961 0.239216 0.039216
0.921569 0.239216 0.039216
0.941176 0.239216 0.039216
0.956863 0.239216 0.039216
0.968627 0.239216 0.039216
0.980392 0.239216 0.039216
0.992157 0.239216 0.039216
1.000000 0.239216 0.039216
0.000000 0.278431 0.039216
0.039216 0.278431 0.039216
0.078431 0.278431 0.039216
0.117647 0.278431 0.039216
0.160784 0.278431 0.039216
0.196078 0.278431 0.039216
0.239216 0.278431 0.039216
0.278431 0.278431 0.039216
0.321569 0.278431 0.039216
0.368627 0.278431 0.039216
0.407843 0.278431 0.039216
0.454902 0.278431 0.039216
0.501961 0.278431 0.039216
0.549020 0.278431 0.039216
0.596078 0.278431 0.039216
0.643137 0.278431 0.039216
0.847059 0.278431 0.039216
0.901961 0.278431 0.039216
0.921569 0.278431 0.039216
0.941176 0.278431 0.039216
0.956863 0.278431 0.039216
0.968627 0.278431 0.039216
0.980392 0.278431 0.039216
0.992157 0.278431 0.039216
1.000000 0.278431 0.039216
0.000000 0.321569 0.039216
0.039216 0.321569 0.039216
0.078431 0.321569 0.039216
0.117647 0.321569 0.039216
0.160784 0.321569 0.039216
0.196078 0.321569 0.039216
0.239216 0.321569 0.039216
0.278431 0.321569 0.039216
0.321569 0.321569 0.039216
0.368627 0.321569 0.039216
0.407843 0.321569 0.039216
0.454902 0.321569 0.039216
0.501961 0.321569 0.039216
0.549020 0.321569 0.039216
0.596078 0.321569 0.039216
0.643137 0.321569 0.039216
0.847059 0.321569 0.039216
0.901961 0.321569 0.039216
0.921569 0.321569 0.039216
0.941176 0.321569 0.039216
0.956863 0.321569 0.039216
0.968627 0.321569 0.039216
0.980392 0.321569 0.039216
0.992157 0.321569 0.039216
1.000000 0.321569 0.039216
0.000000 0.368627 0.039216
0.039216 0.368627 0.039216
0.078431 0.368627 0.039216
0.117647 0.368627 0.039216
0.160784 0.368627 0.039216
0.196078 0.368627 0.039216
0.239216 0.368627 0.039216
0.278431 0.368627 0.039216
0.321569 0.368627 0.039216
0.368627 0.368627 0.039216
0.407843 0.368627 0.039216
0.454902 0.368627 0.039216
0.501961 0.368627 0.039216
0.549020 0.368627 0.039216
0.596078 0.368627 0.039216
0.643137 0.368627 0.039216
0.847059 0.368627 0.039216
0.901961 0.368627 0.039216
0.921569 0.368627 0.039216
0.941176 0.368627 0.039216
0.956863 0.368627 0.039216
0.968627 0.368627 0.039216
0.980392 0.368627 0.039216
0.992157 0.368627 0.039216
1.000000 0.368627 0.039216
0.000000 0.407843 0.039216
0.039216 0.407843 0.039216
0.078431 0.407843 0.039216
0.117647 0.407843 0.039216
0.160784 0.407843 0.039216
0.196078 0.407843 0.039216
0.239216 0.407843 0.039216
0.278431 0.407843 0.039216
0.321569 0.407843 0.039216
