LUTs/Damaging/LUT_EXPOSURE/saturated_highlghts2.cube
#Generated by lutCreator.js
#Coded by SirSerch
#https://github.com/SirSerch/LutCreatorJs
TITLE lutCreatorJs_25
LUT_3D_SIZE 5
0.000000 0.000000 0.000000
0.239216 0.000000 0.000000
0.501961 0.000000 0.000000
0.921569 0.000000 0.000000
1.000000 0.000000 0.000000
0.000000 0.239216 0.000000
0.239216 0.239216 0.000000
0.501961 0.239216 0.000000
0.921569 0.239216 0.000000
1.000000 0.239216 0.000000
0.000000 0.501961 0.000000
0.239216 0.501961 0.000000
0.501961 0.501961 0.000000
0.921569 0.501961 0.000000
1.000000 0.501961 0.000000
0.000000 0.921569 0.000000
0.239216 0.921569 0.000000
0.501961 0.921569 0.000000
0.921569 0.921569 0.000000
1.000000 0.921569 0.000000
0.000000 1.000000 0.000000
0.239216 1.000000 0.000000
0.501961 1.000000 0.000000
0.921569 1.000000 0.000000
1.000000 1.000000 0.000000
0.000000 0.000000 0.239216
0.239216 0.000000 0.239216
0.501961 0.000000 0.239216
0.921569 0.000000 0.239216
1.000000 0.000000 0.239216
0.000000 0.239216 0.239216
0.239216 0.239216 0.239216
0.501961 0.239216 0.239216
0.921569 0.239216 0.239216
1.000000 0.239216 0.239216
0.000000 0.501961 0.239216
0.239216 0.501961 0.239216
0.501961 0.501961 0.239216
0.921569 0.501961 0.239216
1.000000 0.501961 0.239216
0.000000 0.921569 0.239216
0.239216 0.921569 0.239216
0.501961 0.921569 0.239216
0.921569 0.921569 0.239216
1.000000 0.921569 0.239216
0.000000 1.000000 0.239216
0.239216 1.000000 0.239216
0.501961 1.000000 0.239216
0.921569 1.000000 0.239216
1.000000 1.000000 0.239216
0.000000 0.000000 0.501961
0.239216 0.000000 0.501961
0.501961 0.000000 0.501961
0.921569 0.000000 0.501961
1.000000 0.000000 0.501961
0.000000 0.239216 0.501961
0.239216 0.239216 0.501961
0.501961 0.239216 0.501961
0.921569 0.239216 0.501961
1.000000 0.239216 0.501961
0.000000 0.501961 0.501961
0.239216 0.501961 0.501961
0.501961 0.501961 0.501961
0.921569 0.501961 0.501961
1.000000 0.501961 0.501961
0.000000 0.921569 0.501961
0.239216 0.921569 0.501961
0.501961 0.921569 0.501961
0.921569 0.921569 0.501961
1.000000 0.921569 0.501961
0.000000 1.000000 0.501961
0.239216 1.000000 0.501961
0.501961 1.000000 0.501961
0.921569 1.000000 0.501961
1.000000 1.000000 0.501961
0.000000 0.000000 0.921569
0.239216 0.000000 0.921569
0.501961 0.000000 0.921569
0.921569 0.000000 0.921569
1.000000 0.000000 0.921569
0.000000 0.239216 0.921569
0.239216 0.239216 0.921569
0.501961 0.239216 0.921569
0.921569 0.239216 0.921569
1.000000 0.239216 0.921569
0.000000 0.501961 0.921569
0.239216 0.501961 0.921569
0.501961 0.501961 0.921569
0.921569 0.501961 0.921569
1.000000 0.501961 0.921569
0.000000 0.921569 0.921569
0.239216 0.921569 0.921569
0.501961 0.921569 0.921569
0.921569 0.921569 0.921569
1.000000 0.921569 0.921569
0.000000 1.000000 0.921569
0.239216 1.000000 0.921569
0.501961 1.000000 0.921569
0.921569 1.000000 0.921569
1.000000 1.000000 0.921569
0.000000 0.000000 1.000000
0.239216 0.000000 1.000000
0.501961 0.000000 1.000000
0.921569 0.000000 1.000000
1.000000 0.000000 1.000000
0.000000 0.239216 1.000000
0.239216 0.239216 1.000000
0.501961 0.239216 1.000000
0.921569 0.239216 1.000000
1.000000 0.239216 1.000000
0.000000 0.501961 1.000000
0.239216 0.501961 1.000000
0.501961 0.501961 1.000000
0.921569 0.501961 1.000000
1.000000 0.501961 1.000000
0.000000 0.921569 1.000000
0.239216 0.921569 1.000000
0.501961 0.921569 1.000000
0.921569 0.921569 1.000000
1.000000 0.921569 1.000000
0.000000 1.000000 1.000000
0.239216 1.000000 1.000000
0.501961 1.000000 1.000000
0.921569 1.000000 1.000000
1.000000 1.000000 1.000000
