LUTs/Damaging/LUT_EXPOSURE/saturated_highlghts2.cube
#Generated by lutCreator.js
#Coded by SirSerch
#https://github.com/SirSerch/LutCreatorJs
TITLE lutCreatorJs_25
LUT_3D_SIZE 9
0.000000 0.000000 0.000000
0.117647 0.000000 0.000000
0.239216 0.000000 0.000000
0.368627 0.000000 0.000000
0.501961 0.000000 0.000000
0.643137 0.000000 0.000000
0.921569 0.000000 0.000000
0.968627 0.000000 0.000000
1.000000 0.000000 0.000000
0.000000 0.117647 0.000000
0.117647 0.117647 0.000000
0.239216 0.117647 0.000000
0.368627 0.117647 0.000000
0.501961 0.117647 0.000000
0.643137 0.117647 0.000000
0.921569 0.117647 0.000000
0.968627 0.117647 0.000000
1.000000 0.117647 0.000000
0.000000 0.239216 0.000000
0.117647 0.239216 0.000000
0.239216 0.239216 0.000000
0.368627 0.239216 0.000000
0.501961 0.239216 0.000000
0.643137 0.239216 0.000000
0.921569 0.239216 0.000000
0.968627 0.239216 0.000000
1.000000 0.239216 0.000000
0.000000 0.368627 0.000000
0.117647 0.368627 0.000000
0.239216 0.368627 0.000000
0.368627 0.368627 0.000000
0.501961 0.368627 0.000000
0.643137 0.368627 0.000000
0.921569 0.368627 0.000000
0.968627 0.368627 0.000000
1.000000 0.368627 0.000000
0.000000 0.501961 0.000000
0.117647 0.501961 0.000000
0.239216 0.501961 0.000000
0.368627 0.501961 0.000000
0.501961 0.501961 0.000000
0.643137 0.501961 0.000000
0.921569 0.501961 0.000000
0.968627 0.501961 0.000000
1.000000 0.501961 0.000000
0.000000 0.643137 0.000000
0.117647 0.643137 0.000000
0.239216 0.643137 0.000000
0.368627 0.643137 0.000000
0.501961 0.643137 0.000000
0.643137 0.643137 0.000000
0.921569 0.643137 0.000000
0.968627 0.643137 0.000000
1.000000 0.643137 0.000000
0.000000 0.921569 0.000000
0.117647 0.921569 0.000000
0.239216 0.921569 0.000000
0.368627 0.921569 0.000000
0.501961 0.921569 0.000000
0.643137 0.921569 0.000000
0.921569 0.921569 0.000000
0.968627 0.921569 0.000000
1.000000 0.921569 0.000000
0.000000 0.968627 0.000000
0.117647 0.968627 0.000000
0.239216 0.968627 0.000000
0.368627 0.968627 0.000000
0.501961 0.968627 0.000000
0.643137 0.968627 0.000000
0.921569 0.968627 0.000000
0.968627 0.968627 0.000000
1.000000 0.968627 0.000000
0.000000 1.000000 0.000000
0.117647 1.000000 0.000000
0.239216 1.000000 0.000000
0.368627 1.000000 0.000000
0.501961 1.000000 0.000000
0.643137 1.000000 0.000000
0.921569 1.000000 0.000000
0.968627 1.000000 0.000000
1.000000 1.000000 0.000000
0.000000 0.000000 0.117647
0.117647 0.000000 0.117647
0.239216 0.000000 0.117647
0.368627 0.000000 0.117647
0.501961 0.000000 0.117647
0.643137 0.000000 0.117647
0.921569 0.000000 0.117647
0.968627 0.000000 0.117647
1.000000 0.000000 0.117647
0.000000 0.117647 0.117647
0.117647 0.117647 0.117647
0.239216 0.117647 0.117647
0.368627 0.117647 0.117647
0.501961 0.117647 0.117647
0.643137 0.117647 0.117647
0.921569 0.117647 0.117647
0.968627 0.117647 0.117647
1.000000 0.117647 0.117647
0.000000 0.239216 0.117647
0.117647 0.239216 0.117647
0.239216 0.239216 0.117647
0.368627 0.239216 0.117647
0.501961 0.239216 0.117647
0.643137 0.239216 0.117647
0.921569 0.239216 0.117647
0.968627 0.239216 0.117647
1.000000 0.239216 0.117647
0.000000 0.368627 0.117647
0.117647 0.368627 0.117647
0.239216 0.368627 0.117647
0.368627 0.368627 0.117647
0.501961 0.368627 0.117647
0.643137 0.368627 0.117647
0.921569 0.368627 0.117647
0.968627 0.368627 0.117647
1.000000 0.368627 0.117647
0.000000 0.501961 0.117647
0.117647 0.501961 0.117647
0.239216 0.501961 0.117647
0.368627 0.501961 0.117647
0.501961 0.501961 0.117647
0.643137 0.501961 0.117647
0.921569 0.501961 0.117647
0.968627 0.501961 0.117647
1.000000 0.501961 0.117647
0.000000 0.643137 0.117647
0.117647 0.643137 0.117647
0.239216 0.643137 0.117647
0.368627 0.643137 0.117647
0.501961 0.643137 0.117647
0.643137 0.643137 0.117647
0.921569 0.643137 0.117647
0.968627 0.643137 0.117647
1.000000 0.643137 0.117647
0.000000 0.921569 0.117647
0.117647 0.921569 0.117647
0.239216 0.921569 0.117647
0.368627 0.921569 0.117647
0.501961 0.921569 0.117647
0.643137 0.921569 0.117647
0.921569 0.921569 0.117647
0.968627 0.921569 0.117647
1.000000 0.921569 0.117647
0.000000 0.968627 0.117647
0.117647 0.968627 0.117647
0.239216 0.968627 0.117647
0.368627 0.968627 0.117647
0.501961 0.968627 0.117647
0.643137 0.968627 0.117647
0.921569 0.968627 0.117647
0.968627 0.968627 0.117647
1.000000 0.968627 0.117647
0.000000 1.000000 0.117647
0.117647 1.000000 0.117647
0.239216 1.000000 0.117647
0.368627 1.000000 0.117647
0.501961 1.000000 0.117647
0.643137 1.000000 0.117647
0.921569 1.000000 0.117647
0.968627 1.000000 0.117647
1.000000 1.000000 0.117647
0.000000 0.000000 0.239216
0.117647 0.000000 0.239216
0.239216 0.000000 0.239216
0.368627 0.000000 0.239216
0.501961 0.000000 0.239216
0.643137 0.000000 0.239216
0.921569 0.000000 0.239216
0.968627 0.000000 0.239216
1.000000 0.000000 0.239216
0.000000 0.117647 0.239216
0.117647 0.117647 0.239216
0.239216 0.117647 0.239216
0.368627 0.117647 0.239216
0.501961 0.117647 0.239216
0.643137 0.117647 0.239216
0.921569 0.117647 0.239216
0.968627 0.117647 0.239216
1.000000 0.117647 0.239216
0.000000 0.239216 0.239216
0.117647 0.239216 0.239216
0.239216 0.239216 0.239216
0.368627 0.239216 0.239216
0.501961 0.239216 0.239216
0.643137 0.239216 0.239216
0.921569 0.239216 0.239216
0.968627 0.239216 0.239216
1.000000 0.239216 0.239216
0.000000 0.368627 0.239216
0.117647 0.368627 0.239216
0.239216 0.368627 0.239216
0.368627 0.368627 0.239216
0.501961 0.368627 0.239216
0.643137 0.368627 0.239216
0.921569 0.368627 0.239216
0.968627 0.368627 0.239216
1.000000 0.368627 0.239216
0.000000 0.501961 0.239216
0.117647 0.501961 0.239216
0.239216 0.501961 0.239216
0.368627 0.501961 0.239216
0.501961 0.501961 0.239216
0.643137 0.501961 0.239216
0.921569 0.501961 0.239216
0.968627 0.501961 0.239216
1.000000 0.501961 0.239216
0.000000 0.643137 0.239216
0.117647 0.643137 0.239216
0.239216 0.643137 0.239216
0.368627 0.643137 0.239216
0.501961 0.643137 0.239216
0.643137 0.643137 0.239216
0.921569 0.643137 0.239216
0.968627 0.643137 0.239216
1.000000 0.643137 0.239216
0.000000 0.921569 0.239216
0.117647 0.921569 0.239216
0.239216 0.921569 0.239216
0.368627 0.921569 0.239216
0.501961 0.921569 0.239216
0.643137 0.921569 0.239216
0.921569 0.921569 0.239216
0.968627 0.921569 0.239216
1.000000 0.921569 0.239216
0.000000 0.968627 0.239216
0.117647 0.968627 0.239216
0.239216 0.968627 0.239216
0.368627 0.968627 0.239216
0.501961 0.968627 0.239216
0.643137 0.968627 0.239216
0.921569 0.968627 0.239216
0.968627 0.968627 0.239216
1.000000 0.968627 0.239216
0.000000 1.000000 0.239216
0.117647 1.000000 0.239216
0.239216 1.000000 0.239216
0.368627 1.000000 0.239216
0.501961 1.000000 0.239216
0.643137 1.000000 0.239216
0.921569 1.000000 0.239216
0.968627 1.000000 0.239216
1.000000 1.000000 0.239216
0.000000 0.000000 0.368627
0.117647 0.000000 0.368627
0.239216 0.000000 0.368627
0.368627 0.000000 0.368627
0.501961 0.000000 0.368627
0.643137 0.000000 0.368627
0.921569 0.000000 0.368627
0.968627 0.000000 0.368627
1.000000 0.000000 0.368627
0.000000 0.117647 0.368627
0.117647 0.117647 0.368627
0.239216 0.117647 0.368627
0.368627 0.117647 0.368627
0.501961 0.117647 0.368627
0.643137 0.117647 0.368627
0.921569 0.117647 0.368627
0.968627 0.117647 0.368627
1.000000 0.117647 0.368627
0.000000 0.239216 0.368627
0.117647 0.239216 0.368627
0.239216 0.239216 0.368627
0.368627 0.239216 0.368627
0.501961 0.239216 0.368627
0.643137 0.239216 0.368627
0.921569 0.239216 0.368627
0.968627 0.239216 0.368627
1.000000 0.239216 0.368627
0.000000 0.368627 0.368627
0.117647 0.368627 0.368627
0.239216 0.368627 0.368627
0.368627 0.368627 0.368627
0.501961 0.368627 0.368627
0.643137 0.368627 0.368627
0.921569 0.368627 0.368627
0.968627 0.368627 0.368627
1.000000 0.368627 0.368627
0.000000 0.501961 0.368627
0.117647 0.501961 0.368627
0.239216 0.501961 0.368627
0.368627 0.501961 0.368627
0.501961 0.501961 0.368627
0.643137 0.501961 0.368627
0.921569 0.501961 0.368627
0.968627 0.501961 0.368627
1.000000 0.501961 0.368627
0.000000 0.643137 0.368627
0.117647 0.643137 0.368627
0.239216 0.643137 0.368627
0.368627 0.643137 0.368627
0.501961 0.643137 0.368627
0.643137 0.643137 0.368627
0.921569 0.643137 0.368627
0.968627 0.643137 0.368627
1.000000 0.643137 0.368627
0.000000 0.921569 0.368627
0.117647 0.921569 0.368627
0.239216 0.921569 0.368627
0.368627 0.921569 0.368627
0.501961 0.921569 0.368627
0.643137 0.921569 0.368627
0.921569 0.921569 0.368627
0.968627 0.921569 0.368627
1.000000 0.921569 0.368627
0.000000 0.968627 0.368627
0.117647 0.968627 0.368627
0.239216 0.968627 0.368627
0.368627 0.968627 0.368627
0.501961 0.968627 0.368627
0.643137 0.968627 0.368627
0.921569 0.968627 0.368627
0.968627 0.968627 0.368627
1.000000 0.968627 0.368627
0.000000 1.000000 0.368627
0.117647 1.000000 0.368627
0.239216 1.000000 0.368627
0.368627 1.000000 0.368627
0.501961 1.000000 0.368627
0.643137 1.000000 0.368627
0.921569 1.000000 0.368627
0.968627 1.000000 0.368627
1.000000 1.000000 0.368627
0.000000 0.000000 0.501961
0.117647 0.000000 0.501961
0.239216 0.000000 0.501961
0.368627 0.000000 0.501961
0.501961 0.000000 0.501961
0.643137 0.000000 0.501961
0.921569 0.000000 0.501961
0.968627 0.000000 0.501961
1.000000 0.000000 0.501961
0.000000 0.117647 0.501961
0.117647 0.117647 0.501961
0.239216 0.117647 0.501961
0.368627 0.117647 0.501961
0.501961 0.117647 0.501961
0.643137 0.117647 0.501961
0.921569 0.117647 0.501961
0.968627 0.117647 0.501961
1.000000 0.117647 0.501961
0.000000 0.239216 0.501961
0.117647 0.239216 0.501961
0.239216 0.239216 0.501961
0.368627 0.239216 0.501961
0.501961 0.239216 0.501961
0.643137 0.239216 0.501961
0.921569 0.239216 0.501961
0.968627 0.239216 0.501961
1.000000 0.239216 0.501961
0.000000 0.368627 0.501961
0.117647 0.368627 0.501961
0.239216 0.368627 0.501961
0.368627 0.368627 0.501961
0.501961 0.368627 0.501961
0.643137 0.368627 0.501961
0.921569 0.368627 0.501961
0.968627 0.368627 0.501961
1.000000 0.368627 0.501961
0.000000 0.501961 0.501961
0.117647 0.501961 0.501961
0.239216 0.501961 0.501961
0.368627 0.501961 0.501961
0.501961 0.501961 0.501961
0.643137 0.501961 0.501961
0.921569 0.501961 0.501961
0.968627 0.501961 0.501961
1.000000 0.501961 0.501961
0.000000 0.643137 0.501961
0.117647 0.643137 0.501961
0.239216 0.643137 0.501961
0.368627 0.643137 0.501961
0.501961 0.643137 0.501961
0.643137 0.643137 0.501961
0.921569 0.643137 0.501961
0.968627 0.643137 0.501961
1.000000 0.643137 0.501961
0.000000 0.921569 0.501961
0.117647 0.921569 0.501961
0.239216 0.921569 0.501961
0.368627 0.921569 0.501961
0.501961 0.921569 0.501961
0.643137 0.921569 0.501961
0.921569 0.921569 0.501961
0.968627 0.921569 0.501961
1.000000 0.921569 0.501961
0.000000 0.968627 0.501961
0.117647 0.968627 0.501961
0.239216 0.968627 0.501961
0.368627 0.968627 0.501961
0.501961 0.968627 0.501961
0.643137 0.968627 0.501961
0.921569 0.968627 0.501961
0.968627 0.968627 0.501961
1.000000 0.968627 0.501961
0.000000 1.000000 0.501961
0.117647 1.000000 0.501961
0.239216 1.000000 0.501961
0.368627 1.000000 0.501961
0.501961 1.000000 0.501961
0.643137 1.000000 0.501961
0.921569 1.000000 0.501961
0.968627 1.000000 0.501961
1.000000 1.000000 0.501961
0.000000 0.000000 0.643137
0.117647 0.000000 0.643137
0.239216 0.000000 0.643137
0.368627 0.000000 0.643137
0.501961 0.000000 0.643137
0.643137 0.000000 0.643137
0.921569 0.000000 0.643137
0.968627 0.000000 0.643137
1.000000 0.000000 0.643137
0.000000 0.117647 0.643137
0.117647 0.117647 0.643137
0.239216 0.117647 0.643137
0.368627 0.117647 0.643137
0.501961 0.117647 0.643137
0.643137 0.117647 0.643137
0.921569 0.117647 0.643137
0.968627 0.117647 0.643137
1.000000 0.117647 0.643137
0.000000 0.239216 0.643137
0.117647 0.239216 0.643137
0.239216 0.239216 0.643137
0.368627 0.239216 0.643137
0.501961 0.239216 0.643137
0.643137 0.239216 0.643137
0.921569 0.239216 0.643137
0.968627 0.239216 0.643137
1.000000 0.239216 0.643137
0.000000 0.368627 0.643137
0.117647 0.368627 0.643137
0.239216 0.368627 0.643137
0.368627 0.368627 0.643137
0.501961 0.368627 0.643137
0.643137 0.368627 0.643137
0.921569 0.368627 0.643137
0.968627 0.368627 0.643137
1.000000 0.368627 0.643137
0.000000 0.501961 0.643137
0.117647 0.501961 0.643137
0.239216 0.501961 0.643137
0.368627 0.501961 0.643137
0.501961 0.501961 0.643137
0.643137 0.501961 0.643137
0.921569 0.501961 0.643137
0.968627 0.501961 0.643137
1.000000 0.501961 0.643137
0.000000 0.643137 0.643137
0.117647 0.643137 0.643137
0.239216 0.643137 0.643137
0.368627 0.643137 0.643137
0.501961 0.643137 0.643137
0.643137 0.643137 0.643137
0.921569 0.643137 0.643137
0.968627 0.643137 0.643137
1.000000 0.643137 0.643137
0.000000 0.921569 0.643137
0.117647 0.921569 0.643137
0.239216 0.921569 0.643137
0.368627 0.921569 0.643137
0.501961 0.921569 0.643137
0.643137 0.921569 0.643137
0.921569 0.921569 0.643137
0.968627 0.921569 0.643137
1.000000 0.921569 0.643137
0.000000 0.968627 0.643137
0.117647 0.968627 0.643137
0.239216 0.968627 0.643137
0.368627 0.968627 0.643137
0.501961 0.968627 0.643137
0.643137 0.968627 0.643137
0.921569 0.968627 0.643137
0.968627 0.968627 0.643137
1.000000 0.968627 0.643137
0.000000 1.000000 0.643137
0.117647 1.000000 0.643137
0.239216 1.000000 0.643137
0.368627 1.000000 0.643137
0.501961 1.000000 0.643137
0.643137 1.000000 0.643137
0.921569 1.000000 0.643137
0.968627 1.000000 0.643137
1.000000 1.000000 0.643137
0.000000 0.000000 0.921569
0.117647 0.000000 0.921569
0.239216 0.000000 0.921569
0.368627 0.000000 0.921569
0.501961 0.000000 0.921569
0.643137 0.000000 0.921569
0.921569 0.000000 0.921569
0.968627 0.000000 0.921569
1.000000 0.000000 0.921569
0.000000 0.117647 0.921569
0.117647 0.117647 0.921569
0.239216 0.117647 0.921569
0.368627 0.117647 0.921569
0.501961 0.117647 0.921569
0.643137 0.117647 0.921569
0.921569 0.117647 0.921569
0.968627 0.117647 0.921569
1.000000 0.117647 0.921569
0.000000 0.239216 0.921569
0.117647 0.239216 0.921569
0.239216 0.239216 0.921569
0.368627 0.239216 0.921569
0.501961 0.239216 0.921569
0.643137 0.239216 0.921569
0.921569 0.239216 0.921569
0.968627 0.239216 0.921569
1.000000 0.239216 0.921569
0.000000 0.368627 0.921569
0.117647 0.368627 0.921569
0.239216 0.368627 0.921569
0.368627 0.368627 0.921569
0.501961 0.368627 0.921569
0.643137 0.368627 0.921569
0.921569 0.368627 0.921569
0.968627 0.368627 0.921569
1.000000 0.368627 0.921569
0.000000 0.501961 0.921569
0.117647 0.501961 0.921569
0.239216 0.501961 0.921569
0.368627 0.501961 0.921569
0.501961 0.501961 0.921569
0.643137 0.501961 0.921569
0.921569 0.501961 0.921569
0.968627 0.501961 0.921569
1.000000 0.501961 0.921569
0.000000 0.643137 0.921569
0.117647 0.643137 0.921569
0.239216 0.643137 0.921569
0.368627 0.643137 0.921569
0.501961 0.643137 0.921569
0.643137 0.643137 0.921569
0.921569 0.643137 0.921569
0.968627 0.643137 0.921569
1.000000 0.643137 0.921569
0.000000 0.921569 0.921569
0.117647 0.921569 0.921569
0.239216 0.921569 0.921569
0.368627 0.921569 0.921569
0.501961 0.921569 0.921569
0.643137 0.921569 0.921569
0.921569 0.921569 0.921569
0.968627 0.921569 0.921569
1.000000 0.921569 0.921569
0.000000 0.968627 0.921569
0.117647 0.968627 0.921569
0.239216 0.968627 0.921569
0.368627 0.968627 0.921569
0.501961 0.968627 0.921569
0.643137 0.968627 0.921569
0.921569 0.968627 0.921569
0.968627 0.968627 0.921569
1.000000 0.968627 0.921569
0.000000 1.000000 0.921569
0.117647 1.000000 0.921569
0.239216 1.000000 0.921569
0.368627 1.000000 0.921569
0.501961 1.000000 0.921569
0.643137 1.000000 0.921569
0.921569 1.000000 0.921569
0.968627 1.000000 0.921569
1.000000 1.000000 0.921569
0.000000 0.000000 0.968627
0.117647 0.000000 0.968627
0.239216 0.000000 0.968627
0.368627 0.000000 0.968627
0.501961 0.000000 0.968627
0.643137 0.000000 0.968627
0.921569 0.000000 0.968627
0.968627 0.000000 0.968627
1.000000 0.000000 0.968627
0.000000 0.117647 0.968627
0.117647 0.117647 0.968627
0.239216 0.117647 0.968627
0.368627 0.117647 0.968627
0.501961 0.117647 0.968627
0.643137 0.117647 0.968627
0.921569 0.117647 0.968627
0.968627 0.117647 0.968627
1.000000 0.117647 0.968627
0.000000 0.239216 0.968627
0.117647 0.239216 0.968627
0.239216 0.239216 0.968627
0.368627 0.239216 0.968627
0.501961 0.239216 0.968627
0.643137 0.239216 0.968627
0.921569 0.239216 0.968627
0.968627 0.239216 0.968627
1.000000 0.239216 0.968627
0.000000 0.368627 0.968627
0.117647 0.368627 0.968627
0.239216 0.368627 0.968627
0.368627 0.368627 0.968627
0.501961 0.368627 0.968627
0.643137 0.368627 0.968627
0.921569 0.368627 0.968627
0.968627 0.368627 0.968627
1.000000 0.368627 0.968627
0.000000 0.501961 0.968627
0.117647 0.501961 0.968627
0.239216 0.501961 0.968627
0.368627 0.501961 0.968627
0.501961 0.501961 0.968627
0.643137 0.501961 0.968627
0.921569 0.501961 0.968627
0.968627 0.501961 0.968627
1.000000 0.501961 0.968627
0.000000 0.643137 0.968627
0.117647 0.643137 0.968627
0.239216 0.643137 0.968627
0.368627 0.643137 0.968627
0.501961 0.643137 0.968627
0.643137 0.643137 0.968627
0.921569 0.643137 0.968627
0.968627 0.643137 0.968627
1.000000 0.643137 0.968627
0.000000 0.921569 0.968627
0.117647 0.921569 0.968627
0.239216 0.921569 0.968627
0.368627 0.921569 0.968627
0.501961 0.921569 0.968627
0.643137 0.921569 0.968627
0.921569 0.921569 0.968627
0.968627 0.921569 0.968627
1.000000 0.921569 0.968627
0.000000 0.968627 0.968627
0.117647 0.968627 0.968627
0.239216 0.968627 0.968627
0.368627 0.968627 0.968627
0.501961 0.968627 0.968627
0.643137 0.968627 0.968627
0.921569 0.968627 0.968627
0.968627 0.968627 0.968627
1.000000 0.968627 0.968627
0.000000 1.000000 0.968627
0.117647 1.000000 0.968627
0.239216 1.000000 0.968627
0.368627 1.000000 0.968627
0.501961 1.000000 0.968627
0.643137 1.000000 0.968627
0.921569 1.000000 0.968627
0.968627 1.000000 0.968627
1.000000 1.000000 0.968627
0.000000 0.000000 1.000000
0.117647 0.000000 1.000000
0.239216 0.000000 1.000000
0.368627 0.000000 1.000000
0.501961 0.000000 1.000000
0.643137 0.000000 1.000000
0.921569 0.000000 1.000000
0.968627 0.000000 1.000000
1.000000 0.000000 1.000000
0.000000 0.117647 1.000000
0.117647 0.117647 1.000000
0.239216 0.117647 1.000000
0.368627 0.117647 1.000000
0.501961 0.117647 1.000000
0.643137 0.117647 1.000000
0.921569 0.117647 1.000000
0.968627 0.117647 1.000000
1.000000 0.117647 1.000000
0.000000 0.239216 1.000000
0.117647 0.239216 1.000000
0.239216 0.239216 1.000000
0.368627 0.239216 1.000000
0.501961 0.239216 1.000000
0.643137 0.239216 1.000000
0.921569 0.239216 1.000000
0.968627 0.239216 1.000000
1.000000 0.239216 1.000000
0.000000 0.368627 1.000000
0.117647 0.368627 1.000000
0.239216 0.368627 1.000000
0.368627 0.368627 1.000000
0.501961 0.368627 1.000000
0.643137 0.368627 1.000000
0.921569 0.368627 1.000000
0.968627 0.368627 1.000000
1.000000 0.368627 1.000000
0.000000 0.501961 1.000000
0.117647 0.501961 1.000000
0.239216 0.501961 1.000000
0.368627 0.501961 1.000000
0.501961 0.501961 1.000000
0.643137 0.501961 1.000000
0.921569 0.501961 1.000000
0.968627 0.501961 1.000000
1.000000 0.501961 1.000000
0.000000 0.643137 1.000000
0.117647 0.643137 1.000000
0.239216 0.643137 1.000000
0.368627 0.643137 1.000000
0.501961 0.643137 1.000000
0.643137 0.643137 1.000000
0.921569 0.643137 1.000000
0.968627 0.643137 1.000000
1.000000 0.643137 1.000000
0.000000 0.921569 1.000000
0.117647 0.921569 1.000000
0.239216 0.921569 1.000000
0.368627 0.921569 1.000000
0.501961 0.921569 1.000000
0.643137 0.921569 1.000000
0.921569 0.921569 1.000000
0.968627 0.921569 1.000000
1.000000 0.921569 1.000000
0.000000 0.968627 1.000000
0.117647 0.968627 1.000000
0.239216 0.968627 1.000000
0.368627 0.968627 1.000000
0.501961 0.968627 1.000000
0.643137 0.968627 1.000000
0.921569 0.968627 1.000000
0.968627 0.968627 1.000000
1.000000 0.968627 1.000000
0.000000 1.000000 1.000000
0.117647 1.000000 1.000000
0.239216 1.000000 1.000000
0.368627 1.000000 1.000000
0.501961 1.000000 1.000000
0.643137 1.000000 1.000000
0.921569 1.000000 1.000000
0.968627 1.000000 1.000000
1.000000 1.000000 1.000000
