LUTs/Damaging/LUT_EXPOSURE/under_exposed.cube
#Generated by lutCreator.js
#Coded by SirSerch
#https://github.com/SirSerch/LutCreatorJs
TITLE lutCreatorJs_25
LUT_3D_SIZE 25
0.000000 0.000000 0.000000
0.015686 0.000000 0.000000
0.035294 0.000000 0.000000
0.062745 0.000000 0.000000
0.090196 0.000000 0.000000
0.117647 0.000000 0.000000
0.145098 0.000000 0.000000
0.172549 0.000000 0.000000
0.200000 0.000000 0.000000
0.227451 0.000000 0.000000
0.254902 0.000000 0.000000
0.282353 0.000000 0.000000
0.309804 0.000000 0.000000
0.337255 0.000000 0.000000
0.364706 0.000000 0.000000
0.392157 0.000000 0.000000
0.419608 0.000000 0.000000
0.447059 0.000000 0.000000
0.474510 0.000000 0.000000
0.501961 0.000000 0.000000
0.529412 0.000000 0.000000
0.556863 0.000000 0.000000
0.584314 0.000000 0.000000
0.611765 0.000000 0.000000
0.639216 0.000000 0.000000
0.000000 0.015686 0.000000
0.015686 0.015686 0.000000
0.035294 0.015686 0.000000
0.062745 0.015686 0.000000
0.090196 0.015686 0.000000
0.117647 0.015686 0.000000
0.145098 0.015686 0.000000
0.172549 0.015686 0.000000
0.200000 0.015686 0.000000
0.227451 0.015686 0.000000
0.254902 0.015686 0.000000
0.282353 0.015686 0.000000
0.309804 0.015686 0.000000
0.337255 0.015686 0.000000
0.364706 0.015686 0.000000
0.392157 0.015686 0.000000
0.419608 0.015686 0.000000
0.447059 0.015686 0.000000
0.474510 0.015686 0.000000
0.501961 0.015686 0.000000
0.529412 0.015686 0.000000
0.556863 0.015686 0.000000
0.584314 0.015686 0.000000
0.611765 0.015686 0.000000
0.639216 0.015686 0.000000
0.000000 0.035294 0.000000
0.015686 0.035294 0.000000
0.035294 0.035294 0.000000
0.062745 0.035294 0.000000
0.090196 0.035294 0.000000
0.117647 0.035294 0.000000
0.145098 0.035294 0.000000
0.172549 0.035294 0.000000
0.200000 0.035294 0.000000
0.227451 0.035294 0.000000
0.254902 0.035294 0.000000
0.282353 0.035294 0.000000
0.309804 0.035294 0.000000
0.337255 0.035294 0.000000
0.364706 0.035294 0.000000
0.392157 0.035294 0.000000
0.419608 0.035294 0.000000
0.447059 0.035294 0.000000
0.474510 0.035294 0.000000
0.501961 0.035294 0.000000
0.529412 0.035294 0.000000
0.556863 0.035294 0.000000
0.584314 0.035294 0.000000
0.611765 0.035294 0.000000
0.639216 0.035294 0.000000
0.000000 0.062745 0.000000
0.015686 0.062745 0.000000
0.035294 0.062745 0.000000
0.062745 0.062745 0.000000
0.090196 0.062745 0.000000
0.117647 0.062745 0.000000
0.145098 0.062745 0.000000
0.172549 0.062745 0.000000
0.200000 0.062745 0.000000
0.227451 0.062745 0.000000
0.254902 0.062745 0.000000
0.282353 0.062745 0.000000
0.309804 0.062745 0.000000
0.337255 0.062745 0.000000
0.364706 0.062745 0.000000
0.392157 0.062745 0.000000
0.419608 0.062745 0.000000
0.447059 0.062745 0.000000
0.474510 0.062745 0.000000
0.501961 0.062745 0.000000
0.529412 0.062745 0.000000
0.556863 0.062745 0.000000
0.584314 0.062745 0.000000
0.611765 0.062745 0.000000
0.639216 0.062745 0.000000
0.000000 0.090196 0.000000
0.015686 0.090196 0.000000
0.035294 0.090196 0.000000
0.062745 0.090196 0.000000
0.090196 0.090196 0.000000
0.117647 0.090196 0.000000
0.145098 0.090196 0.000000
0.172549 0.090196 0.000000
0.200000 0.090196 0.000000
0.227451 0.090196 0.000000
0.254902 0.090196 0.000000
0.282353 0.090196 0.000000
0.309804 0.090196 0.000000
0.337255 0.090196 0.000000
0.364706 0.090196 0.000000
0.392157 0.090196 0.000000
0.419608 0.090196 0.000000
0.447059 0.090196 0.000000
0.474510 0.090196 0.000000
0.501961 0.090196 0.000000
0.529412 0.090196 0.000000
0.556863 0.090196 0.000000
0.584314 0.090196 0.000000
0.611765 0.090196 0.000000
0.639216 0.090196 0.000000
0.000000 0.117647 0.000000
0.015686 0.117647 0.000000
0.035294 0.117647 0.000000
0.062745 0.117647 0.000000
0.090196 0.117647 0.000000
0.117647 0.117647 0.000000
0.145098 0.117647 0.000000
0.172549 0.117647 0.000000
0.200000 0.117647 0.000000
0.227451 0.117647 0.000000
0.254902 0.117647 0.000000
0.282353 0.117647 0.000000
0.309804 0.117647 0.000000
0.337255 0.117647 0.000000
0.364706 0.117647 0.000000
0.392157 0.117647 0.000000
0.419608 0.117647 0.000000
0.447059 0.117647 0.000000
0.474510 0.117647 0.000000
0.501961 0.117647 0.000000
0.529412 0.117647 0.000000
0.556863 0.117647 0.000000
0.584314 0.117647 0.000000
0.611765 0.117647 0.000000
0.639216 0.117647 0.000000
0.000000 0.145098 0.000000
0.015686 0.145098 0.000000
0.035294 0.145098 0.000000
0.062745 0.145098 0.000000
0.090196 0.145098 0.000000
0.117647 0.145098 0.000000
0.145098 0.145098 0.000000
0.172549 0.145098 0.000000
0.200000 0.145098 0.000000
0.227451 0.145098 0.000000
0.254902 0.145098 0.000000
0.282353 0.145098 0.000000
0.309804 0.145098 0.000000
0.337255 0.145098 0.000000
0.364706 0.145098 0.000000
0.392157 0.145098 0.000000
0.419608 0.145098 0.000000
0.447059 0.145098 0.000000
0.474510 0.145098 0.000000
0.501961 0.145098 0.000000
0.529412 0.145098 0.000000
0.556863 0.145098 0.000000
0.584314 0.145098 0.000000
0.611765 0.145098 0.000000
0.639216 0.145098 0.000000
0.000000 0.172549 0.000000
0.015686 0.172549 0.000000
0.035294 0.172549 0.000000
0.062745 0.172549 0.000000
0.090196 0.172549 0.000000
0.117647 0.172549 0.000000
0.145098 0.172549 0.000000
0.172549 0.172549 0.000000
0.200000 0.172549 0.000000
0.227451 0.172549 0.000000
0.254902 0.172549 0.000000
0.282353 0.172549 0.000000
0.309804 0.172549 0.000000
0.337255 0.172549 0.000000
0.364706 0.172549 0.000000
0.392157 0.172549 0.000000
0.419608 0.172549 0.000000
0.447059 0.172549 0.000000
0.474510 0.172549 0.000000
0.501961 0.172549 0.000000
0.529412 0.172549 0.000000
0.556863 0.172549 0.000000
0.584314 0.172549 0.000000
0.611765 0.172549 0.000000
0.639216 0.172549 0.000000
0.000000 0.200000 0.000000
0.015686 0.200000 0.000000
0.035294 0.200000 0.000000
0.062745 0.200000 0.000000
0.090196 0.200000 0.000000
0.117647 0.200000 0.000000
0.145098 0.200000 0.000000
0.172549 0.200000 0.000000
0.200000 0.200000 0.000000
0.227451 0.200000 0.000000
0.254902 0.200000 0.000000
0.282353 0.200000 0.000000
0.309804 0.200000 0.000000
0.337255 0.200000 0.000000
0.364706 0.200000 0.000000
0.392157 0.200000 0.000000
0.419608 0.200000 0.000000
0.447059 0.200000 0.000000
0.474510 0.200000 0.000000
0.501961 0.200000 0.000000
0.529412 0.200000 0.000000
0.556863 0.200000 0.000000
0.584314 0.200000 0.000000
0.611765 0.200000 0.000000
0.639216 0.200000 0.000000
0.000000 0.227451 0.000000
0.015686 0.227451 0.000000
0.035294 0.227451 0.000000
0.062745 0.227451 0.000000
0.090196 0.227451 0.000000
0.117647 0.227451 0.000000
0.145098 0.227451 0.000000
0.172549 0.227451 0.000000
0.200000 0.227451 0.000000
0.227451 0.227451 0.000000
0.254902 0.227451 0.000000
0.282353 0.227451 0.000000
0.309804 0.227451 0.000000
0.337255 0.227451 0.000000
0.364706 0.227451 0.000000
0.392157 0.227451 0.000000
0.419608 0.227451 0.000000
0.447059 0.227451 0.000000
0.474510 0.227451 0.000000
0.501961 0.227451 0.000000
0.529412 0.227451 0.000000
0.556863 0.227451 0.000000
0.584314 0.227451 0.000000
0.611765 0.227451 0.000000
0.639216 0.227451 0.000000
0.000000 0.254902 0.000000
0.015686 0.254902 0.000000
0.035294 0.254902 0.000000
0.062745 0.254902 0.000000
0.090196 0.254902 0.000000
0.117647 0.254902 0.000000
0.145098 0.254902 0.000000
0.172549 0.254902 0.000000
0.200000 0.254902 0.000000
0.227451 0.254902 0.000000
0.254902 0.254902 0.000000
0.282353 0.254902 0.000000
0.309804 0.254902 0.000000
0.337255 0.254902 0.000000
0.364706 0.254902 0.000000
0.392157 0.254902 0.000000
0.419608 0.254902 0.000000
0.447059 0.254902 0.000000
0.474510 0.254902 0.000000
0.501961 0.254902 0.000000
0.529412 0.254902 0.000000
0.556863 0.254902 0.000000
0.584314 0.254902 0.000000
0.611765 0.254902 0.000000
0.639216 0.254902 0.000000
0.000000 0.282353 0.000000
0.015686 0.282353 0.000000
0.035294 0.282353 0.000000
0.062745 0.282353 0.000000
0.090196 0.282353 0.000000
0.117647 0.282353 0.000000
0.145098 0.282353 0.000000
0.172549 0.282353 0.000000
0.200000 0.282353 0.000000
0.227451 0.282353 0.000000
0.254902 0.282353 0.000000
0.282353 0.282353 0.000000
0.309804 0.282353 0.000000
0.337255 0.282353 0.000000
0.364706 0.282353 0.000000
0.392157 0.282353 0.000000
0.419608 0.282353 0.000000
0.447059 0.282353 0.000000
0.474510 0.282353 0.000000
0.501961 0.282353 0.000000
0.529412 0.282353 0.000000
0.556863 0.282353 0.000000
0.584314 0.282353 0.000000
0.611765 0.282353 0.000000
0.639216 0.282353 0.000000
0.000000 0.309804 0.000000
0.015686 0.309804 0.000000
0.035294 0.309804 0.000000
0.062745 0.309804 0.000000
0.090196 0.309804 0.000000
0.117647 0.309804 0.000000
0.145098 0.309804 0.000000
0.172549 0.309804 0.000000
0.200000 0.309804 0.000000
0.227451 0.309804 0.000000
0.254902 0.309804 0.000000
0.282353 0.309804 0.000000
0.309804 0.309804 0.000000
0.337255 0.309804 0.000000
0.364706 0.309804 0.000000
0.392157 0.309804 0.000000
0.419608 0.309804 0.000000
0.447059 0.309804 0.000000
0.474510 0.309804 0.000000
0.501961 0.309804 0.000000
0.529412 0.309804 0.000000
0.556863 0.309804 0.000000
0.584314 0.309804 0.000000
0.611765 0.309804 0.000000
0.639216 0.309804 0.000000
0.000000 0.337255 0.000000
0.015686 0.337255 0.000000
0.035294 0.337255 0.000000
0.062745 0.337255 0.000000
0.090196 0.337255 0.000000
0.117647 0.337255 0.000000
0.145098 0.337255 0.000000
0.172549 0.337255 0.000000
0.200000 0.337255 0.000000
0.227451 0.337255 0.000000
0.254902 0.337255 0.000000
0.282353 0.337255 0.000000
0.309804 0.337255 0.000000
0.337255 0.337255 0.000000
0.364706 0.337255 0.000000
0.392157 0.337255 0.000000
0.419608 0.337255 0.000000
0.447059 0.337255 0.000000
0.474510 0.337255 0.000000
0.501961 0.337255 0.000000
0.529412 0.337255 0.000000
0.556863 0.337255 0.000000
0.584314 0.337255 0.000000
0.611765 0.337255 0.000000
0.639216 0.337255 0.000000
0.000000 0.364706 0.000000
0.015686 0.364706 0.000000
0.035294 0.364706 0.000000
0.062745 0.364706 0.000000
0.090196 0.364706 0.000000
0.117647 0.364706 0.000000
0.145098 0.364706 0.000000
0.172549 0.364706 0.000000
0.200000 0.364706 0.000000
0.227451 0.364706 0.000000
0.254902 0.364706 0.000000
0.282353 0.364706 0.000000
0.309804 0.364706 0.000000
0.337255 0.364706 0.000000
0.364706 0.364706 0.000000
0.392157 0.364706 0.000000
0.419608 0.364706 0.000000
0.447059 0.364706 0.000000
0.474510 0.364706 0.000000
0.501961 0.364706 0.000000
0.529412 0.364706 0.000000
0.556863 0.364706 0.000000
0.584314 0.364706 0.000000
0.611765 0.364706 0.000000
0.639216 0.364706 0.000000
0.000000 0.392157 0.000000
0.015686 0.392157 0.000000
0.035294 0.392157 0.000000
0.062745 0.392157 0.000000
0.090196 0.392157 0.000000
0.117647 0.392157 0.000000
0.145098 0.392157 0.000000
0.172549 0.392157 0.000000
0.200000 0.392157 0.000000
0.227451 0.392157 0.000000
0.254902 0.392157 0.000000
0.282353 0.392157 0.000000
0.309804 0.392157 0.000000
0.337255 0.392157 0.000000
0.364706 0.392157 0.000000
0.392157 0.392157 0.000000
0.419608 0.392157 0.000000
0.447059 0.392157 0.000000
0.474510 0.392157 0.000000
0.501961 0.392157 0.000000
0.529412 0.392157 0.000000
0.556863 0.392157 0.000000
0.584314 0.392157 0.000000
0.611765 0.392157 0.000000
0.639216 0.392157 0.000000
0.000000 0.419608 0.000000
0.015686 0.419608 0.000000
0.035294 0.419608 0.000000
0.062745 0.419608 0.000000
0.090196 0.419608 0.000000
0.117647 0.419608 0.000000
0.145098 0.419608 0.000000
0.172549 0.419608 0.000000
0.200000 0.419608 0.000000
0.227451 0.419608 0.000000
0.254902 0.419608 0.000000
0.282353 0.419608 0.000000
0.309804 0.419608 0.000000
0.337255 0.419608 0.000000
0.364706 0.419608 0.000000
0.392157 0.419608 0.000000
0.419608 0.419608 0.000000
0.447059 0.419608 0.000000
0.474510 0.419608 0.000000
0.501961 0.419608 0.000000
0.529412 0.419608 0.000000
0.556863 0.419608 0.000000
0.584314 0.419608 0.000000
0.611765 0.419608 0.000000
0.639216 0.419608 0.000000
0.000000 0.447059 0.000000
0.015686 0.447059 0.000000
0.035294 0.447059 0.000000
0.062745 0.447059 0.000000
0.090196 0.447059 0.000000
0.117647 0.447059 0.000000
0.145098 0.447059 0.000000
0.172549 0.447059 0.000000
0.200000 0.447059 0.000000
0.227451 0.447059 0.000000
0.254902 0.447059 0.000000
0.282353 0.447059 0.000000
0.309804 0.447059 0.000000
0.337255 0.447059 0.000000
0.364706 0.447059 0.000000
0.392157 0.447059 0.000000
0.419608 0.447059 0.000000
0.447059 0.447059 0.000000
0.474510 0.447059 0.000000
0.501961 0.447059 0.000000
0.529412 0.447059 0.000000
0.556863 0.447059 0.000000
0.584314 0.447059 0.000000
0.611765 0.447059 0.000000
0.639216 0.447059 0.000000
0.000000 0.474510 0.000000
0.015686 0.474510 0.000000
0.035294 0.474510 0.000000
0.062745 0.474510 0.000000
0.090196 0.474510 0.000000
0.117647 0.474510 0.000000
0.145098 0.474510 0.000000
0.172549 0.474510 0.000000
0.200000 0.474510 0.000000
0.227451 0.474510 0.000000
0.254902 0.474510 0.000000
0.282353 0.474510 0.000000
0.309804 0.474510 0.000000
0.337255 0.474510 0.000000
0.364706 0.474510 0.000000
0.392157 0.474510 0.000000
0.419608 0.474510 0.000000
0.447059 0.474510 0.000000
0.474510 0.474510 0.000000
0.501961 0.474510 0.000000
0.529412 0.474510 0.000000
0.556863 0.474510 0.000000
0.584314 0.474510 0.000000
0.611765 0.474510 0.000000
0.639216 0.474510 0.000000
0.000000 0.501961 0.000000
0.015686 0.501961 0.000000
0.035294 0.501961 0.000000
0.062745 0.501961 0.000000
0.090196 0.501961 0.000000
0.117647 0.501961 0.000000
0.145098 0.501961 0.000000
0.172549 0.501961 0.000000
0.200000 0.501961 0.000000
0.227451 0.501961 0.000000
0.254902 0.501961 0.000000
0.282353 0.501961 0.000000
0.309804 0.501961 0.000000
0.337255 0.501961 0.000000
0.364706 0.501961 0.000000
0.392157 0.501961 0.000000
0.419608 0.501961 0.000000
0.447059 0.501961 0.000000
0.474510 0.501961 0.000000
0.501961 0.501961 0.000000
0.529412 0.501961 0.000000
0.556863 0.501961 0.000000
0.584314 0.501961 0.000000
0.611765 0.501961 0.000000
0.639216 0.501961 0.000000
0.000000 0.529412 0.000000
0.015686 0.529412 0.000000
0.035294 0.529412 0.000000
0.062745 0.529412 0.000000
0.090196 0.529412 0.000000
0.117647 0.529412 0.000000
0.145098 0.529412 0.000000
0.172549 0.529412 0.000000
0.200000 0.529412 0.000000
0.227451 0.529412 0.000000
0.254902 0.529412 0.000000
0.282353 0.529412 0.000000
0.309804 0.529412 0.000000
0.337255 0.529412 0.000000
0.364706 0.529412 0.000000
0.392157 0.529412 0.000000
0.419608 0.529412 0.000000
0.447059 0.529412 0.000000
0.474510 0.529412 0.000000
0.501961 0.529412 0.000000
0.529412 0.529412 0.000000
0.556863 0.529412 0.000000
0.584314 0.529412 0.000000
0.611765 0.529412 0.000000
0.639216 0.529412 0.000000
0.000000 0.556863 0.000000
0.015686 0.556863 0.000000
0.035294 0.556863 0.000000
0.062745 0.556863 0.000000
0.090196 0.556863 0.000000
0.117647 0.556863 0.000000
0.145098 0.556863 0.000000
0.172549 0.556863 0.000000
0.200000 0.556863 0.000000
0.227451 0.556863 0.000000
0.254902 0.556863 0.000000
0.282353 0.556863 0.000000
0.309804 0.556863 0.000000
0.337255 0.556863 0.000000
0.364706 0.556863 0.000000
0.392157 0.556863 0.000000
0.419608 0.556863 0.000000
0.447059 0.556863 0.000000
0.474510 0.556863 0.000000
0.501961 0.556863 0.000000
0.529412 0.556863 0.000000
0.556863 0.556863 0.000000
0.584314 0.556863 0.000000
0.611765 0.556863 0.000000
0.639216 0.556863 0.000000
0.000000 0.584314 0.000000
0.015686 0.584314 0.000000
0.035294 0.584314 0.000000
0.062745 0.584314 0.000000
0.090196 0.584314 0.000000
0.117647 0.584314 0.000000
0.145098 0.584314 0.000000
0.172549 0.584314 0.000000
0.200000 0.584314 0.000000
0.227451 0.584314 0.000000
0.254902 0.584314 0.000000
0.282353 0.584314 0.000000
0.309804 0.584314 0.000000
0.337255 0.584314 0.000000
0.364706 0.584314 0.000000
0.392157 0.584314 0.000000
0.419608 0.584314 0.000000
0.447059 0.584314 0.000000
0.474510 0.584314 0.000000
0.501961 0.584314 0.000000
0.529412 0.584314 0.000000
0.556863 0.584314 0.000000
0.584314 0.584314 0.000000
0.611765 0.584314 0.000000
0.639216 0.584314 0.000000
0.000000 0.611765 0.000000
0.015686 0.611765 0.000000
0.035294 0.611765 0.000000
0.062745 0.611765 0.000000
0.090196 0.611765 0.000000
0.117647 0.611765 0.000000
0.145098 0.611765 0.000000
0.172549 0.611765 0.000000
0.200000 0.611765 0.000000
0.227451 0.611765 0.000000
0.254902 0.611765 0.000000
0.282353 0.611765 0.000000
0.309804 0.611765 0.000000
0.337255 0.611765 0.000000
0.364706 0.611765 0.000000
0.392157 0.611765 0.000000
0.419608 0.611765 0.000000
0.447059 0.611765 0.000000
0.474510 0.611765 0.000000
0.501961 0.611765 0.000000
0.529412 0.611765 0.000000
0.556863 0.611765 0.000000
0.584314 0.611765 0.000000
0.611765 0.611765 0.000000
0.639216 0.611765 0.000000
0.000000 0.639216 0.000000
0.015686 0.639216 0.000000
0.035294 0.639216 0.000000
0.062745 0.639216 0.000000
0.090196 0.639216 0.000000
0.117647 0.639216 0.000000
0.145098 0.639216 0.000000
0.172549 0.639216 0.000000
0.200000 0.639216 0.000000
0.227451 0.639216 0.000000
0.254902 0.639216 0.000000
0.282353 0.639216 0.000000
0.309804 0.639216 0.000000
0.337255 0.639216 0.000000
0.364706 0.639216 0.000000
0.392157 0.639216 0.000000
0.419608 0.639216 0.000000
0.447059 0.639216 0.000000
0.474510 0.639216 0.000000
0.501961 0.639216 0.000000
0.529412 0.639216 0.000000
0.556863 0.639216 0.000000
0.584314 0.639216 0.000000
0.611765 0.639216 0.000000
0.639216 0.639216 0.000000
0.000000 0.000000 0.015686
0.015686 0.000000 0.015686
0.035294 0.000000 0.015686
0.062745 0.000000 0.015686
0.090196 0.000000 0.015686
0.117647 0.000000 0.015686
0.145098 0.000000 0.015686
0.172549 0.000000 0.015686
0.200000 0.000000 0.015686
0.227451 0.000000 0.015686
0.254902 0.000000 0.015686
0.282353 0.000000 0.015686
0.309804 0.000000 0.015686
0.337255 0.000000 0.015686
0.364706 0.000000 0.015686
0.392157 0.000000 0.015686
0.419608 0.000000 0.015686
0.447059 0.000000 0.015686
0.474510 0.000000 0.015686
0.501961 0.000000 0.015686
0.529412 0.000000 0.015686
0.556863 0.000000 0.015686
0.584314 0.000000 0.015686
0.611765 0.000000 0.015686
0.639216 0.000000 0.015686
0.000000 0.015686 0.015686
0.015686 0.015686 0.015686
0.035294 0.015686 0.015686
0.062745 0.015686 0.015686
0.090196 0.015686 0.015686
0.117647 0.015686 0.015686
0.145098 0.015686 0.015686
0.172549 0.015686 0.015686
0.200000 0.015686 0.015686
0.227451 0.015686 0.015686
0.254902 0.015686 0.015686
0.282353 0.015686 0.015686
0.309804 0.015686 0.015686
0.337255 0.015686 0.015686
0.364706 0.015686 0.015686
0.392157 0.015686 0.015686
0.419608 0.015686 0.015686
0.447059 0.015686 0.015686
0.474510 0.015686 0.015686
0.501961 0.015686 0.015686
0.529412 0.015686 0.015686
0.556863 0.015686 0.015686
0.584314 0.015686 0.015686
0.611765 0.015686 0.015686
0.639216 0.015686 0.015686
0.000000 0.035294 0.015686
0.015686 0.035294 0.015686
0.035294 0.035294 0.015686
0.062745 0.035294 0.015686
0.090196 0.035294 0.015686
0.117647 0.035294 0.015686
0.145098 0.035294 0.015686
0.172549 0.035294 0.015686
0.200000 0.035294 0.015686
0.227451 0.035294 0.015686
0.254902 0.035294 0.015686
0.282353 0.035294 0.015686
0.309804 0.035294 0.015686
0.337255 0.035294 0.015686
0.364706 0.035294 0.015686
0.392157 0.035294 0.015686
0.419608 0.035294 0.015686
0.447059 0.035294 0.015686
0.474510 0.035294 0.015686
0.501961 0.035294 0.015686
0.529412 0.035294 0.015686
0.556863 0.035294 0.015686
0.584314 0.035294 0.015686
0.611765 0.035294 0.015686
0.639216 0.035294 0.015686
0.000000 0.062745 0.015686
0.015686 0.062745 0.015686
0.035294 0.062745 0.015686
0.062745 0.062745 0.015686
0.090196 0.062745 0.015686
0.117647 0.062745 0.015686
0.145098 0.062745 0.015686
0.172549 0.062745 0.015686
0.200000 0.062745 0.015686
0.227451 0.062745 0.015686
0.254902 0.062745 0.015686
0.282353 0.062745 0.015686
0.309804 0.062745 0.015686
0.337255 0.062745 0.015686
0.364706 0.062745 0.015686
0.392157 0.062745 0.015686
0.419608 0.062745 0.015686
0.447059 0.062745 0.015686
0.474510 0.062745 0.015686
0.501961 0.062745 0.015686
0.529412 0.062745 0.015686
0.556863 0.062745 0.015686
0.584314 0.062745 0.015686
0.611765 0.062745 0.015686
0.639216 0.062745 0.015686
0.000000 0.090196 0.015686
0.015686 0.090196 0.015686
0.035294 0.090196 0.015686
0.062745 0.090196 0.015686
0.090196 0.090196 0.015686
0.117647 0.090196 0.015686
0.145098 0.090196 0.015686
0.172549 0.090196 0.015686
0.200000 0.090196 0.015686
0.227451 0.090196 0.015686
0.254902 0.090196 0.015686
0.282353 0.090196 0.015686
0.309804 0.090196 0.015686
0.337255 0.090196 0.015686
0.364706 0.090196 0.015686
0.392157 0.090196 0.015686
0.419608 0.090196 0.015686
0.447059 0.090196 0.015686
0.474510 0.090196 0.015686
0.501961 0.090196 0.015686
0.529412 0.090196 0.015686
0.556863 0.090196 0.015686
0.584314 0.090196 0.015686
0.611765 0.090196 0.015686
0.639216 0.090196 0.015686
0.000000 0.117647 0.015686
0.015686 0.117647 0.015686
0.035294 0.117647 0.015686
0.062745 0.117647 0.015686
0.090196 0.117647 0.015686
0.117647 0.117647 0.015686
0.145098 0.117647 0.015686
0.172549 0.117647 0.015686
0.200000 0.117647 0.015686
0.227451 0.117647 0.015686
0.254902 0.117647 0.015686
0.282353 0.117647 0.015686
0.309804 0.117647 0.015686
0.337255 0.117647 0.015686
0.364706 0.117647 0.015686
0.392157 0.117647 0.015686
0.419608 0.117647 0.015686
0.447059 0.117647 0.015686
0.474510 0.117647 0.015686
0.501961 0.117647 0.015686
0.529412 0.117647 0.015686
0.556863 0.117647 0.015686
0.584314 0.117647 0.015686
0.611765 0.117647 0.015686
0.639216 0.117647 0.015686
0.000000 0.145098 0.015686
0.015686 0.145098 0.015686
0.035294 0.145098 0.015686
0.062745 0.145098 0.015686
0.090196 0.145098 0.015686
0.117647 0.145098 0.015686
0.145098 0.145098 0.015686
0.172549 0.145098 0.015686
0.200000 0.145098 0.015686
0.227451 0.145098 0.015686
0.254902 0.145098 0.015686
0.282353 0.145098 0.015686
0.309804 0.145098 0.015686
0.337255 0.145098 0.015686
0.364706 0.145098 0.015686
0.392157 0.145098 0.015686
0.419608 0.145098 0.015686
0.447059 0.145098 0.015686
0.474510 0.145098 0.015686
0.501961 0.145098 0.015686
0.529412 0.145098 0.015686
0.556863 0.145098 0.015686
0.584314 0.145098 0.015686
0.611765 0.145098 0.015686
0.639216 0.145098 0.015686
0.000000 0.172549 0.015686
0.015686 0.172549 0.015686
0.035294 0.172549 0.015686
0.062745 0.172549 0.015686
0.090196 0.172549 0.015686
0.117647 0.172549 0.015686
0.145098 0.172549 0.015686
0.172549 0.172549 0.015686
0.200000 0.172549 0.015686
0.227451 0.172549 0.015686
0.254902 0.172549 0.015686
0.282353 0.172549 0.015686
0.309804 0.172549 0.015686
0.337255 0.172549 0.015686
0.364706 0.172549 0.015686
0.392157 0.172549 0.015686
0.419608 0.172549 0.015686
0.447059 0.172549 0.015686
0.474510 0.172549 0.015686
0.501961 0.172549 0.015686
0.529412 0.172549 0.015686
0.556863 0.172549 0.015686
0.584314 0.172549 0.015686
0.611765 0.172549 0.015686
0.639216 0.172549 0.015686
0.000000 0.200000 0.015686
0.015686 0.200000 0.015686
0.035294 0.200000 0.015686
0.062745 0.200000 0.015686
0.090196 0.200000 0.015686
0.117647 0.200000 0.015686
0.145098 0.200000 0.015686
0.172549 0.200000 0.015686
0.200000 0.200000 0.015686
0.227451 0.200000 0.015686
0.254902 0.200000 0.015686
0.282353 0.200000 0.015686
0.309804 0.200000 0.015686
0.337255 0.200000 0.015686
0.364706 0.200000 0.015686
0.392157 0.200000 0.015686
0.419608 0.200000 0.015686
0.447059 0.200000 0.015686
0.474510 0.200000 0.015686
0.501961 0.200000 0.015686
0.529412 0.200000 0.015686
0.556863 0.200000 0.015686
0.584314 0.200000 0.015686
0.611765 0.200000 0.015686
0.639216 0.200000 0.015686
0.000000 0.227451 0.015686
0.015686 0.227451 0.015686
0.035294 0.227451 0.015686
0.062745 0.227451 0.015686
0.090196 0.227451 0.015686
0.117647 0.227451 0.015686
0.145098 0.227451 0.015686
0.172549 0.227451 0.015686
0.200000 0.227451 0.015686
0.227451 0.227451 0.015686
0.254902 0.227451 0.015686
0.282353 0.227451 0.015686
0.309804 0.227451 0.015686
0.337255 0.227451 0.015686
0.364706 0.227451 0.015686
0.392157 0.227451 0.015686
0.419608 0.227451 0.015686
0.447059 0.227451 0.015686
0.474510 0.227451 0.015686
0.501961 0.227451 0.015686
0.529412 0.227451 0.015686
0.556863 0.227451 0.015686
0.584314 0.227451 0.015686
0.611765 0.227451 0.015686
0.639216 0.227451 0.015686
0.000000 0.254902 0.015686
0.015686 0.254902 0.015686
0.035294 0.254902 0.015686
0.062745 0.254902 0.015686
0.090196 0.254902 0.015686
0.117647 0.254902 0.015686
0.145098 0.254902 0.015686
0.172549 0.254902 0.015686
0.200000 0.254902 0.015686
