LUTs/Damaging/LUT_EXPOSURE/under_exposed.cube
#Generated by lutCreator.js
#Coded by SirSerch
#https://github.com/SirSerch/LutCreatorJs
TITLE lutCreatorJs_25
LUT_3D_SIZE 9
0.000000 0.000000 0.000000
0.062745 0.000000 0.000000
0.145098 0.000000 0.000000
0.227451 0.000000 0.000000
0.309804 0.000000 0.000000
0.392157 0.000000 0.000000
0.474510 0.000000 0.000000
0.556863 0.000000 0.000000
0.639216 0.000000 0.000000
0.000000 0.062745 0.000000
0.062745 0.062745 0.000000
0.145098 0.062745 0.000000
0.227451 0.062745 0.000000
0.309804 0.062745 0.000000
0.392157 0.062745 0.000000
0.474510 0.062745 0.000000
0.556863 0.062745 0.000000
0.639216 0.062745 0.000000
0.000000 0.145098 0.000000
0.062745 0.145098 0.000000
0.145098 0.145098 0.000000
0.227451 0.145098 0.000000
0.309804 0.145098 0.000000
0.392157 0.145098 0.000000
0.474510 0.145098 0.000000
0.556863 0.145098 0.000000
0.639216 0.145098 0.000000
0.000000 0.227451 0.000000
0.062745 0.227451 0.000000
0.145098 0.227451 0.000000
0.227451 0.227451 0.000000
0.309804 0.227451 0.000000
0.392157 0.227451 0.000000
0.474510 0.227451 0.000000
0.556863 0.227451 0.000000
0.639216 0.227451 0.000000
0.000000 0.309804 0.000000
0.062745 0.309804 0.000000
0.145098 0.309804 0.000000
0.227451 0.309804 0.000000
0.309804 0.309804 0.000000
0.392157 0.309804 0.000000
0.474510 0.309804 0.000000
0.556863 0.309804 0.000000
0.639216 0.309804 0.000000
0.000000 0.392157 0.000000
0.062745 0.392157 0.000000
0.145098 0.392157 0.000000
0.227451 0.392157 0.000000
0.309804 0.392157 0.000000
0.392157 0.392157 0.000000
0.474510 0.392157 0.000000
0.556863 0.392157 0.000000
0.639216 0.392157 0.000000
0.000000 0.474510 0.000000
0.062745 0.474510 0.000000
0.145098 0.474510 0.000000
0.227451 0.474510 0.000000
0.309804 0.474510 0.000000
0.392157 0.474510 0.000000
0.474510 0.474510 0.000000
0.556863 0.474510 0.000000
0.639216 0.474510 0.000000
0.000000 0.556863 0.000000
0.062745 0.556863 0.000000
0.145098 0.556863 0.000000
0.227451 0.556863 0.000000
0.309804 0.556863 0.000000
0.392157 0.556863 0.000000
0.474510 0.556863 0.000000
0.556863 0.556863 0.000000
0.639216 0.556863 0.000000
0.000000 0.639216 0.000000
0.062745 0.639216 0.000000
0.145098 0.639216 0.000000
0.227451 0.639216 0.000000
0.309804 0.639216 0.000000
0.392157 0.639216 0.000000
0.474510 0.639216 0.000000
0.556863 0.639216 0.000000
0.639216 0.639216 0.000000
0.000000 0.000000 0.062745
0.062745 0.000000 0.062745
0.145098 0.000000 0.062745
0.227451 0.000000 0.062745
0.309804 0.000000 0.062745
0.392157 0.000000 0.062745
0.474510 0.000000 0.062745
0.556863 0.000000 0.062745
0.639216 0.000000 0.062745
0.000000 0.062745 0.062745
0.062745 0.062745 0.062745
0.145098 0.062745 0.062745
0.227451 0.062745 0.062745
0.309804 0.062745 0.062745
0.392157 0.062745 0.062745
0.474510 0.062745 0.062745
0.556863 0.062745 0.062745
0.639216 0.062745 0.062745
0.000000 0.145098 0.062745
0.062745 0.145098 0.062745
0.145098 0.145098 0.062745
0.227451 0.145098 0.062745
0.309804 0.145098 0.062745
0.392157 0.145098 0.062745
0.474510 0.145098 0.062745
0.556863 0.145098 0.062745
0.639216 0.145098 0.062745
0.000000 0.227451 0.062745
0.062745 0.227451 0.062745
0.145098 0.227451 0.062745
0.227451 0.227451 0.062745
0.309804 0.227451 0.062745
0.392157 0.227451 0.062745
0.474510 0.227451 0.062745
0.556863 0.227451 0.062745
0.639216 0.227451 0.062745
0.000000 0.309804 0.062745
0.062745 0.309804 0.062745
0.145098 0.309804 0.062745
0.227451 0.309804 0.062745
0.309804 0.309804 0.062745
0.392157 0.309804 0.062745
0.474510 0.309804 0.062745
0.556863 0.309804 0.062745
0.639216 0.309804 0.062745
0.000000 0.392157 0.062745
0.062745 0.392157 0.062745
0.145098 0.392157 0.062745
0.227451 0.392157 0.062745
0.309804 0.392157 0.062745
0.392157 0.392157 0.062745
0.474510 0.392157 0.062745
0.556863 0.392157 0.062745
0.639216 0.392157 0.062745
0.000000 0.474510 0.062745
0.062745 0.474510 0.062745
0.145098 0.474510 0.062745
0.227451 0.474510 0.062745
0.309804 0.474510 0.062745
0.392157 0.474510 0.062745
0.474510 0.474510 0.062745
0.556863 0.474510 0.062745
0.639216 0.474510 0.062745
0.000000 0.556863 0.062745
0.062745 0.556863 0.062745
0.145098 0.556863 0.062745
0.227451 0.556863 0.062745
0.309804 0.556863 0.062745
0.392157 0.556863 0.062745
0.474510 0.556863 0.062745
0.556863 0.556863 0.062745
0.639216 0.556863 0.062745
0.000000 0.639216 0.062745
0.062745 0.639216 0.062745
0.145098 0.639216 0.062745
0.227451 0.639216 0.062745
0.309804 0.639216 0.062745
0.392157 0.639216 0.062745
0.474510 0.639216 0.062745
0.556863 0.639216 0.062745
0.639216 0.639216 0.062745
0.000000 0.000000 0.145098
0.062745 0.000000 0.145098
0.145098 0.000000 0.145098
0.227451 0.000000 0.145098
0.309804 0.000000 0.145098
0.392157 0.000000 0.145098
0.474510 0.000000 0.145098
0.556863 0.000000 0.145098
0.639216 0.000000 0.145098
0.000000 0.062745 0.145098
0.062745 0.062745 0.145098
0.145098 0.062745 0.145098
0.227451 0.062745 0.145098
0.309804 0.062745 0.145098
0.392157 0.062745 0.145098
0.474510 0.062745 0.145098
0.556863 0.062745 0.145098
0.639216 0.062745 0.145098
0.000000 0.145098 0.145098
0.062745 0.145098 0.145098
0.145098 0.145098 0.145098
0.227451 0.145098 0.145098
0.309804 0.145098 0.145098
0.392157 0.145098 0.145098
0.474510 0.145098 0.145098
0.556863 0.145098 0.145098
0.639216 0.145098 0.145098
0.000000 0.227451 0.145098
0.062745 0.227451 0.145098
0.145098 0.227451 0.145098
0.227451 0.227451 0.145098
0.309804 0.227451 0.145098
0.392157 0.227451 0.145098
0.474510 0.227451 0.145098
0.556863 0.227451 0.145098
0.639216 0.227451 0.145098
0.000000 0.309804 0.145098
0.062745 0.309804 0.145098
0.145098 0.309804 0.145098
0.227451 0.309804 0.145098
0.309804 0.309804 0.145098
0.392157 0.309804 0.145098
0.474510 0.309804 0.145098
0.556863 0.309804 0.145098
0.639216 0.309804 0.145098
0.000000 0.392157 0.145098
0.062745 0.392157 0.145098
0.145098 0.392157 0.145098
0.227451 0.392157 0.145098
0.309804 0.392157 0.145098
0.392157 0.392157 0.145098
0.474510 0.392157 0.145098
0.556863 0.392157 0.145098
0.639216 0.392157 0.145098
0.000000 0.474510 0.145098
0.062745 0.474510 0.145098
0.145098 0.474510 0.145098
0.227451 0.474510 0.145098
0.309804 0.474510 0.145098
0.392157 0.474510 0.145098
0.474510 0.474510 0.145098
0.556863 0.474510 0.145098
0.639216 0.474510 0.145098
0.000000 0.556863 0.145098
0.062745 0.556863 0.145098
0.145098 0.556863 0.145098
0.227451 0.556863 0.145098
0.309804 0.556863 0.145098
0.392157 0.556863 0.145098
0.474510 0.556863 0.145098
0.556863 0.556863 0.145098
0.639216 0.556863 0.145098
0.000000 0.639216 0.145098
0.062745 0.639216 0.145098
0.145098 0.639216 0.145098
0.227451 0.639216 0.145098
0.309804 0.639216 0.145098
0.392157 0.639216 0.145098
0.474510 0.639216 0.145098
0.556863 0.639216 0.145098
0.639216 0.639216 0.145098
0.000000 0.000000 0.227451
0.062745 0.000000 0.227451
0.145098 0.000000 0.227451
0.227451 0.000000 0.227451
0.309804 0.000000 0.227451
0.392157 0.000000 0.227451
0.474510 0.000000 0.227451
0.556863 0.000000 0.227451
0.639216 0.000000 0.227451
0.000000 0.062745 0.227451
0.062745 0.062745 0.227451
0.145098 0.062745 0.227451
0.227451 0.062745 0.227451
0.309804 0.062745 0.227451
0.392157 0.062745 0.227451
0.474510 0.062745 0.227451
0.556863 0.062745 0.227451
0.639216 0.062745 0.227451
0.000000 0.145098 0.227451
0.062745 0.145098 0.227451
0.145098 0.145098 0.227451
0.227451 0.145098 0.227451
0.309804 0.145098 0.227451
0.392157 0.145098 0.227451
0.474510 0.145098 0.227451
0.556863 0.145098 0.227451
0.639216 0.145098 0.227451
0.000000 0.227451 0.227451
0.062745 0.227451 0.227451
0.145098 0.227451 0.227451
0.227451 0.227451 0.227451
0.309804 0.227451 0.227451
0.392157 0.227451 0.227451
0.474510 0.227451 0.227451
0.556863 0.227451 0.227451
0.639216 0.227451 0.227451
0.000000 0.309804 0.227451
0.062745 0.309804 0.227451
0.145098 0.309804 0.227451
0.227451 0.309804 0.227451
0.309804 0.309804 0.227451
0.392157 0.309804 0.227451
0.474510 0.309804 0.227451
0.556863 0.309804 0.227451
0.639216 0.309804 0.227451
0.000000 0.392157 0.227451
0.062745 0.392157 0.227451
0.145098 0.392157 0.227451
0.227451 0.392157 0.227451
0.309804 0.392157 0.227451
0.392157 0.392157 0.227451
0.474510 0.392157 0.227451
0.556863 0.392157 0.227451
0.639216 0.392157 0.227451
0.000000 0.474510 0.227451
0.062745 0.474510 0.227451
0.145098 0.474510 0.227451
0.227451 0.474510 0.227451
0.309804 0.474510 0.227451
0.392157 0.474510 0.227451
0.474510 0.474510 0.227451
0.556863 0.474510 0.227451
0.639216 0.474510 0.227451
0.000000 0.556863 0.227451
0.062745 0.556863 0.227451
0.145098 0.556863 0.227451
0.227451 0.556863 0.227451
0.309804 0.556863 0.227451
0.392157 0.556863 0.227451
0.474510 0.556863 0.227451
0.556863 0.556863 0.227451
0.639216 0.556863 0.227451
0.000000 0.639216 0.227451
0.062745 0.639216 0.227451
0.145098 0.639216 0.227451
0.227451 0.639216 0.227451
0.309804 0.639216 0.227451
0.392157 0.639216 0.227451
0.474510 0.639216 0.227451
0.556863 0.639216 0.227451
0.639216 0.639216 0.227451
0.000000 0.000000 0.309804
0.062745 0.000000 0.309804
0.145098 0.000000 0.309804
0.227451 0.000000 0.309804
0.309804 0.000000 0.309804
0.392157 0.000000 0.309804
0.474510 0.000000 0.309804
0.556863 0.000000 0.309804
0.639216 0.000000 0.309804
0.000000 0.062745 0.309804
0.062745 0.062745 0.309804
0.145098 0.062745 0.309804
0.227451 0.062745 0.309804
0.309804 0.062745 0.309804
0.392157 0.062745 0.309804
0.474510 0.062745 0.309804
0.556863 0.062745 0.309804
0.639216 0.062745 0.309804
0.000000 0.145098 0.309804
0.062745 0.145098 0.309804
0.145098 0.145098 0.309804
0.227451 0.145098 0.309804
0.309804 0.145098 0.309804
0.392157 0.145098 0.309804
0.474510 0.145098 0.309804
0.556863 0.145098 0.309804
0.639216 0.145098 0.309804
0.000000 0.227451 0.309804
0.062745 0.227451 0.309804
0.145098 0.227451 0.309804
0.227451 0.227451 0.309804
0.309804 0.227451 0.309804
0.392157 0.227451 0.309804
0.474510 0.227451 0.309804
0.556863 0.227451 0.309804
0.639216 0.227451 0.309804
0.000000 0.309804 0.309804
0.062745 0.309804 0.309804
0.145098 0.309804 0.309804
0.227451 0.309804 0.309804
0.309804 0.309804 0.309804
0.392157 0.309804 0.309804
0.474510 0.309804 0.309804
0.556863 0.309804 0.309804
0.639216 0.309804 0.309804
0.000000 0.392157 0.309804
0.062745 0.392157 0.309804
0.145098 0.392157 0.309804
0.227451 0.392157 0.309804
0.309804 0.392157 0.309804
0.392157 0.392157 0.309804
0.474510 0.392157 0.309804
0.556863 0.392157 0.309804
0.639216 0.392157 0.309804
0.000000 0.474510 0.309804
0.062745 0.474510 0.309804
0.145098 0.474510 0.309804
0.227451 0.474510 0.309804
0.309804 0.474510 0.309804
0.392157 0.474510 0.309804
0.474510 0.474510 0.309804
0.556863 0.474510 0.309804
0.639216 0.474510 0.309804
0.000000 0.556863 0.309804
0.062745 0.556863 0.309804
0.145098 0.556863 0.309804
0.227451 0.556863 0.309804
0.309804 0.556863 0.309804
0.392157 0.556863 0.309804
0.474510 0.556863 0.309804
0.556863 0.556863 0.309804
0.639216 0.556863 0.309804
0.000000 0.639216 0.309804
0.062745 0.639216 0.309804
0.145098 0.639216 0.309804
0.227451 0.639216 0.309804
0.309804 0.639216 0.309804
0.392157 0.639216 0.309804
0.474510 0.639216 0.309804
0.556863 0.639216 0.309804
0.639216 0.639216 0.309804
0.000000 0.000000 0.392157
0.062745 0.000000 0.392157
0.145098 0.000000 0.392157
0.227451 0.000000 0.392157
0.309804 0.000000 0.392157
0.392157 0.000000 0.392157
0.474510 0.000000 0.392157
0.556863 0.000000 0.392157
0.639216 0.000000 0.392157
0.000000 0.062745 0.392157
0.062745 0.062745 0.392157
0.145098 0.062745 0.392157
0.227451 0.062745 0.392157
0.309804 0.062745 0.392157
0.392157 0.062745 0.392157
0.474510 0.062745 0.392157
0.556863 0.062745 0.392157
0.639216 0.062745 0.392157
0.000000 0.145098 0.392157
0.062745 0.145098 0.392157
0.145098 0.145098 0.392157
0.227451 0.145098 0.392157
0.309804 0.145098 0.392157
0.392157 0.145098 0.392157
0.474510 0.145098 0.392157
0.556863 0.145098 0.392157
0.639216 0.145098 0.392157
0.000000 0.227451 0.392157
0.062745 0.227451 0.392157
0.145098 0.227451 0.392157
0.227451 0.227451 0.392157
0.309804 0.227451 0.392157
0.392157 0.227451 0.392157
0.474510 0.227451 0.392157
0.556863 0.227451 0.392157
0.639216 0.227451 0.392157
0.000000 0.309804 0.392157
0.062745 0.309804 0.392157
0.145098 0.309804 0.392157
0.227451 0.309804 0.392157
0.309804 0.309804 0.392157
0.392157 0.309804 0.392157
0.474510 0.309804 0.392157
0.556863 0.309804 0.392157
0.639216 0.309804 0.392157
0.000000 0.392157 0.392157
0.062745 0.392157 0.392157
0.145098 0.392157 0.392157
0.227451 0.392157 0.392157
0.309804 0.392157 0.392157
0.392157 0.392157 0.392157
0.474510 0.392157 0.392157
0.556863 0.392157 0.392157
0.639216 0.392157 0.392157
0.000000 0.474510 0.392157
0.062745 0.474510 0.392157
0.145098 0.474510 0.392157
0.227451 0.474510 0.392157
0.309804 0.474510 0.392157
0.392157 0.474510 0.392157
0.474510 0.474510 0.392157
0.556863 0.474510 0.392157
0.639216 0.474510 0.392157
0.000000 0.556863 0.392157
0.062745 0.556863 0.392157
0.145098 0.556863 0.392157
0.227451 0.556863 0.392157
0.309804 0.556863 0.392157
0.392157 0.556863 0.392157
0.474510 0.556863 0.392157
0.556863 0.556863 0.392157
0.639216 0.556863 0.392157
0.000000 0.639216 0.392157
0.062745 0.639216 0.392157
0.145098 0.639216 0.392157
0.227451 0.639216 0.392157
0.309804 0.639216 0.392157
0.392157 0.639216 0.392157
0.474510 0.639216 0.392157
0.556863 0.639216 0.392157
0.639216 0.639216 0.392157
0.000000 0.000000 0.474510
0.062745 0.000000 0.474510
0.145098 0.000000 0.474510
0.227451 0.000000 0.474510
0.309804 0.000000 0.474510
0.392157 0.000000 0.474510
0.474510 0.000000 0.474510
0.556863 0.000000 0.474510
0.639216 0.000000 0.474510
0.000000 0.062745 0.474510
0.062745 0.062745 0.474510
0.145098 0.062745 0.474510
0.227451 0.062745 0.474510
0.309804 0.062745 0.474510
0.392157 0.062745 0.474510
0.474510 0.062745 0.474510
0.556863 0.062745 0.474510
0.639216 0.062745 0.474510
0.000000 0.145098 0.474510
0.062745 0.145098 0.474510
0.145098 0.145098 0.474510
0.227451 0.145098 0.474510
0.309804 0.145098 0.474510
0.392157 0.145098 0.474510
0.474510 0.145098 0.474510
0.556863 0.145098 0.474510
0.639216 0.145098 0.474510
0.000000 0.227451 0.474510
0.062745 0.227451 0.474510
0.145098 0.227451 0.474510
0.227451 0.227451 0.474510
0.309804 0.227451 0.474510
0.392157 0.227451 0.474510
0.474510 0.227451 0.474510
0.556863 0.227451 0.474510
0.639216 0.227451 0.474510
0.000000 0.309804 0.474510
0.062745 0.309804 0.474510
0.145098 0.309804 0.474510
0.227451 0.309804 0.474510
0.309804 0.309804 0.474510
0.392157 0.309804 0.474510
0.474510 0.309804 0.474510
0.556863 0.309804 0.474510
0.639216 0.309804 0.474510
0.000000 0.392157 0.474510
0.062745 0.392157 0.474510
0.145098 0.392157 0.474510
0.227451 0.392157 0.474510
0.309804 0.392157 0.474510
0.392157 0.392157 0.474510
0.474510 0.392157 0.474510
0.556863 0.392157 0.474510
0.639216 0.392157 0.474510
0.000000 0.474510 0.474510
0.062745 0.474510 0.474510
0.145098 0.474510 0.474510
0.227451 0.474510 0.474510
0.309804 0.474510 0.474510
0.392157 0.474510 0.474510
0.474510 0.474510 0.474510
0.556863 0.474510 0.474510
0.639216 0.474510 0.474510
0.000000 0.556863 0.474510
0.062745 0.556863 0.474510
0.145098 0.556863 0.474510
0.227451 0.556863 0.474510
0.309804 0.556863 0.474510
0.392157 0.556863 0.474510
0.474510 0.556863 0.474510
0.556863 0.556863 0.474510
0.639216 0.556863 0.474510
0.000000 0.639216 0.474510
0.062745 0.639216 0.474510
0.145098 0.639216 0.474510
0.227451 0.639216 0.474510
0.309804 0.639216 0.474510
0.392157 0.639216 0.474510
0.474510 0.639216 0.474510
0.556863 0.639216 0.474510
0.639216 0.639216 0.474510
0.000000 0.000000 0.556863
0.062745 0.000000 0.556863
0.145098 0.000000 0.556863
0.227451 0.000000 0.556863
0.309804 0.000000 0.556863
0.392157 0.000000 0.556863
0.474510 0.000000 0.556863
0.556863 0.000000 0.556863
0.639216 0.000000 0.556863
0.000000 0.062745 0.556863
0.062745 0.062745 0.556863
0.145098 0.062745 0.556863
0.227451 0.062745 0.556863
0.309804 0.062745 0.556863
0.392157 0.062745 0.556863
0.474510 0.062745 0.556863
0.556863 0.062745 0.556863
0.639216 0.062745 0.556863
0.000000 0.145098 0.556863
0.062745 0.145098 0.556863
0.145098 0.145098 0.556863
0.227451 0.145098 0.556863
0.309804 0.145098 0.556863
0.392157 0.145098 0.556863
0.474510 0.145098 0.556863
0.556863 0.145098 0.556863
0.639216 0.145098 0.556863
0.000000 0.227451 0.556863
0.062745 0.227451 0.556863
0.145098 0.227451 0.556863
0.227451 0.227451 0.556863
0.309804 0.227451 0.556863
0.392157 0.227451 0.556863
0.474510 0.227451 0.556863
0.556863 0.227451 0.556863
0.639216 0.227451 0.556863
0.000000 0.309804 0.556863
0.062745 0.309804 0.556863
0.145098 0.309804 0.556863
0.227451 0.309804 0.556863
0.309804 0.309804 0.556863
0.392157 0.309804 0.556863
0.474510 0.309804 0.556863
0.556863 0.309804 0.556863
0.639216 0.309804 0.556863
0.000000 0.392157 0.556863
0.062745 0.392157 0.556863
0.145098 0.392157 0.556863
0.227451 0.392157 0.556863
0.309804 0.392157 0.556863
0.392157 0.392157 0.556863
0.474510 0.392157 0.556863
0.556863 0.392157 0.556863
0.639216 0.392157 0.556863
0.000000 0.474510 0.556863
0.062745 0.474510 0.556863
0.145098 0.474510 0.556863
0.227451 0.474510 0.556863
0.309804 0.474510 0.556863
0.392157 0.474510 0.556863
0.474510 0.474510 0.556863
0.556863 0.474510 0.556863
0.639216 0.474510 0.556863
0.000000 0.556863 0.556863
0.062745 0.556863 0.556863
0.145098 0.556863 0.556863
0.227451 0.556863 0.556863
0.309804 0.556863 0.556863
0.392157 0.556863 0.556863
0.474510 0.556863 0.556863
0.556863 0.556863 0.556863
0.639216 0.556863 0.556863
0.000000 0.639216 0.556863
0.062745 0.639216 0.556863
0.145098 0.639216 0.556863
0.227451 0.639216 0.556863
0.309804 0.639216 0.556863
0.392157 0.639216 0.556863
0.474510 0.639216 0.556863
0.556863 0.639216 0.556863
0.639216 0.639216 0.556863
0.000000 0.000000 0.639216
0.062745 0.000000 0.639216
0.145098 0.000000 0.639216
0.227451 0.000000 0.639216
0.309804 0.000000 0.639216
0.392157 0.000000 0.639216
0.474510 0.000000 0.639216
0.556863 0.000000 0.639216
0.639216 0.000000 0.639216
0.000000 0.062745 0.639216
0.062745 0.062745 0.639216
0.145098 0.062745 0.639216
0.227451 0.062745 0.639216
0.309804 0.062745 0.639216
0.392157 0.062745 0.639216
0.474510 0.062745 0.639216
0.556863 0.062745 0.639216
0.639216 0.062745 0.639216
0.000000 0.145098 0.639216
0.062745 0.145098 0.639216
0.145098 0.145098 0.639216
0.227451 0.145098 0.639216
0.309804 0.145098 0.639216
0.392157 0.145098 0.639216
0.474510 0.145098 0.639216
0.556863 0.145098 0.639216
0.639216 0.145098 0.639216
0.000000 0.227451 0.639216
0.062745 0.227451 0.639216
0.145098 0.227451 0.639216
0.227451 0.227451 0.639216
0.309804 0.227451 0.639216
0.392157 0.227451 0.639216
0.474510 0.227451 0.639216
0.556863 0.227451 0.639216
0.639216 0.227451 0.639216
0.000000 0.309804 0.639216
0.062745 0.309804 0.639216
0.145098 0.309804 0.639216
0.227451 0.309804 0.639216
0.309804 0.309804 0.639216
0.392157 0.309804 0.639216
0.474510 0.309804 0.639216
0.556863 0.309804 0.639216
0.639216 0.309804 0.639216
0.000000 0.392157 0.639216
0.062745 0.392157 0.639216
0.145098 0.392157 0.639216
0.227451 0.392157 0.639216
0.309804 0.392157 0.639216
0.392157 0.392157 0.639216
0.474510 0.392157 0.639216
0.556863 0.392157 0.639216
0.639216 0.392157 0.639216
0.000000 0.474510 0.639216
0.062745 0.474510 0.639216
0.145098 0.474510 0.639216
0.227451 0.474510 0.639216
0.309804 0.474510 0.639216
0.392157 0.474510 0.639216
0.474510 0.474510 0.639216
0.556863 0.474510 0.639216
0.639216 0.474510 0.639216
0.000000 0.556863 0.639216
0.062745 0.556863 0.639216
0.145098 0.556863 0.639216
0.227451 0.556863 0.639216
0.309804 0.556863 0.639216
0.392157 0.556863 0.639216
0.474510 0.556863 0.639216
0.556863 0.556863 0.639216
0.639216 0.556863 0.639216
0.000000 0.639216 0.639216
0.062745 0.639216 0.639216
0.145098 0.639216 0.639216
0.227451 0.639216 0.639216
0.309804 0.639216 0.639216
0.392157 0.639216 0.639216
0.474510 0.639216 0.639216
0.556863 0.639216 0.639216
0.639216 0.639216 0.639216
