LUTs/Damaging/LUT_EXPOSURE/under_exposed.cube
#Generated by lutCreator.js
#Coded by SirSerch
#https://github.com/SirSerch/LutCreatorJs
TITLE lutCreatorJs_25
LUT_3D_SIZE 5
0.000000 0.000000 0.000000
0.145098 0.000000 0.000000
0.309804 0.000000 0.000000
0.474510 0.000000 0.000000
0.639216 0.000000 0.000000
0.000000 0.145098 0.000000
0.145098 0.145098 0.000000
0.309804 0.145098 0.000000
0.474510 0.145098 0.000000
0.639216 0.145098 0.000000
0.000000 0.309804 0.000000
0.145098 0.309804 0.000000
0.309804 0.309804 0.000000
0.474510 0.309804 0.000000
0.639216 0.309804 0.000000
0.000000 0.474510 0.000000
0.145098 0.474510 0.000000
0.309804 0.474510 0.000000
0.474510 0.474510 0.000000
0.639216 0.474510 0.000000
0.000000 0.639216 0.000000
0.145098 0.639216 0.000000
0.309804 0.639216 0.000000
0.474510 0.639216 0.000000
0.639216 0.639216 0.000000
0.000000 0.000000 0.145098
0.145098 0.000000 0.145098
0.309804 0.000000 0.145098
0.474510 0.000000 0.145098
0.639216 0.000000 0.145098
0.000000 0.145098 0.145098
0.145098 0.145098 0.145098
0.309804 0.145098 0.145098
0.474510 0.145098 0.145098
0.639216 0.145098 0.145098
0.000000 0.309804 0.145098
0.145098 0.309804 0.145098
0.309804 0.309804 0.145098
0.474510 0.309804 0.145098
0.639216 0.309804 0.145098
0.000000 0.474510 0.145098
0.145098 0.474510 0.145098
0.309804 0.474510 0.145098
0.474510 0.474510 0.145098
0.639216 0.474510 0.145098
0.000000 0.639216 0.145098
0.145098 0.639216 0.145098
0.309804 0.639216 0.145098
0.474510 0.639216 0.145098
0.639216 0.639216 0.145098
0.000000 0.000000 0.309804
0.145098 0.000000 0.309804
0.309804 0.000000 0.309804
0.474510 0.000000 0.309804
0.639216 0.000000 0.309804
0.000000 0.145098 0.309804
0.145098 0.145098 0.309804
0.309804 0.145098 0.309804
0.474510 0.145098 0.309804
0.639216 0.145098 0.309804
0.000000 0.309804 0.309804
0.145098 0.309804 0.309804
0.309804 0.309804 0.309804
0.474510 0.309804 0.309804
0.639216 0.309804 0.309804
0.000000 0.474510 0.309804
0.145098 0.474510 0.309804
0.309804 0.474510 0.309804
0.474510 0.474510 0.309804
0.639216 0.474510 0.309804
0.000000 0.639216 0.309804
0.145098 0.639216 0.309804
0.309804 0.639216 0.309804
0.474510 0.639216 0.309804
0.639216 0.639216 0.309804
0.000000 0.000000 0.474510
0.145098 0.000000 0.474510
0.309804 0.000000 0.474510
0.474510 0.000000 0.474510
0.639216 0.000000 0.474510
0.000000 0.145098 0.474510
0.145098 0.145098 0.474510
0.309804 0.145098 0.474510
0.474510 0.145098 0.474510
0.639216 0.145098 0.474510
0.000000 0.309804 0.474510
0.145098 0.309804 0.474510
0.309804 0.309804 0.474510
0.474510 0.309804 0.474510
0.639216 0.309804 0.474510
0.000000 0.474510 0.474510
0.145098 0.474510 0.474510
0.309804 0.474510 0.474510
0.474510 0.474510 0.474510
0.639216 0.474510 0.474510
0.000000 0.639216 0.474510
0.145098 0.639216 0.474510
0.309804 0.639216 0.474510
0.474510 0.639216 0.474510
0.639216 0.639216 0.474510
0.000000 0.000000 0.639216
0.145098 0.000000 0.639216
0.309804 0.000000 0.639216
0.474510 0.000000 0.639216
0.639216 0.000000 0.639216
0.000000 0.145098 0.639216
0.145098 0.145098 0.639216
0.309804 0.145098 0.639216
0.474510 0.145098 0.639216
0.639216 0.145098 0.639216
0.000000 0.309804 0.639216
0.145098 0.309804 0.639216
0.309804 0.309804 0.639216
0.474510 0.309804 0.639216
0.639216 0.309804 0.639216
0.000000 0.474510 0.639216
0.145098 0.474510 0.639216
0.309804 0.474510 0.639216
0.474510 0.474510 0.639216
0.639216 0.474510 0.639216
0.000000 0.639216 0.639216
0.145098 0.639216 0.639216
0.309804 0.639216 0.639216
0.474510 0.639216 0.639216
0.639216 0.639216 0.639216
